stevenjj/dreamer_head_plots/plots/fixed_point_square.csv
dt,head_des_x,head_des_y,head_des_z,reye_des_x,reye_des_y,reye_des_z,leye_des_x,leye_des_y,leye_des_z,head_cur_x,head_cur_y,head_cur_z,reye_cur_x,reye_cur_y,reye_cur_z,leye_cur_x,leye_cur_y,leye_cur_z,head_ori_error,reye_orientation_error,leye_orientation_error,h1,h2,h3,q0,q1,q2,q3,q4,q5,q6,dq0,dq1,dq2,dq3,dq4,dq5,dq6,rank_t1,rank_t2
0.05,0.7,0.0,0.1385,0.7,0.0,0.1385,0.7,0.0,0.1385,0.7,0.0,0.1385,0.7001,-0.001,0.1385,0.7001,0.001,0.1385,0.0,0.0,0.0,0.0,0.0,0.0,0.0,0.0,0.0,-0.0,0.0,0.0902,-0.0902,0.0,0.0,0.0,0.0,0.0,0.0,0.0,3.0,3.0
0.05,0.7,0.0001,0.1385,0.7,0.0,0.1385,0.7,0.0,0.1385,0.7,0.0,0.1385,0.7001,-0.001,0.1385,0.7001,0.001,0.1385,0.0,0.0,0.0,0.0,0.0,0.0,0.0,0.0,0.0,-0.0,0.0,0.0902,-0.0902,0.0,0.0,0.0,0.0,0.0,0.0,0.0,3.0,3.0
0.05,0.7,0.0004,0.1385,0.7,0.0,0.1385,0.7,0.0,0.1385,0.7,0.0,0.1385,0.7001,-0.001,0.1385,0.7001,0.001,0.1385,0.0,0.0,0.0,0.0,0.0,0.0,0.0,0.0,0.0,-0.0,0.0,0.0902,-0.0902,0.0,0.0,0.0,0.0,0.0,0.0,0.0,3.0,3.0
0.05,0.7,0.0009,0.1385,0.7,0.0,0.1385,0.7,0.0,0.1385,0.7,0.0,0.1385,0.7001,-0.001,0.1385,0.7001,0.001,0.1385,0.0,0.0,0.0,0.0,0.0,0.0,0.0,0.0,0.0,-0.0,0.0,0.0902,-0.0902,0.0,0.0,0.0,0.0,0.0,0.0,0.0,3.0,3.0
0.05,0.7,0.0018,0.1385,0.7,0.0,0.1385,0.7,0.0,0.1385,0.7,0.0,0.1385,0.7001,-0.001,0.1385,0.7001,0.001,0.1385,0.0,0.0,0.0,0.0,0.0,0.0,0.0,0.0,0.0,-0.0,0.0,0.0902,-0.0902,0.0,0.0,0.0,0.0,0.0,0.0,0.0,3.0,3.0
0.05,0.7,0.003,0.1385,0.7001,0.0,0.1385,0.7001,0.0,0.1385,0.7,0.0,0.1385,0.7001,-0.001,0.1385,0.7001,0.001,0.1385,0.0043,0.0,0.0,0.0,0.0,0.0,0.0,0.0,0.0,-0.0,0.0,0.0902,-0.0902,0.0,0.0043,0.0,0.0,0.0,-0.0043,-0.0043,3.0,3.0
0.05,0.7,0.0046,0.1385,0.7001,0.0,0.1385,0.7001,0.0,0.1385,0.7,0.003,0.1385,0.7004,-0.0005,0.1385,0.6999,0.0015,0.1385,0.0,0.0,0.0,0.0,0.0,0.0,0.0,0.0043,0.0,-0.0,0.0,0.0859,-0.0945,0.0,0.0,0.0,0.0,0.0,0.0,0.0,3.0,3.0
0.05,0.7,0.0067,0.1385,0.7001,0.0,0.1385,0.7001,0.0,0.1385,0.7,0.003,0.1385,0.7001,-0.0005,0.1385,0.7002,0.0015,0.1385,0.0053,0.0,0.0,0.0,0.0,0.0,0.0,0.0043,0.0,-0.0,0.0,0.0859,-0.0945,0.0,0.0053,0.0,0.0,0.0,-0.0053,-0.0053,3.0,3.0
0.05,0.7,0.0093,0.1385,0.7002,0.0,0.1385,0.7002,0.0,0.1385,0.7,0.0067,0.1385,0.7005,0.0002,0.1385,0.7,0.0022,0.1385,0.0037,0.0,0.0037,0.0,0.0,0.0,0.0,0.0096,0.0,-0.0,0.0,0.0806,-0.0998,0.0,0.0037,0.0,0.0,0.0,-0.0037,-0.0074,3.0,3.0
0.05,0.7,0.0124,0.1385,0.7002,0.0,0.1385,0.7002,0.0,0.1385,0.7,0.0093,0.1385,0.7004,0.0006,0.1385,0.7,0.0005,0.1385,0.0044,0.0,0.0,0.0,0.0,0.0,0.0,0.0133,0.0,-0.0,0.0,0.0769,-0.1072,0.0,0.0044,0.0,0.0,0.0,-0.0044,-0.0044,3.0,3.0
0.05,0.7,0.0161,0.1385,0.7003,0.0,0.1385,0.7003,0.0,0.1385,0.7,0.0124,0.1385,0.7004,0.0012,0.1385,0.7,0.001,0.1385,0.0052,0.0,0.0,0.0,0.0,0.0,0.0,0.0177,0.0,-0.0,0.0,0.0724,-0.1116,0.0,0.0052,0.0,0.0,0.0,-0.0052,-0.0052,3.0,3.0
0.05,0.7,0.0203,0.1385,0.7004,0.0,0.1385,0.7004,0.0,0.1385,0.7,0.0161,0.1385,0.7005,0.0018,0.1385,0.7001,0.0016,0.1385,0.006,0.0031,0.0,0.0,0.0,0.0,0.0,0.023,0.0,-0.0,0.0,0.0672,-0.1168,-0.0,0.006,-0.0,-0.0,0.0,-0.0091,-0.006,3.0,3.0
0.05,0.7,0.025,0.1385,0.7005,0.0,0.1385,0.7005,0.0,0.1385,0.7,0.0203,0.1385,0.7007,0.0008,0.1385,0.7002,0.0023,0.1385,0.0068,0.0,0.0039,0.0,0.0,0.0,0.0,0.029,-0.0,-0.0,0.0,0.0581,-0.1228,0.0,0.0068,0.0,0.0,0.0,-0.0068,-0.0107,3.0,3.0
0.05,0.7,0.0304,0.1385,0.7006,0.0,0.1385,0.7006,0.0,0.1385,0.7,0.025,0.1385,0.7008,0.0016,0.1385,0.7001,0.0008,0.1385,0.0076,0.0,0.0,0.0,0.0,0.0,0.0,0.0357,-0.0,-0.0,0.0,0.0513,-0.1335,0.0,0.0076,0.0,0.0,0.0,-0.0076,-0.0076,3.0,3.0
0.05,0.7,0.0362,0.1385,0.7007,0.0,0.1385,0.7007,0.0,0.1385,0.7,0.0304,0.1385,0.7008,0.0025,0.1385,0.7002,0.0017,0.1385,0.0084,0.0044,0.0029,0.0,0.0,0.0,0.0,0.0433,-0.0,-0.0,0.0,0.0437,-0.1411,0.0,0.0084,0.0,0.0,0.0,-0.0127,-0.0112,3.0,3.0
0.05,0.7,0.0427,0.1385,0.7009,0.0,0.1385,0.7009,0.0,0.1385,0.7,0.0362,0.1385,0.7011,0.0011,0.1385,0.7002,0.001,0.1385,0.0091,0.0,0.0,0.0,0.0,0.0,0.0,0.0517,-0.0,-0.0,0.0,0.031,-0.1523,0.0,0.0091,0.0,0.0,0.0,-0.0091,-0.0091,3.0,3.0
0.05,0.7,0.0496,0.1385,0.701,0.0,0.1385,0.701,0.0,0.1385,0.7,0.0427,0.1385,0.7012,0.0022,0.1385,0.7004,0.0021,0.1385,0.0099,0.0038,0.0034,0.0,0.0,0.0,0.0,0.0609,-0.0,-0.0,0.0,0.0218,-0.1615,-0.0,0.0099,-0.0,-0.0,0.0,-0.0137,-0.0133,3.0,3.0
0.05,0.7,0.0571,0.1385,0.7011,0.0,0.1385,0.7011,0.0,0.1385,0.7,0.0496,0.1385,0.7014,0.0013,0.1385,0.7004,0.0012,0.1385,0.0106,0.0,0.0,0.0,0.0,0.0,0.0,0.0708,-0.0,-0.0,0.0,0.0081,-0.1748,0.0,0.0106,0.0,0.0,0.0,-0.0106,-0.0106,3.0,3.0
0.05,0.7,0.065,0.1385,0.7013,0.0,0.1385,0.7013,0.0,0.1385,0.7,0.0571,0.1385,0.7015,0.0026,0.1385,0.7006,0.0024,0.1385,0.0113,0.0045,0.0039,0.0,0.0,0.0,0.0,0.0814,-0.0,-0.0,0.0,-0.0025,-0.1854,0.0,0.0113,0.0,0.0,0.0,-0.0158,-0.0152,3.0,3.0
0.05,0.7,0.0735,0.1385,0.7015,0.0,0.1385,0.7015,0.0,0.1385,0.7,0.065,0.1385,0.7018,0.0015,0.1385,0.7006,0.0014,0.1385,0.0119,0.0,0.0,0.0,0.0,0.0,0.0,0.0926,-0.0,-0.0,0.0,-0.0182,-0.2006,0.0,0.0119,0.0,0.0,0.0,-0.0119,-0.0119,3.0,3.0
0.05,0.7,0.0823,0.1385,0.7016,0.0,0.1385,0.7016,0.0,0.1385,0.7,0.0735,0.1385,0.7018,0.003,0.1385,0.7008,0.0027,0.1385,0.0125,0.0051,0.0044,0.0,0.0,0.0,0.0,0.1046,-0.0,-0.0,0.0,-0.0302,-0.2126,0.0,0.0125,0.0,0.0,0.0,-0.0176,-0.0169,3.0,3.0
0.05,0.7,0.0916,0.1385,0.7018,0.0,0.1385,0.7018,0.0,0.1385,0.7,0.0823,0.1385,0.7021,0.0016,0.1385,0.7008,0.0015,0.1385,0.013,0.0,0.0,0.0,0.0,0.0,0.0,0.117,-0.0,-0.0,0.0,-0.0478,-0.2294,0.0,0.013,0.0,0.0,0.0,-0.013,-0.013,3.0,3.0
0.05,0.7,0.1012,0.1385,0.702,0.0,0.1385,0.702,0.0,0.1385,0.7,0.0916,0.1385,0.7022,0.0033,0.1385,0.7011,0.0029,0.1385,0.0135,0.0057,0.0047,0.0,0.0,0.0,0.0,0.1301,-0.0,-0.0,0.0,-0.0608,-0.2424,0.0,0.0135,0.0,0.0,0.0,-0.0192,-0.0182,3.0,3.0
0.05,0.7,0.1111,0.1385,0.7022,0.0,0.1385,0.7022,0.0,0.1385,0.7,0.1012,0.1385,0.7025,0.0018,0.1385,0.7011,0.0016,0.1385,0.0139,0.0031,0.0,0.0,0.0,0.0,0.0,0.1435,-0.0,-0.0,0.0,-0.08,-0.2606,-0.0,0.0139,0.0,0.0,0.0,-0.0169,-0.0139,3.0,3.0
0.05,0.7,0.1213,0.1385,0.7024,0.0,0.1385,0.7024,0.0,0.1385,0.7,0.1111,0.1385,0.7027,0.0018,0.1385,0.7014,0.003,0.1385,0.0142,0.0032,0.0049,0.0,0.0,0.0,-0.0,0.1574,0.0,0.0,0.0,-0.0969,-0.2745,0.0,0.0142,0.0,0.0,0.0,-0.0174,-0.0191,3.0,3.0
0.05,0.7,0.1318,0.1385,0.7026,0.0,0.1385,0.7026,0.0,0.1385,0.7,0.1213,0.1385,0.7029,0.0019,0.1385,0.7014,0.0016,0.1385,0.0145,0.0033,0.0,0.0,0.0,0.0,-0.0,0.1716,0.0,0.0,0.0,-0.1143,-0.2935,0.0,0.0145,0.0,0.0,0.0,-0.0177,-0.0145,3.0,3.0
0.05,0.7,0.1424,0.1385,0.7028,0.0,0.1385,0.7028,0.0,0.1385,0.7,0.1318,0.1385,0.7031,0.0019,0.1385,0.7017,0.0031,0.1385,0.0146,0.0033,0.0049,0.0,0.0,0.0,-0.0,0.1861,0.0,0.0,0.0,-0.132,-0.308,0.0,0.0146,0.0,0.0,0.0,-0.018,-0.0196,3.0,3.0
0.05,0.7,0.1532,0.1385,0.7031,0.0,0.1385,0.7031,0.0,0.1385,0.7,0.1424,0.1385,0.7033,0.0019,0.1385,0.7017,0.0016,0.1385,0.0147,0.0034,0.0,0.0,0.0,0.0,-0.0,0.2007,0.0,0.0,0.0,-0.15,-0.3276,0.0,0.0147,0.0,0.0,0.0,-0.0181,-0.0147,3.0,3.0
0.05,0.7,0.1641,0.1385,0.7033,0.0,0.1385,0.7033,0.0,0.1385,0.7,0.1532,0.1385,0.7034,0.002,0.1385,0.7021,0.0031,0.1385,0.0148,0.0034,0.0049,0.0,0.0,0.0,-0.0,0.2154,0.0,0.0,0.0,-0.1681,-0.3423,-0.0,0.0148,0.0,0.0,0.0,-0.0182,-0.0197,3.0,3.0
0.05,0.7,0.175,0.1385,0.7035,0.0,0.1385,0.7035,0.0,0.1385,0.7,0.1641,0.1385,0.7036,0.002,0.1385,0.7021,0.0016,0.1385,0.0147,0.0035,0.0,0.0,0.0,0.0,-0.0,0.2302,0.0,0.0,0.0,-0.1863,-0.362,0.0,0.0147,0.0,0.0,0.0,-0.0182,-0.0147,3.0,3.0
0.05,0.7,0.1859,0.1385,0.7037,0.0,0.1385,0.7037,0.0,0.1385,0.7,0.175,0.1385,0.7038,0.002,0.1385,0.7025,0.003,0.1385,0.0146,0.0035,0.0047,0.0,0.0,0.0,-0.0,0.245,0.0,0.0,0.0,-0.2045,-0.3767,0.0,0.0146,0.0,0.0,0.0,-0.0181,-0.0194,3.0,3.0
0.05,0.7,0.1968,0.1385,0.7039,0.0,0.1385,0.7039,0.0,0.1385,0.7,0.1859,0.1385,0.704,0.002,0.1385,0.7025,0.0016,0.1385,0.0145,0.0034,0.0,0.0,0.0,0.0,-0.0,0.2596,0.0,0.0,0.0,-0.2226,-0.3961,-0.0,0.0145,0.0,0.0,0.0,-0.0179,-0.0145,3.0,3.0
0.05,0.7,0.2076,0.1385,0.7042,0.0,0.1385,0.7042,0.0,0.1385,0.7,0.1968,0.1385,0.7042,0.0019,0.1385,0.7029,0.0029,0.1385,0.0142,0.0034,0.0045,0.0,0.0,0.0,-0.0,0.2741,0.0,0.0,0.0,-0.2405,-0.4106,0.0,0.0142,0.0,0.0,0.0,-0.0176,-0.0187,3.0,3.0
0.05,0.7,0.2182,0.1385,0.7044,0.0,0.1385,0.7044,0.0,0.1385,0.7,0.2076,0.1385,0.7044,0.0019,0.1385,0.7029,0.0015,0.1385,0.0139,0.0034,0.0,0.0,0.0,0.0,-0.0,0.2883,0.0,0.0,0.0,-0.2582,-0.4293,0.0,0.0139,0.0,0.0,0.0,-0.0173,-0.0139,3.0,3.0
0.05,0.7,0.2287,0.1385,0.7046,0.0,0.1385,0.7046,0.0,0.1385,0.7,0.2182,0.1385,0.7046,0.0019,0.1385,0.7033,0.0027,0.1385,0.0135,0.0033,0.0041,0.0,0.0,0.0,-0.0,0.3022,0.0,0.0,0.0,-0.2754,-0.4432,0.0,0.0135,0.0,0.0,0.0,-0.0168,-0.0177,3.0,3.0
0.05,0.7,0.2389,0.1385,0.7048,0.0,0.1385,0.7048,0.0,0.1385,0.7,0.2287,0.1385,0.7047,0.0018,0.1385,0.7034,0.0014,0.1385,0.0131,0.0032,0.0,0.0,0.0,0.0,-0.0,0.3158,0.0,0.0,0.0,-0.2923,-0.4609,0.0,0.0131,0.0,0.0,0.0,-0.0163,-0.0131,3.0,3.0
0.05,0.7,0.2488,0.1385,0.705,0.0,0.1385,0.705,0.0,0.1385,0.7,0.2389,0.1385,0.7049,0.0018,0.1385,0.7038,0.0025,0.1385,0.0127,0.0031,0.0038,0.0,0.0,0.0234,-0.0,0.3289,0.0,0.0,0.0,-0.3086,-0.474,0.0,0.0123,0.0,0.0,0.0,-0.0154,-0.016,3.0,3.0
0.05,0.7,0.2584,0.1385,0.7052,0.0,0.1385,0.7052,0.0,0.1385,0.7001,0.2486,0.1385,0.7051,0.0017,0.1385,0.7039,0.0012,0.1385,0.0125,0.0029,0.0,0.0,0.0,0.3539,-0.0,0.3412,0.0,0.0,0.0,-0.324,-0.49,0.0,0.0064,0.0,0.0,0.0,-0.0093,-0.0064,3.0,3.0
0.05,0.7,0.2677,0.1385,0.7054,0.0,0.1385,0.7054,0.0,0.1385,0.7016,0.2541,0.1385,0.7052,0.0009,0.1385,0.7047,0.0017,0.1385,0.0177,0.0,0.0,0.0,0.0,0.5433,-0.0,0.3475,0.0,0.0,0.0,-0.3333,-0.4964,0.0,0.0054,0.0,0.0,0.0,-0.0054,-0.0054,3.0,3.0
0.05,0.7,0.2765,0.1385,0.7055,0.0,0.1385,0.7055,0.0,0.1385,0.7032,0.259,0.1385,0.7054,0.0016,0.1385,0.7051,0.0021,0.1385,0.0233,0.0,0.0032,0.0,0.0,0.7006,-0.0,0.3529,0.0,0.0,0.0,-0.3387,-0.5018,0.0,0.0012,0.0,0.0,0.0,-0.0012,-0.0044,3.0,3.0
0.05,0.7,0.285,0.1385,0.7057,0.0,0.1385,0.7057,0.0,0.1385,0.7059,0.261,0.1385,0.7055,0.0018,0.1385,0.7054,0.0001,0.1385,0.0325,0.0031,0.0,0.0,0.0,0.8144,-0.0,0.3541,0.0,0.0,0.0,-0.3399,-0.5062,0.0,0.0019,0.0,0.0,0.0,-0.005,-0.0019,3.0,3.0
0.05,0.7,0.2929,0.1385,0.7059,0.0,0.1385,0.7059,0.0,0.1385,0.7084,0.2634,0.1385,0.7057,0.0003,0.1385,0.7055,0.0003,0.1385,0.0403,0.0,0.0,0.0,0.0,0.8568,-0.0,0.356,0.0,0.0,0.0,-0.3449,-0.5081,0.0,0.0014,0.0,0.0,0.0,-0.0014,-0.0014,3.0,3.0
0.05,0.7,0.3004,0.1385,0.706,0.0,0.1385,0.706,0.0,0.1385,0.7109,0.2655,0.1385,0.7059,0.0005,0.1385,0.7058,0.0003,0.1385,0.0479,0.0,0.0,0.0,0.0,0.8853,-0.0,0.3575,0.0,0.0,0.0,-0.3463,-0.5096,0.0,0.001,0.0,0.0,0.0,-0.001,-0.001,3.0,3.0
0.05,0.7,0.3073,0.1385,0.7061,0.0,0.1385,0.7061,0.0,0.1385,0.7133,0.2672,0.1385,0.706,0.0006,0.1385,0.706,0.0004,0.1385,0.0553,0.0,0.0,0.0,0.0,0.9035,-0.0,0.3584,0.0,0.0,0.0,-0.3473,-0.5105,0.0,0.0007,0.0,0.0,0.0,-0.0007,-0.0007,3.0,3.0
0.05,0.7,0.3138,0.1385,0.7063,0.0,0.1385,0.7063,0.0,0.1385,0.7157,0.2687,0.1385,0.7061,0.0007,0.1385,0.7061,0.0004,0.1385,0.0622,0.0,0.0,0.0,0.0,0.916,-0.0,0.3592,0.0,0.0,0.0,-0.348,-0.5113,0.0,0.0005,0.0,0.0,0.0,-0.0005,-0.0005,3.0,3.0
0.05,0.7,0.3196,0.1385,0.7064,0.0,0.1385,0.7064,0.0,0.1385,0.718,0.27,0.1385,0.7063,0.0008,0.1385,0.7063,0.0005,0.1385,0.0687,0.0,0.0,0.0,0.0,0.9249,-0.0,0.3597,0.0,0.0,0.0,-0.3486,-0.5118,0.0,0.0004,0.0,0.0,0.0,-0.0004,-0.0004,3.0,3.0
0.05,0.7,0.325,0.1385,0.7065,0.0,0.1385,0.7065,0.0,0.1385,0.7202,0.2712,0.1385,0.7064,0.0008,0.1385,0.7064,0.0005,0.1385,0.0745,0.0,0.0,0.0,0.0,0.9315,-0.0,0.3601,0.0,0.0,0.0,-0.349,-0.5122,0.0,0.0003,0.0,0.0,0.0,-0.0003,-0.0003,3.0,3.0
0.05,0.7,0.3297,0.1385,0.7066,0.0,0.1385,0.7066,0.0,0.1385,0.7222,0.2722,0.1385,0.7065,0.0009,0.1385,0.7065,0.0005,0.1385,0.0798,0.0,0.0,0.0,0.0,0.9365,-0.0,0.3605,0.0,0.0,0.0,-0.3493,-0.5126,0.0,0.0003,0.0,0.0,0.0,-0.0003,-0.0003,3.0,3.0
0.05,0.7,0.3339,0.1385,0.7067,0.0,0.1385,0.7067,0.0,0.1385,0.724,0.2731,0.1385,0.7066,0.0009,0.1385,0.7066,0.0005,0.1385,0.0844,0.0,0.0,0.0,0.0,0.9403,-0.0,0.3607,0.0,0.0,0.0,-0.3496,-0.5128,0.0,0.0002,0.0,0.0,0.0,-0.0002,-0.0002,3.0,3.0
0.05,0.7,0.3376,0.1385,0.7068,0.0,0.1385,0.7068,0.0,0.1385,0.7256,0.2739,0.1385,0.7067,0.0009,0.1385,0.7067,0.0005,0.1385,0.0884,0.0,0.0,0.0,0.0,0.9433,-0.0,0.3609,0.0,0.0,0.0,-0.3498,-0.513,0.0,0.0002,0.0,0.0,0.0,-0.0002,-0.0002,3.0,3.0
0.05,0.7,0.3407,0.1385,0.7068,0.0,0.1385,0.7068,0.0,0.1385,0.727,0.2746,0.1385,0.7067,0.001,0.1385,0.7068,0.0005,0.1385,0.0918,0.0,0.0,0.0,0.0,0.9457,-0.0,0.3611,0.0,0.0,0.0,-0.35,-0.5132,0.0,0.0001,0.0,0.0,0.0,-0.0001,-0.0001,3.0,3.0
0.05,0.7,0.3433,0.1385,0.7069,0.0,0.1385,0.7069,0.0,0.1385,0.7283,0.2752,0.1385,0.7068,0.001,0.1385,0.7069,0.0005,0.1385,0.0947,0.0,0.0,0.0,0.0,0.9475,-0.0,0.3612,0.0,0.0,0.0,-0.3501,-0.5133,0.0,0.0001,0.0,0.0,0.0,-0.0001,-0.0001,3.0,3.0
0.05,0.7,0.3454,0.1385,0.7069,0.0,0.1385,0.7069,0.0,0.1385,0.7293,0.2756,0.1385,0.7069,0.001,0.1385,0.7069,0.0005,0.1385,0.097,0.0,0.0,0.0,0.0,0.9489,-0.0,0.3614,0.0,0.0,0.0,-0.3502,-0.5135,0.0,0.0001,0.0,0.0,0.0,-0.0001,-0.0001,3.0,3.0
0.05,0.7,0.347,0.1385,0.7069,0.0,0.1385,0.7069,0.0,0.1385,0.7301,0.276,0.1385,0.7069,0.001,0.1385,0.707,0.0005,0.1385,0.0988,0.0,0.0,0.0,0.0,0.95,-0.0,0.3614,0.0,0.0,0.0,-0.3503,-0.5135,0.0,0.0001,0.0,0.0,0.0,-0.0001,-0.0001,3.0,3.0
0.05,0.7,0.3482,0.1385,0.707,0.0,0.1385,0.707,0.0,0.1385,0.7308,0.2763,0.1385,0.7069,0.001,0.1385,0.707,0.0005,0.1385,0.1001,0.0,0.0,0.0,0.0,0.9508,-0.0,0.3615,0.0,0.0,0.0,-0.3504,-0.5136,0.0,0.0,0.0,0.0,0.0,-0.0,-0.0,3.0,3.0
0.05,0.7,0.3491,0.1385,0.707,0.0,0.1385,0.707,0.0,0.1385,0.7313,0.2765,0.1385,0.707,0.001,0.1385,0.707,0.0005,0.1385,0.101,0.0,0.0,0.0,0.0,0.9514,-0.0,0.3615,0.0,0.0,0.0,-0.3504,-0.5136,-0.0,0.0,0.0,0.0,0.0,-0.0,-0.0,3.0,3.0
0.05,0.7,0.3496,0.1385,0.707,0.0,0.1385,0.707,0.0,0.1385,0.7316,0.2767,0.1385,0.707,0.001,0.1385,0.7071,0.0005,0.1385,0.1016,0.0,0.0,0.0,0.0,0.9517,-0.0,0.3616,0.0,0.0,0.0,-0.3504,-0.5137,0.0,0.0,0.0,0.0,0.0,-0.0,-0.0,3.0,3.0
0.05,0.7,0.3499,0.1385,0.707,0.0,0.1385,0.707,0.0,0.1385,0.7318,0.2768,0.1385,0.707,0.001,0.1385,0.7071,0.0005,0.1385,0.1019,0.0,0.0,0.0,0.0,0.9519,-0.0,0.3616,0.0,0.0,0.0,-0.3505,-0.5137,0.0,0.0,0.0,0.0,0.0,-0.0,-0.0,3.0,3.0
0.05,0.7,0.35,0.1385,0.707,0.0,0.1385,0.707,0.0,0.1385,0.732,0.2768,0.1385,0.707,0.001,0.1385,0.7071,0.0005,0.1385,0.102,0.0,0.0,0.0,0.0,0.952,-0.0,0.3616,0.0,0.0,0.0,-0.3505,-0.5137,0.0,0.0,0.0,0.0,0.0,-0.0,-0.0,3.0,3.0
0.05,0.7,0.35,0.1385,0.707,0.0,0.1385,0.707,0.0,0.1385,0.732,0.2769,0.1385,0.707,0.001,0.1385,0.7071,0.0005,0.1385,0.1021,0.0,0.0,0.0,0.0,0.9521,-0.0,0.3616,0.0,0.0,0.0,-0.3505,-0.5137,0.0,-0.0,0.0,0.0,0.0,0.0,0.0,3.0,3.0
0.05,0.7,0.35,0.1385,0.707,0.0,0.1385,0.707,0.0,0.1385,0.732,0.2769,0.1385,0.707,0.001,0.1385,0.7071,0.0005,0.1385,0.1021,0.0,0.0,0.0,0.0,0.9521,-0.0,0.3616,0.0,0.0,0.0,-0.3505,-0.5137,0.0,0.0,-0.0,0.0,-0.0,-0.0,-0.0,3.0,3.0
0.05,0.7,0.35,0.1386,0.707,0.0,0.1385,0.707,0.0,0.1385,0.732,0.2769,0.1385,0.707,0.001,0.1385,0.7071,0.0005,0.1385,0.1021,0.0,0.0,0.0,0.0,0.9521,0.0,0.3616,-0.0,0.0,-0.0,-0.3505,-0.5137,0.0001,-0.0,-0.0,0.0001,-0.0001,0.0,0.0,3.0,3.0
0.05,0.7,0.35,0.1389,0.707,0.0,0.1385,0.707,0.0,0.1385,0.732,0.2769,0.1386,0.707,0.001,0.1385,0.7071,0.0005,0.1385,0.1021,0.0,0.0,0.0,0.0,0.9521,0.0001,0.3616,-0.0,0.0001,-0.0002,-0.3505,-0.5137,0.0002,-0.0,-0.0001,0.0002,-0.0004,0.0,0.0,3.0,3.0
0.05,0.7,0.35,0.1394,0.707,0.0,0.1385,0.707,0.0,0.1385,0.732,0.2769,0.1389,0.707,0.001,0.1386,0.7071,0.0005,0.1386,0.102,0.0,0.0,0.0,0.0,0.9521,0.0002,0.3616,-0.0001,0.0003,-0.0005,-0.3505,-0.5137,0.0003,-0.0,-0.0001,0.0004,-0.0007,0.0,0.0,3.0,3.0
0.05,0.7,0.35,0.1403,0.707,0.0,0.1385,0.707,0.0,0.1385,0.732,0.2769,0.1394,0.7069,0.001,0.1386,0.707,0.0005,0.1386,0.102,0.0,0.0,0.0,0.0,0.9521,0.0006,0.3616,-0.0002,0.0007,-0.0012,-0.3505,-0.5137,0.0005,-0.0,-0.0002,0.0006,-0.0011,0.0,0.0,3.0,3.0
0.05,0.7,0.35,0.1415,0.707,0.0,0.1385,0.707,0.0,0.1385,0.7319,0.2769,0.1403,0.7069,0.001,0.1388,0.707,0.0005,0.1388,0.102,0.0,0.0,0.0,0.0,0.9521,0.0011,0.3616,-0.0004,0.0013,-0.0023,-0.3505,-0.5137,0.0007,-0.0,-0.0003,0.0009,-0.0015,0.0,0.0,3.0,3.0
0.05,0.7,0.35,0.1431,0.707,0.0,0.1385,0.707,0.0,0.1385,0.7319,0.2769,0.1415,0.7069,0.001,0.139,0.707,0.0005,0.139,0.1019,0.0,0.0,0.0,0.0,0.952,0.0018,0.3616,-0.0007,0.0022,-0.0038,-0.3505,-0.5137,0.001,-0.0,-0.0004,0.0012,-0.0021,0.0,0.0,3.0,3.0
0.05,0.7,0.35,0.1452,0.707,0.0,0.1385,0.707,0.0,0.1385,0.7318,0.2769,0.1431,0.7069,0.001,0.1392,0.7069,0.0005,0.1392,0.1019,0.0,0.0,0.0,0.0,0.952,0.0027,0.3616,-0.0011,0.0033,-0.0059,-0.3505,-0.5137,0.0012,-0.0,-0.0005,0.0015,-0.0027,0.0,0.0,3.0,3.0
0.05,0.7,0.35,0.1478,0.707,0.0,0.1385,0.707,0.0,0.1385,0.7318,0.277,0.1452,0.7068,0.001,0.1396,0.7069,0.0004,0.1396,0.1018,0.0,0.0,0.0,0.0,0.952,0.004,0.3616,-0.0016,0.0049,-0.0085,-0.3505,-0.5137,0.0015,-0.0,-0.0006,0.0019,-0.0033,0.0,0.0,3.0,3.0
0.05,0.7,0.35,0.1509,0.707,0.0,0.1385,0.707,0.0,0.1385,0.7317,0.277,0.1478,0.7068,0.001,0.14,0.7068,0.0004,0.14,0.1017,0.0032,0.0,0.0,0.0,0.9519,0.0055,0.3616,-0.0021,0.0067,-0.0118,-0.3505,-0.5137,0.0018,-0.0,-0.0007,0.0022,-0.0053,-0.0018,0.0,3.0,3.0
0.05,0.7,0.35,0.1546,0.707,0.0,0.1385,0.707,0.0,0.1385,0.7316,0.2771,0.1509,0.7067,-0.0,0.1397,0.7068,0.0004,0.1397,0.1016,0.0,0.0,0.0,0.0,0.9519,0.0074,0.3616,-0.0028,0.009,-0.0171,-0.3523,-0.5137,0.0022,-0.0,-0.0008,0.0026,-0.0046,0.0,0.0,3.0,3.0
0.05,0.7,0.35,0.1588,0.707,0.0,0.1385,0.707,0.0,0.1385,0.7316,0.2772,0.1545,0.7067,-0.0,0.1403,0.7067,0.0003,0.1403,0.1015,0.0032,0.003,0.0,0.0,0.9518,0.0095,0.3616,-0.0036,0.0116,-0.0218,-0.3523,-0.5137,0.0025,-0.0005,-0.0009,0.003,-0.0085,0.0005,-0.0,3.0,3.0
0.05,0.7,0.35,0.1635,0.707,0.0,0.1385,0.707,0.0,0.1385,0.7316,0.2769,0.1587,0.7066,-0.0001,0.1392,0.7067,-0.0001,0.1392,0.1018,0.0,0.0,0.0,0.0,0.952,0.012,0.3611,-0.0045,0.0146,-0.0303,-0.3518,-0.5137,0.0028,-0.0,-0.001,0.0034,-0.006,0.0,0.0,3.0,3.0
0.05,0.7,0.35,0.1688,0.707,0.0,0.1385,0.707,0.0,0.1385,0.7315,0.277,0.1635,0.7066,-0.0001,0.14,0.7066,-0.0001,0.14,0.1016,0.0029,0.0031,0.0,0.0,0.9518,0.0149,0.3611,-0.0056,0.018,-0.0364,-0.3518,-0.5137,0.0032,0.0002,-0.0012,0.0038,-0.0093,-0.0001,0.0,3.0,3.0
0.05,0.7,0.35,0.1747,0.707,0.0,0.1385,0.707,0.0,0.1385,0.7313,0.2773,0.1688,0.7065,0.0,0.1395,0.7065,0.0,0.1395,0.1011,0.0,0.0035,0.0,0.0,0.9516,0.018,0.3613,-0.0067,0.0218,-0.0456,-0.3519,-0.5137,0.0035,0.0001,-0.0013,0.0042,-0.008,-0.0001,0.0,3.0,3.0
0.05,0.7,0.35,0.1811,0.707,0.0,0.1385,0.707,0.0,0.1385,0.7312,0.2775,0.1747,0.7065,0.0,0.1401,0.7065,-0.0,0.1401,0.1008,0.0035,0.0042,0.0,0.0,0.9515,0.0215,0.3614,-0.008,0.026,-0.0537,-0.352,-0.5136,0.0038,0.0001,-0.0014,0.0046,-0.0107,-0.0002,0.0,3.0,3.0
0.05,0.7,0.35,0.1881,0.707,0.0,0.1385,0.707,0.0,0.1385,0.731,0.2778,0.1811,0.7064,-0.0,0.1397,0.7064,-0.0,0.1397,0.1005,0.0037,0.005,0.0,0.0,0.9513,0.0253,0.3614,-0.0094,0.0306,-0.0643,-0.3522,-0.5136,0.0041,0.0001,-0.0015,0.005,-0.0106,-0.0001,0.0,3.0,3.0
0.05,0.7,0.35,0.1956,0.707,0.0,0.1385,0.707,0.0,0.1385,0.7309,0.278,0.1881,0.7064,-0.0,0.1398,0.7064,-0.0,0.1398,0.1001,0.0043,0.0058,0.0,0.0,0.9511,0.0294,0.3615,-0.0109,0.0356,-0.0749,-0.3523,-0.5136,0.0044,0.0001,-0.0016,0.0053,-0.0113,-0.0002,0.0,3.0,3.0
0.05,0.7,0.35,0.2035,0.707,0.0,0.1385,0.707,0.0,0.1385,0.7307,0.2783,0.1955,0.7063,-0.0,0.1399,0.7063,-0.0001,0.1399,0.0997,0.0049,0.0067,0.0,0.0,0.9508,0.0338,0.3616,-0.0125,0.0409,-0.0863,-0.3525,-0.5136,0.0047,0.0001,-0.0017,0.0056,-0.0121,-0.0002,0.0,3.0,3.0
0.05,0.7,0.35,0.2119,0.707,0.0,0.1385,0.707,0.0,0.1385,0.7305,0.2786,0.2035,0.7063,-0.0001,0.14,0.7062,-0.0001,0.14,0.0992,0.0056,0.0077,0.0,0.0,0.9506,0.0385,0.3617,-0.0142,0.0465,-0.0983,-0.3526,-0.5136,0.0049,0.0001,-0.0018,0.006,-0.0127,-0.0002,0.0,3.0,3.0
0.05,0.7,0.35,0.2208,0.707,0.0,0.1385,0.707,0.0,0.1385,0.7303,0.2789,0.2119,0.7062,-0.0001,0.1401,0.7062,-0.0001,0.1401,0.0987,0.0064,0.0087,0.0,0.0,0.9503,0.0435,0.3618,-0.0159,0.0525,-0.111,-0.3528,-0.5136,0.0052,0.0001,-0.0019,0.0062,-0.0133,-0.0002,0.0,3.0,3.0
0.05,0.7,0.35,0.23,0.707,0.0,0.1385,0.707,0.0,0.1385,0.7301,0.2793,0.2207,0.7062,-0.0001,0.1402,0.7061,-0.0001,0.1402,0.0981,0.0071,0.0098,0.0,0.0,0.9501,0.0486,0.362,-0.0178,0.0587,-0.1244,-0.353,-0.5135,0.0054,0.0001,-0.0019,0.0065,-0.0139,-0.0002,0.0,3.0,3.0
0.05,0.7,0.35,0.2397,0.707,0.0,0.1385,0.707,0.0,0.1385,0.7299,0.2797,0.23,0.7061,-0.0001,0.1403,0.7061,-0.0002,0.1403,0.0976,0.0079,0.011,0.0,0.0,0.9498,0.054,0.3621,-0.0197,0.0652,-0.1383,-0.3532,-0.5135,0.0056,0.0001,-0.002,0.0067,-0.0144,-0.0002,0.0,3.0,3.0
0.05,0.7,0.35,0.2496,0.707,0.0,0.1385,0.707,0.0,0.1385,0.7297,0.2801,0.2396,0.7061,-0.0001,0.1404,0.706,-0.0002,0.1404,0.0969,0.0087,0.0121,0.0,0.0,0.9494,0.0596,0.3622,-0.0217,0.0719,-0.1527,-0.3534,-0.5135,0.0057,0.0001,-0.0021,0.0069,-0.0148,-0.0002,0.0,3.0,3.0
0.05,0.7,0.35,0.2598,0.707,0.0,0.1385,0.707,0.0,0.1385,0.7295,0.2805,0.2495,0.706,-0.0002,0.1405,0.706,-0.0002,0.1405,0.0963,0.0096,0.0134,0.0,0.0,0.9491,0.0654,0.3623,-0.0238,0.0789,-0.1675,-0.3536,-0.5135,0.0059,0.0001,-0.0021,0.0071,-0.0151,-0.0002,0.0,3.0,3.0
0.05,0.7,0.35,0.2703,0.707,0.0,0.1385,0.707,0.0,0.1385,0.7293,0.2809,0.2597,0.706,-0.0002,0.1406,0.7059,-0.0003,0.1406,0.0956,0.0105,0.0146,0.0,0.0,0.9488,0.0712,0.3624,-0.0259,0.086,-0.1826,-0.3539,-0.5134,0.006,0.0001,-0.0021,0.0072,-0.0154,-0.0002,0.0,3.0,3.0
0.05,0.7,0.35,0.2809,0.707,0.0,0.1385,0.707,0.0,0.1385,0.7291,0.2814,0.2702,0.706,-0.0002,0.1407,0.7059,-0.0003,0.1407,0.0949,0.0113,0.0159,0.0,0.0,0.9484,0.0772,0.3626,-0.0281,0.0932,-0.198,-0.3541,-0.5134,0.0061,0.0001,-0.0022,0.0073,-0.0156,-0.0002,0.0,3.0,3.0
0.05,0.7,0.35,0.2917,0.707,0.0,0.1385,0.707,0.0,0.1385,0.7288,0.2819,0.2808,0.7059,-0.0003,0.1407,0.7059,-0.0004,0.1407,0.0942,0.0122,0.0171,0.0,0.0,0.948,0.0833,0.3627,-0.0302,0.1005,-0.2136,-0.3543,-0.5134,0.0061,0.0001,-0.0022,0.0074,-0.0157,-0.0002,0.0,3.0,3.0
0.05,0.7,0.35,0.3026,0.707,0.0,0.1385,0.707,0.0,0.1385,0.7286,0.2824,0.2916,0.7059,-0.0003,0.1408,0.7058,-0.0005,0.1408,0.0934,0.0131,0.0184,0.0,0.0,0.9476,0.0894,0.3628,-0.0324,0.1078,-0.2292,-0.3546,-0.5134,0.0061,0.0001,-0.0022,0.0074,-0.0157,-0.0003,0.0,3.0,3.0
0.05,0.7,0.35,0.3135,0.707,0.0,0.1385,0.707,0.0,0.1385,0.7284,0.2828,0.3025,0.7059,-0.0004,0.1409,0.7058,-0.0005,0.1409,0.0926,0.014,0.0197,0.0,0.0,0.9472,0.0955,0.3629,-0.0346,0.1152,-0.245,-0.3548,-0.5133,0.0061,0.0001,-0.0022,0.0074,-0.0157,-0.0003,0.0,3.0,3.0
0.05,0.7,0.35,0.3244,0.707,0.0,0.1385,0.707,0.0,0.1385,0.7282,0.2834,0.3134,0.7059,-0.0004,0.1409,0.7058,-0.0006,0.1409,0.0918,0.0149,0.0209,0.0,0.0,0.9467,0.1016,0.3631,-0.0368,0.1226,-0.2606,-0.3551,-0.5133,0.0061,0.0001,-0.0022,0.0073,-0.0155,-0.0003,0.0,3.0,3.0
0.05,0.7,0.35,0.3353,0.707,0.0,0.1385,0.707,0.0,0.1385,0.7279,0.2839,0.3243,0.7059,-0.0004,0.1409,0.7058,-0.0007,0.1409,0.091,0.0158,0.0222,0.0,0.0,0.9463,0.1077,0.3632,-0.039,0.1299,-0.2761,-0.3554,-0.5133,0.006,0.0001,-0.0022,0.0072,-0.0153,-0.0003,0.0,3.0,3.0
0.05,0.7,0.35,0.3461,0.707,0.0,0.1385,0.707,0.0,0.1385,0.7277,0.2844,0.3352,0.7059,-0.0005,0.1409,0.7057,-0.0007,0.141,0.0902,0.0167,0.0234,0.0,0.0,0.9459,0.1137,0.3633,-0.0412,0.1371,-0.2915,-0.3556,-0.5132,0.0059,0.0001,-0.0021,0.0071,-0.0151,-0.0003,0.0,3.0,3.0
0.05,0.7,0.35,0.3567,0.707,0.0,0.1385,0.707,0.0,0.1385,0.7275,0.2849,0.346,0.7059,-0.0005,0.141,0.7057,-0.0008,0.141,0.0894,0.0176,0.0246,0.0,0.0,0.9454,0.1196,0.3634,-0.0433,0.1442,-0.3065,-0.3559,-0.5132,0.0058,0.0001,-0.0021,0.007,-0.0147,-0.0003,0.0,3.0,3.0
0.05,0.7,0.35,0.3672,0.707,0.0,0.1385,0.707,0.0,0.1385,0.7273,0.2854,0.3566,0.7059,-0.0006,0.141,0.7057,-0.0009,0.141,0.0886,0.0184,0.0258,0.0,0.0,0.9449,0.1254,0.3635,-0.0453,0.1511,-0.3213,-0.3561,-0.5132,0.0056,0.0001,-0.002,0.0068,-0.0143,-0.0002,0.0,3.0,3.0
0.05,0.7,0.35,0.3774,0.707,0.0,0.1385,0.707,0.0,0.1385,0.7271,0.2859,0.367,0.7059,-0.0007,0.141,0.7057,-0.001,0.141,0.0877,0.0192,0.027,0.0,0.0,0.9445,0.131,0.3636,-0.0474,0.1579,-0.3356,-0.3564,-0.5131,0.0055,0.0001,-0.002,0.0066,-0.0139,-0.0002,0.0,3.0,3.0
0.05,0.7,0.35,0.3873,0.707,0.0,0.1385,0.707,0.0,0.1385,0.7269,0.2865,0.3773,0.7059,-0.0007,0.141,0.7058,-0.001,0.141,0.0869,0.02,0.0281,0.0,0.0,0.944,0.1364,0.3637,-0.0493,0.1645,-0.3495,-0.3566,-0.5131,0.0053,0.0001,-0.0019,0.0063,-0.0134,-0.0002,0.0,3.0,3.0
0.05,0.7,0.35,0.3969,0.707,0.0,0.1385,0.707,0.0,0.1385,0.7267,0.287,0.3872,0.706,-0.0008,0.141,0.7058,-0.0011,0.141,0.0861,0.0208,0.0291,0.0,0.0,0.9436,0.1417,0.3638,-0.0512,0.1708,-0.3629,-0.3568,-0.5131,0.005,0.0001,-0.0018,0.0061,-0.0128,-0.0002,0.0,3.0,3.0
0.05,0.7,0.35,0.4062,0.707,0.0,0.1385,0.707,0.0,0.1385,0.7265,0.2875,0.3968,0.706,-0.0008,0.1409,0.7058,-0.0012,0.141,0.0854,0.0215,0.0301,0.0,0.0,0.9431,0.1467,0.3639,-0.053,0.1769,-0.3758,-0.3571,-0.513,0.0048,0.0001,-0.0017,0.0058,-0.0122,-0.0002,0.0,3.0,3.0
0.05,0.7,0.35,0.415,0.707,0.0,0.1385,0.707,0.0,0.1385,0.7263,0.2879,0.4061,0.7061,-0.0009,0.1409,0.7058,-0.0013,0.1409,0.0846,0.0222,0.0311,0.0,0.0,0.9427,0.1516,0.364,-0.0548,0.1827,-0.388,-0.3573,-0.513,0.0046,0.0001,-0.0017,0.0055,-0.0116,-0.0002,0.0,3.0,3.0
0.05,0.7,0.35,0.4235,0.707,0.0,0.1385,0.707,0.0,0.1385,0.7262,0.2884,0.4149,0.7061,-0.0009,0.1409,0.7059,-0.0013,0.1409,0.0839,0.0229,0.032,0.0,0.0,0.9423,0.1561,0.3641,-0.0564,0.1882,-0.3996,-0.3575,-0.513,0.0043,0.0001,-0.0016,0.0052,-0.011,-0.0002,0.0,3.0,3.0
0.05,0.7,0.35,0.4314,0.707,0.0,0.1385,0.707,0.0,0.1385,0.726,0.2888,0.4233,0.7062,-0.0009,0.1409,0.7059,-0.0014,0.1409,0.0832,0.0235,0.0329,0.0,0.0,0.9418,0.1605,0.3642,-0.058,0.1934,-0.4106,-0.3577,-0.5129,0.0041,0.0001,-0.0015,0.0049,-0.0103,-0.0002,0.0,3.0,3.0
0.05,0.7,0.35,0.4389,0.707,0.0,0.1385,0.707,0.0,0.1385,0.7259,0.2893,0.4313,0.7062,-0.001,0.1408,0.706,-0.0015,0.1409,0.0825,0.0241,0.0337,0.0,0.0,0.9414,0.1645,0.3643,-0.0595,0.1983,-0.4209,-0.3579,-0.5129,0.0038,0.0001,-0.0014,0.0046,-0.0096,-0.0002,0.0,3.0,3.0
0.05,0.7,0.35,0.4458,0.707,0.0,0.1385,0.707,0.0,0.1385,0.7257,0.2897,0.4388,0.7063,-0.001,0.1408,0.706,-0.0015,0.1408,0.0819,0.0246,0.0344,0.0,0.0,0.9411,0.1683,0.3644,-0.0608,0.2029,-0.4304,-0.3581,-0.5129,0.0035,0.0001,-0.0013,0.0042,-0.0089,-0.0002,0.0,3.0,3.0
0.05,0.7,0.35,0.4523,0.707,0.0,0.1385,0.707,0.0,0.1385,0.7256,0.29,0.4457,0.7063,-0.0011,0.1407,0.7061,-0.0016,0.1408,0.0813,0.0251,0.0351,0.0,0.0,0.9407,0.1718,0.3644,-0.0621,0.2071,-0.4393,-0.3583,-0.5129,0.0032,0.0001,-0.0012,0.0039,-0.0081,-0.0002,0.0,3.0,3.0
0.05,0.7,0.35,0.4581,0.707,0.0,0.1385,0.707,0.0,0.1385,0.7255,0.2904,0.4522,0.7064,-0.0011,0.1407,0.7061,-0.0016,0.1407,0.0808,0.0256,0.0358,0.0,0.0,0.9404,0.175,0.3645,-0.0632,0.2109,-0.4474,-0.3584,-0.5128,0.0029,0.0001,-0.0011,0.0035,-0.0074,-0.0001,0.0,3.0,3.0
0.05,0.7,0.35,0.4635,0.707,0.0,0.1385,0.707,0.0,0.1385,0.7254,0.2907,0.4581,0.7065,-0.0011,0.1407,0.7062,-0.0017,0.1407,0.0803,0.026,0.0363,0.0,0.0,0.9401,0.1779,0.3646,-0.0643,0.2144,-0.4548,-0.3586,-0.5128,0.0026,0.0001,-0.0009,0.0032,-0.0067,-0.0001,0.0,3.0,3.0
0.05,0.7,0.35,0.4682,0.707,0.0,0.1385,0.707,0.0,0.1385,0.7253,0.291,0.4634,0.7065,-0.0012,0.1406,0.7062,-0.0017,0.1406,0.0798,0.0264,0.0369,0.0,0.0,0.9398,0.1805,0.3646,-0.0652,0.2176,-0.4615,-0.3587,-0.5128,0.0023,0.0001,-0.0008,0.0028,-0.0059,-0.0001,0.0,3.0,3.0
0.05,0.7,0.35,0.4724,0.707,0.0,0.1385,0.707,0.0,0.1385,0.7252,0.2913,0.4681,0.7066,-0.0012,0.1406,0.7063,-0.0017,0.1406,0.0794,0.0268,0.0373,0.0001,0.0,0.9395,0.1829,0.3647,-0.0661,0.2204,-0.4674,-0.3588,-0.5128,0.0021,0.0,-0.0007,0.0025,-0.0052,-0.0001,0.0,3.0,3.0
0.05,0.7,0.35,0.4761,0.707,0.0,0.1385,0.707,0.0,0.1385,0.7251,0.2915,0.4724,0.7067,-0.0012,0.1405,0.7064,-0.0018,0.1405,0.0791,0.0271,0.0378,0.0271,0.0,0.9393,0.1849,0.3647,-0.0668,0.2229,-0.4726,-0.3589,-0.5128,0.0017,0.0,-0.0007,0.002,-0.0043,-0.0001,0.0,3.0,3.0
0.05,0.7,0.35,0.4792,0.707,0.0,0.1385,0.707,0.0,0.1385,0.7252,0.2917,0.4758,0.7067,-0.0012,0.1404,0.7065,-0.0018,0.1405,0.0788,0.0273,0.038,0.0843,0.0,0.939,0.1866,0.3648,-0.0675,0.2249,-0.4769,-0.359,-0.5127,0.0013,0.0,-0.0006,0.0016,-0.0033,-0.0001,0.0,3.0,3.0
0.05,0.7,0.35,0.4818,0.707,0.0,0.1385,0.707,0.0,0.1385,0.7253,0.2919,0.4786,0.7068,-0.0012,0.1404,0.7066,-0.0018,0.1404,0.0786,0.0273,0.0381,0.148,0.0,0.9389,0.1879,0.3648,-0.0681,0.2265,-0.4802,-0.3591,-0.5127,0.001,0.0,-0.0006,0.0013,-0.0026,-0.0001,0.0,3.0,3.0
0.05,0.7,0.35,0.4839,0.707,0.0,0.1385,0.707,0.0,0.1385,0.7255,0.292,0.4808,0.7069,-0.0012,0.1403,0.7066,-0.0018,0.1403,0.0784,0.0273,0.0382,0.2078,0.0,0.9387,0.1889,0.3648,-0.0687,0.2278,-0.4828,-0.3592,-0.5127,0.0008,0.0,-0.0005,0.001,-0.002,-0.0,0.0,3.0,3.0
0.05,0.7,0.35,0.4855,0.707,0.0,0.1385,0.707,0.0,0.1385,0.7256,0.2922,0.4826,0.707,-0.0012,0.1402,0.7067,-0.0018,0.1403,0.0782,0.0272,0.0382,0.2591,0.0,0.9386,0.1896,0.3648,-0.0691,0.2288,-0.4848,-0.3592,-0.5127,0.0006,0.0,-0.0004,0.0008,-0.0015,-0.0,0.0,3.0,3.0
0.05,0.7,0.35,0.4867,0.707,0.0,0.1385,0.707,0.0,0.1385,0.7258,0.2922,0.4839,0.707,-0.0012,0.1402,0.7067,-0.0018,0.1402,0.0781,0.0271,0.0381,0.3004,0.0,0.9385,0.1902,0.3648,-0.0695,0.2296,-0.4863,-0.3593,-0.5127,0.0004,0.0,-0.0003,0.0006,-0.0011,-0.0,0.0,3.0,3.0
0.05,0.7,0.35,0.4876,0.707,0.0,0.1385,0.707,0.0,0.1385,0.7259,0.2923,0.4849,0.707,-0.0012,0.1402,0.7068,-0.0018,0.1402,0.078,0.0271,0.0381,0.3318,0.0,0.9384,0.1907,0.3648,-0.0698,0.2301,-0.4875,-0.3593,-0.5127,0.0003,0.0,-0.0002,0.0004,-0.0008,-0.0,0.0,3.0,3.0
0.05,0.7,0.35,0.4881,0.707,0.0,0.1385,0.707,0.0,0.1385,0.726,0.2924,0.4855,0.7071,-0.0012,0.1401,0.7068,-0.0018,0.1402,0.078,0.027,0.0381,0.3542,0.0,0.9384,0.1909,0.3648,-0.07,0.2305,-0.4882,-0.3593,-0.5127,0.0002,0.0,-0.0001,0.0002,-0.0005,-0.0,0.0,3.0,3.0
0.05,0.7,0.35,0.4884,0.707,0.0,0.1385,0.707,0.0,0.1385,0.726,0.2924,0.486,0.7071,-0.0012,0.1401,0.7068,-0.0018,0.1401,0.0779,0.027,0.0381,0.3688,0.0,0.9383,0.1911,0.3648,-0.0701,0.2308,-0.4887,-0.3593,-0.5127,0.0001,0.0,-0.0001,0.0001,-0.0003,-0.0,0.0,3.0,3.0
0.05,0.7,0.35,0.4885,0.707,0.0,0.1385,0.707,0.0,0.1385,0.726,0.2924,0.4862,0.7071,-0.0012,0.1401,0.7068,-0.0018,0.1401,0.0779,0.027,0.0381,0.3772,0.0,0.9383,0.1912,0.3648,-0.0702,0.2309,-0.489,-0.3593,-0.5127,0.0,0.0,-0.0,0.0001,-0.0001,-0.0,0.0,3.0,3.0
0.05,0.7,0.35,0.4885,0.707,0.0,0.1385,0.707,0.0,0.1385,0.726,0.2924,0.4863,0.7071,-0.0012,0.1401,0.7068,-0.0018,0.1401,0.0779,0.027,0.0381,0.381,0.0,0.9383,0.1913,0.3648,-0.0702,0.2309,-0.4892,-0.3593,-0.5127,0.0,0.0,0.0,0.0,-0.0,-0.0,0.0,3.0,3.0
0.05,0.7,0.35,0.4885,0.707,0.0,0.1385,0.707,0.0,0.1385,0.726,0.2924,0.4863,0.7071,-0.0012,0.1401,0.7069,-0.0018,0.1401,0.0779,0.027,0.0381,0.3821,0.0,0.9383,0.1913,0.3648,-0.0702,0.231,-0.4892,-0.3593,-0.5127,0.0,-0.0,0.0,0.0,-0.0,0.0,0.0,3.0,3.0
0.05,0.7,0.3499,0.4885,0.707,0.0,0.1385,0.707,0.0,0.1385,0.726,0.2924,0.4863,0.7071,-0.0012,0.1401,0.7069,-0.0018,0.1401,0.0777,0.027,0.0381,0.3824,0.0,0.9383,0.1913,0.3648,-0.0702,0.231,-0.4892,-0.3593,-0.5127,0.0,-0.0,-0.0,0.0,-0.0,0.0,0.0,3.0,3.0
0.05,0.7,0.3496,0.4885,0.707,0.0,0.1385,0.707,0.0,0.1385,0.726,0.2924,0.4863,0.7071,-0.0012,0.1401,0.7069,-0.0018,0.1401,0.0774,0.027,0.0381,0.3828,0.0,0.9382,0.1913,0.3648,-0.0702,0.231,-0.4892,-0.3593,-0.5127,0.0,-0.0,-0.0,0.0,-0.0,0.0,0.0,3.0,3.0
0.05,0.7,0.3491,0.4885,0.707,0.0,0.1385,0.707,0.0,0.1385,0.7259,0.2924,0.4863,0.7071,-0.0012,0.1401,0.7069,-0.0018,0.1401,0.0769,0.027,0.0381,0.3839,0.0,0.9379,0.1913,0.3648,-0.0702,0.231,-0.4893,-0.3593,-0.5127,0.0,-0.0,-0.0,0.0,-0.0001,0.0,0.0,3.0,3.0
0.05,0.7,0.3482,0.4885,0.707,0.0,0.1385,0.707,0.0,0.1385,0.7257,0.2922,0.4863,0.7071,-0.0012,0.1401,0.7069,-0.0018,0.1401,0.0759,0.027,0.0381,0.3861,0.0,0.9375,0.1913,0.3648,-0.0702,0.231,-0.4893,-0.3593,-0.5126,0.0,-0.0001,-0.0,0.0001,-0.0001,0.0001,0.0001,3.0,3.0
0.05,0.7,0.347,0.4885,0.707,0.0,0.1385,0.707,0.0,0.1385,0.7254,0.2921,0.4862,0.7071,-0.0012,0.1401,0.7068,-0.0018,0.1401,0.0746,0.027,0.0381,0.3896,0.0,0.9367,0.1914,0.3647,-0.0702,0.2311,-0.4895,-0.3592,-0.5126,0.0001,-0.0001,-0.0,0.0001,-0.0002,0.0001,0.0001,3.0,3.0
0.05,0.7,0.3454,0.4885,0.707,0.0,0.1385,0.707,0.0,0.1385,0.7249,0.2918,0.4862,0.7071,-0.0012,0.1401,0.7068,-0.0018,0.1401,0.0729,0.027,0.038,0.3946,0.0,0.9356,0.1915,0.3646,-0.0703,0.2312,-0.4896,-0.3592,-0.5125,0.0001,-0.0001,-0.0001,0.0001,-0.0002,0.0001,0.0001,3.0,3.0
0.05,0.7,0.3433,0.4885,0.707,0.0,0.1385,0.707,0.0,0.1385,0.7243,0.2915,0.4861,0.7071,-0.0012,0.1401,0.7068,-0.0018,0.1401,0.0706,0.0269,0.038,0.4015,0.0,0.9341,0.1916,0.3646,-0.0703,0.2313,-0.4899,-0.3591,-0.5124,0.0001,-0.0001,-0.0001,0.0002,-0.0003,0.0001,0.0001,3.0,3.0
0.05,0.7,0.3407,0.4885,0.707,0.0,0.1385,0.707,0.0,0.1385,0.7236,0.2911,0.486,0.7071,-0.0012,0.1401,0.7068,-0.0018,0.1401,0.0678,0.0269,0.038,0.4104,0.0,0.9321,0.1917,0.3644,-0.0704,0.2315,-0.4902,-0.3589,-0.5123,0.0001,-0.0002,-0.0001,0.0002,-0.0004,0.0002,0.0002,3.0,3.0
0.05,0.7,0.3376,0.4885,0.707,0.0,0.1385,0.707,0.0,0.1385,0.7226,0.2906,0.4859,0.7071,-0.0012,0.1401,0.7068,-0.0018,0.1401,0.0644,0.0268,0.0379,0.4212,0.0,0.9294,0.1918,0.3643,-0.0705,0.2317,-0.4905,-0.3587,-0.5121,0.0002,-0.0002,-0.0001,0.0002,-0.0004,0.0002,0.0002,3.0,3.0
0.05,0.7,0.3339,0.4885,0.707,0.0,0.1385,0.707,0.0,0.1385,0.7215,0.29,0.4857,0.7071,-0.0012,0.1401,0.7068,-0.0018,0.1401,0.0605,0.0267,0.0378,0.4342,0.0,0.926,0.192,0.3641,-0.0706,0.2319,-0.491,-0.3585,-0.5119,0.0002,-0.0003,-0.0001,0.0003,-0.0005,0.0003,0.0003,3.0,3.0
0.05,0.7,0.3297,0.4885,0.707,0.0,0.1385,0.707,0.0,0.1385,0.7202,0.2893,0.4856,0.7071,-0.0012,0.1401,0.7068,-0.0018,0.1401,0.056,0.0266,0.0378,0.4491,0.0,0.9216,0.1922,0.3638,-0.0707,0.2322,-0.4914,-0.3582,-0.5116,0.0002,-0.0003,-0.0001,0.0003,-0.0006,0.0004,0.0003,3.0,3.0
0.05,0.7,0.325,0.4885,0.707,0.0,0.1385,0.707,0.0,0.1385,0.7188,0.2885,0.4854,0.7071,-0.0012,0.1401,0.7068,-0.0018,0.1401,0.0509,0.0265,0.0377,0.4659,0.0,0.9159,0.1924,0.3635,-0.0708,0.2325,-0.492,-0.3579,-0.5113,0.0002,-0.0004,-0.0001,0.0003,-0.0006,0.0005,0.0004,3.0,3.0
0.05,0.7,0.3196,0.4885,0.707,0.0,0.1385,0.707,0.0,0.1385,0.7172,0.2875,0.4851,0.7071,-0.0012,0.1401,0.7068,-0.0019,0.1401,0.0452,0.0264,0.0375,0.4845,0.0,0.9086,0.1926,0.3631,-0.071,0.2328,-0.4926,-0.3574,-0.5108,0.0003,-0.0005,-0.0001,0.0004,-0.0007,0.0006,0.0005,3.0,3.0
0.05,0.7,0.3138,0.4885,0.707,0.0,0.1385,0.707,0.0,0.1385,0.7154,0.2864,0.4848,0.7071,-0.0012,0.1401,0.7068,-0.0019,0.1401,0.039,0.0262,0.0374,0.5045,0.0,0.8988,0.1929,0.3626,-0.0711,0.2332,-0.4933,-0.3568,-0.5103,0.0003,-0.0006,-0.0001,0.0004,-0.0007,0.0007,0.0007,3.0,3.0
0.05,0.7,0.3073,0.4885,0.707,0.0,0.1385,0.707,0.0,0.1385,0.7136,0.2851,0.4845,0.7071,-0.0013,0.1401,0.7068,-0.0019,0.1401,0.0323,0.026,0.0372,0.5257,0.0,0.8856,0.1932,0.3619,-0.0713,0.2336,-0.494,-0.3561,-0.5096,0.0003,-0.0008,-0.0001,0.0004,-0.0007,0.001,0.0009,3.0,3.0
0.05,0.7,0.3004,0.4885,0.707,0.0,0.1385,0.707,0.0,0.1385,0.7116,0.2836,0.4841,0.7071,-0.0013,0.1401,0.7069,-0.0019,0.1401,0.0253,0.0258,0.037,0.5478,0.0,0.8674,0.1934,0.3611,-0.0714,0.234,-0.4947,-0.3551,-0.5087,0.0003,-0.0011,-0.0001,0.0004,-0.0007,0.0013,0.0012,3.0,3.0
0.05,0.7,0.2929,0.4885,0.707,0.0,0.1385,0.707,0.0,0.1385,0.7096,0.2819,0.4837,0.7071,-0.0013,0.1401,0.7069,-0.0019,0.1401,0.0182,0.0255,0.0368,0.5703,0.0,0.8413,0.1937,0.36,-0.0714,0.2344,-0.4955,-0.3539,-0.5074,0.0003,-0.0016,-0.0,0.0004,-0.0008,0.0018,0.0017,3.0,3.0
0.05,0.7,0.285,0.4885,0.707,0.0,0.1385,0.707,0.0,0.1385,0.7076,0.2797,0.4833,0.7071,-0.0013,0.1401,0.7069,-0.0019,0.1401,0.012,0.0252,0.0365,0.5928,0.0,0.8021,0.194,0.3584,-0.0715,0.2348,-0.4962,-0.3521,-0.5057,0.0002,-0.0022,0.0001,0.0004,-0.0007,0.0026,0.0024,3.0,3.0
0.05,0.7,0.2765,0.4885,0.707,0.0,0.1385,0.707,0.0,0.1385,0.7057,0.2771,0.4828,0.707,-0.0014,0.1401,0.707,-0.002,0.1401,0.0092,0.0248,0.0361,0.6149,0.0,0.7404,0.1942,0.3562,-0.0713,0.2351,-0.497,-0.3495,-0.5033,0.0002,-0.0034,0.0003,0.0003,-0.0007,0.0039,0.0037,3.0,3.0
0.05,0.7,0.2677,0.4885,0.707,0.0,0.1385,0.707,0.0,0.1385,0.7041,0.2736,0.4823,0.707,-0.0015,0.14,0.7071,-0.0021,0.14,0.012,0.0243,0.0357,0.6362,0.0,0.6378,0.1944,0.3528,-0.071,0.2355,-0.4977,-0.3456,-0.4996,0.0001,-0.0054,0.0007,0.0003,-0.0007,0.0061,0.0058,3.0,3.0
0.05,0.7,0.2584,0.4885,0.707,0.0,0.1385,0.707,0.0,0.1385,0.7029,0.2686,0.4817,0.707,-0.0018,0.14,0.7073,-0.0022,0.14,0.0165,0.0237,0.035,0.6563,0.0,0.4634,0.1946,0.3474,-0.0703,0.2357,-0.4984,-0.3395,-0.4937,0.0,-0.0087,0.0014,0.0002,-0.0006,0.01,0.0095,3.0,3.0
0.05,0.7,0.2488,0.4885,0.707,0.0,0.1385,0.707,0.0,0.1385,0.7025,0.2611,0.4812,0.707,-0.0022,0.14,0.7076,-0.0025,0.1399,0.0193,0.0227,0.0341,0.6745,0.0,0.1985,0.1946,0.3387,-0.0689,0.2359,-0.499,-0.3295,-0.4842,-0.0001,-0.0132,0.0023,0.0,-0.0006,0.0153,0.0145,3.0,3.0
0.05,0.7,0.2389,0.4885,0.707,0.0,0.1385,0.707,0.0,0.1385,0.7033,0.2504,0.4806,0.7069,-0.0027,0.1399,0.708,-0.0028,0.1398,0.019,0.0214,0.0329,0.6906,0.0,0.0006,0.1945,0.3255,-0.0666,0.2359,-0.4996,-0.3142,-0.4697,-0.0001,-0.0145,0.0026,-0.0,-0.0005,0.0175,0.0163,3.0,3.0
0.05,0.7,0.2287,0.4885,0.707,0.0,0.1385,0.707,0.0,0.1385,0.7042,0.2387,0.48,0.7069,-0.0028,0.1398,0.7081,-0.0029,0.1398,0.0182,0.02,0.0315,0.7057,0.0,0.0,0.1944,0.311,-0.064,0.2358,-0.5001,-0.2967,-0.4534,-0.0001,-0.0126,0.0022,-0.0,-0.0005,0.0158,0.0146,3.0,3.0
0.05,0.7,0.2182,0.4885,0.707,0.0,0.1385,0.707,0.0,0.1385,0.7045,0.2285,0.4793,0.7069,-0.0024,0.1397,0.708,-0.0027,0.1397,0.0191,0.0185,0.0302,0.7203,0.0,0.0,0.1943,0.2985,-0.0617,0.2358,-0.5007,-0.2809,-0.4388,-0.0001,-0.013,0.0023,-0.0,-0.0005,0.0158,0.0148,3.0,3.0
0.05,0.7,0.2076,0.4885,0.707,0.0,0.1385,0.707,0.0,0.1385,0.7048,0.218,0.4786,0.7069,-0.0024,0.1397,0.708,-0.0027,0.1396,0.02,0.0172,0.029,0.7338,0.0,0.0,0.1942,0.2855,-0.0594,0.2358,-0.5012,-0.2651,-0.424,-0.0001,-0.0133,0.0024,-0.0,-0.0005,0.0162,0.0152,3.0,3.0
0.05,0.7,0.1968,0.4885,0.707,0.0,0.1385,0.707,0.0,0.1385,0.7051,0.2074,0.478,0.7068,-0.0024,0.1396,0.708,-0.0026,0.1395,0.0209,0.0158,0.0278,0.7462,0.0,0.0,0.1941,0.2722,-0.0569,0.2358,-0.5016,-0.2489,-0.4088,-0.0001,-0.0136,0.0025,-0.0001,-0.0004,0.0166,0.0156,3.0,3.0
0.05,0.7,0.1859,0.4885,0.707,0.0,0.1385,0.707,0.0,0.1385,0.7054,0.1966,0.4773,0.7068,-0.0024,0.1395,0.708,-0.0026,0.1394,0.0217,0.0145,0.0265,0.7574,0.0,0.0,0.194,0.2587,-0.0544,0.2357,-0.5021,-0.2323,-0.3932,-0.0001,-0.0138,0.0026,-0.0001,-0.0004,0.0168,0.0159,3.0,3.0
0.05,0.7,0.175,0.4885,0.707,0.0,0.1385,0.707,0.0,0.1385,0.7057,0.1857,0.4766,0.7068,-0.0023,0.1395,0.708,-0.0026,0.1394,0.0225,0.0132,0.0253,0.7675,0.0,0.0,0.1938,0.2449,-0.0518,0.2356,-0.5025,-0.2154,-0.3773,-0.0001,-0.0139,0.0027,-0.0001,-0.0004,0.017,0.0161,3.0,3.0
0.05,0.7,0.1641,0.4885,0.707,0.0,0.1385,0.707,0.0,0.1385,0.706,0.1748,0.4759,0.7067,-0.0023,0.1394,0.708,-0.0026,0.1393,0.0232,0.0119,0.0241,0.7767,0.0,0.0,0.1937,0.231,-0.0491,0.2355,-0.5028,-0.1984,-0.3612,-0.0001,-0.014,0.0027,-0.0001,-0.0003,0.0171,0.0162,3.0,3.0
0.05,0.7,0.1532,0.4885,0.707,0.0,0.1385,0.707,0.0,0.1385,0.7063,0.1638,0.4753,0.7067,-0.0022,0.1393,0.708,-0.0025,0.1392,0.0239,0.0106,0.0229,0.7848,0.0,0.0,0.1936,0.217,-0.0464,0.2354,-0.5031,-0.1812,-0.345,-0.0001,-0.014,0.0028,-0.0001,-0.0003,0.0172,0.0163,3.0,3.0
0.05,0.7,0.1424,0.4885,0.707,0.0,0.1385,0.707,0.0,0.1385,0.7066,0.153,0.4747,0.7067,-0.0022,0.1393,0.708,-0.0025,0.1392,0.0245,0.0094,0.0217,0.792,0.0,0.0,0.1934,0.203,-0.0436,0.2353,-0.5034,-0.1641,-0.3287,-0.0001,-0.014,0.0028,-0.0001,-0.0003,0.0171,0.0163,3.0,3.0
0.05,0.7,0.1318,0.4885,0.707,0.0,0.1385,0.707,0.0,0.1385,0.7069,0.1422,0.4741,0.7067,-0.0021,0.1392,0.708,-0.0024,0.1391,0.025,0.0082,0.0205,0.7984,0.0,0.0,0.1933,0.189,-0.0408,0.2352,-0.5037,-0.1469,-0.3124,-0.0001,-0.0138,0.0028,-0.0001,-0.0002,0.017,0.0162,3.0,3.0
0.05,0.7,0.1213,0.4885,0.707,0.0,0.1385,0.707,0.0,0.1385,0.7071,0.1315,0.4735,0.7066,-0.002,0.1392,0.708,-0.0024,0.1391,0.0255,0.0071,0.0194,0.804,0.0,0.0,0.1932,0.1751,-0.0379,0.2351,-0.5039,-0.13,-0.2961,-0.0001,-0.0137,0.0028,-0.0001,-0.0002,0.0168,0.0161,3.0,3.0
0.05,0.7,0.1111,0.4885,0.707,0.0,0.1385,0.707,0.0,0.1385,0.7074,0.1211,0.473,0.7066,-0.0019,0.1391,0.7079,-0.0023,0.139,0.0258,0.006,0.0184,0.8089,0.0,0.0,0.193,0.1615,-0.0351,0.235,-0.5041,-0.1132,-0.2801,-0.0001,-0.0134,0.0028,-0.0001,-0.0002,0.0164,0.0158,3.0,3.0
0.05,0.7,0.1012,0.4885,0.707,0.0,0.1385,0.707,0.0,0.1385,0.7076,0.1109,0.4726,0.7066,-0.0018,0.1391,0.7079,-0.0023,0.139,0.0261,0.005,0.0173,0.8132,0.0,0.0,0.1929,0.1481,-0.0323,0.2349,-0.5043,-0.0968,-0.2643,-0.0001,-0.0131,0.0028,-0.0001,-0.0002,0.0161,0.0155,3.0,3.0
0.05,0.7,0.0916,0.4885,0.707,0.0,0.1385,0.707,0.0,0.1385,0.7077,0.101,0.4722,0.7066,-0.0017,0.1391,0.7079,-0.0022,0.139,0.0264,0.0041,0.0164,0.8169,0.0,0.0,0.1928,0.135,-0.0296,0.2348,-0.5045,-0.0807,-0.2488,-0.0001,-0.0127,0.0027,-0.0001,-0.0001,0.0156,0.0151,3.0,3.0
0.05,0.7,0.0823,0.4885,0.707,0.0,0.1385,0.707,0.0,0.1385,0.7079,0.0914,0.4718,0.7066,-0.0016,0.139,0.7078,-0.0021,0.1389,0.0265,0.0033,0.0154,0.82,0.0,0.0,0.1927,0.1223,-0.0269,0.2347,-0.5046,-0.0651,-0.2338,-0.0001,-0.0123,0.0026,-0.0001,-0.0001,0.015,0.0146,3.0,3.0
0.05,0.7,0.0735,0.4885,0.707,0.0,0.1385,0.707,0.0,0.1385,0.7081,0.0821,0.4714,0.7066,-0.0015,0.139,0.7078,-0.002,0.1389,0.0266,0.0,0.0145,0.8227,0.0,0.0,0.1926,0.11,-0.0242,0.2347,-0.5047,-0.0501,-0.2192,0.0001,-0.0118,0.0026,0.0001,-0.0,0.0121,0.014,3.0,3.0
0.05,0.7,0.065,0.4885,0.707,0.0,0.1385,0.707,0.0,0.1385,0.708,0.0733,0.4714,0.7066,-0.0029,0.1393,0.7077,-0.0019,0.1392,0.0264,0.0048,0.0137,0.8232,0.0,0.0,0.1927,0.0983,-0.0217,0.2348,-0.5047,-0.038,-0.2051,-0.0003,-0.0112,0.0024,-0.0003,-0.0002,0.0161,0.0134,3.0,3.0
0.05,0.7,0.0571,0.4885,0.707,0.0,0.1385,0.707,0.0,0.1385,0.7083,0.0649,0.4709,0.7066,-0.0013,0.1389,0.7077,-0.0019,0.1388,0.0267,0.0,0.0129,0.8267,0.0,0.0,0.1925,0.087,-0.0193,0.2345,-0.5049,-0.0219,-0.1917,0.0001,-0.0106,0.0023,0.0001,-0.0,0.0109,0.0127,3.0,3.0
0.05,0.7,0.0496,0.4885,0.707,0.0,0.1385,0.707,0.0,0.1385,0.7083,0.0569,0.4709,0.7066,-0.0025,0.1392,0.7076,-0.0018,0.1391,0.0264,0.0044,0.0121,0.8272,0.0,0.0,0.1926,0.0764,-0.0169,0.2346,-0.5049,-0.011,-0.179,-0.0002,-0.01,0.0022,-0.0002,-0.0001,0.0144,0.012,3.0,3.0
0.05,0.7,0.0427,0.4885,0.707,0.0,0.1385,0.707,0.0,0.1385,0.7085,0.0495,0.4705,0.7066,-0.0011,0.1389,0.7076,-0.0017,0.1388,0.0266,0.0028,0.0114,0.8296,0.0,0.0,0.1924,0.0665,-0.0148,0.2344,-0.505,0.0033,-0.167,-0.0,-0.0093,0.002,-0.0,-0.0,0.0114,0.0112,3.0,3.0
0.05,0.7,0.0362,0.4885,0.707,0.0,0.1385,0.707,0.0,0.1385,0.7085,0.0425,0.4704,0.7066,-0.001,0.1389,0.7075,-0.0016,0.1388,0.0264,0.0033,0.0108,0.8306,0.0,0.0,0.1924,0.0572,-0.0127,0.2344,-0.5051,0.0148,-0.1558,-0.0,-0.0086,0.0019,-0.0,-0.0,0.0106,0.0104,3.0,3.0
0.05,0.7,0.0304,0.4885,0.707,0.0,0.1385,0.707,0.0,0.1385,0.7086,0.0361,0.4703,0.7066,-0.0008,0.1389,0.7075,-0.0015,0.1388,0.0263,0.0037,0.0102,0.8314,0.0,0.0,0.1923,0.0486,-0.0108,0.2344,-0.5051,0.0253,-0.1454,-0.0,-0.0079,0.0017,-0.0,-0.0,0.0097,0.0095,3.0,3.0
0.05,0.7,0.025,0.4885,0.707,0.0,0.1385,0.707,0.0,0.1385,0.7086,0.0303,0.4702,0.7066,-0.0007,0.1389,0.7075,-0.0014,0.1388,0.0261,0.0042,0.0096,0.832,0.0,0.0,0.1923,0.0407,-0.0091,0.2343,-0.5051,0.035,-0.1359,-0.0,-0.0071,0.0016,-0.0,-0.0,0.0088,0.0087,3.0,3.0
0.05,0.7,0.0203,0.4885,0.707,0.0,0.1385,0.707,0.0,0.1385,0.7086,0.025,0.4701,0.7067,-0.0006,0.1389,0.7074,-0.0012,0.1388,0.026,0.0046,0.0091,0.8325,0.0,0.0,0.1923,0.0336,-0.0075,0.2343,-0.5052,0.0438,-0.1272,-0.0,-0.0064,0.0014,-0.0,-0.0,0.0079,0.0078,3.0,3.0
0.05,0.7,0.0161,0.4885,0.707,0.0,0.1385,0.707,0.0,0.1385,0.7086,0.0202,0.4701,0.7067,-0.0005,0.1389,0.7074,-0.0011,0.1388,0.0259,0.005,0.0087,0.8328,0.0,0.0,0.1923,0.0272,-0.0061,0.2343,-0.5052,0.0516,-0.1194,-0.0,-0.0056,0.0013,-0.0,-0.0,0.0069,0.0069,3.0,3.0
0.05,0.7,0.0124,0.4885,0.707,0.0,0.1385,0.707,0.0,0.1385,0.7087,0.016,0.4701,0.7067,-0.0004,0.1389,0.7073,-0.001,0.1388,0.0257,0.0054,0.0083,0.833,0.0,0.0,0.1923,0.0215,-0.0048,0.2343,-0.5052,0.0586,-0.1125,-0.0,-0.0049,0.0011,-0.0,-0.0,0.006,0.006,3.0,3.0
0.05,0.7,0.0093,0.4885,0.707,0.0,0.1385,0.707,0.0,0.1385,0.7087,0.0124,0.47,0.7068,-0.0003,0.1389,0.7073,-0.0009,0.1388,0.0256,0.0057,0.0079,0.8332,0.0,0.0,0.1923,0.0167,-0.0037,0.2343,-0.5052,0.0646,-0.1065,-0.0,-0.0042,0.0009,-0.0,-0.0,0.0052,0.0051,3.0,3.0
0.05,0.7,0.0067,0.4885,0.707,0.0,0.1385,0.707,0.0,0.1385,0.7087,0.0093,0.47,0.7068,-0.0002,0.1389,0.7072,-0.0008,0.1388,0.0255,0.0059,0.0076,0.8333,0.0,0.0,0.1923,0.0125,-0.0028,0.2343,-0.5052,0.0698,-0.1014,-0.0,-0.0035,0.0008,-0.0,-0.0,0.0043,0.0043,3.0,3.0
0.05,0.7,0.0046,0.4885,0.707,0.0,0.1385,0.707,0.0,0.1385,0.7087,0.0067,0.47,0.7068,-0.0001,0.1389,0.7072,-0.0008,0.1388,0.0254,0.0062,0.0074,0.8334,0.0,0.0,0.1923,0.009,-0.002,0.2343,-0.5052,0.0741,-0.0971,-0.0,-0.0028,0.0006,-0.0,-0.0,0.0035,0.0035,3.0,3.0
0.05,0.7,0.003,0.4885,0.707,0.0,0.1385,0.707,0.0,0.1385,0.7087,0.0046,0.47,0.7069,-0.0,0.1389,0.7072,-0.0007,0.1388,0.0254,0.0063,0.0072,0.8334,0.0,0.0,0.1923,0.0062,-0.0014,0.2343,-0.5052,0.0776,-0.0936,-0.0,-0.0022,0.0005,-0.0,-0.0,0.0028,0.0027,3.0,3.0
0.05,0.7,0.0018,0.4885,0.707,0.0,0.1385,0.707,0.0,0.1385,0.7087,0.003,0.47,0.7069,0.0001,0.1389,0.7071,-0.0006,0.1388,0.0253,0.0065,0.007,0.8334,0.0,0.0,0.1923,0.004,-0.0009,0.2343,-0.5052,0.0804,-0.0908,-0.0,-0.0016,0.0004,-0.0,-0.0,0.0021,0.0021,3.0,3.0
0.05,0.7,0.0009,0.4885,0.707,0.0,0.1385,0.707,0.0,0.1385,0.7087,0.0018,0.47,0.7069,0.0001,0.1389,0.7071,-0.0005,0.1388,0.0253,0.0066,0.0069,0.8335,0.0,0.0,0.1923,0.0024,-0.0005,0.2343,-0.5052,0.0824,-0.0888,-0.0,-0.0011,0.0003,-0.0,-0.0,0.0015,0.0015,3.0,3.0
0.05,0.7,0.0004,0.4885,0.707,0.0,0.1385,0.707,0.0,0.1385,0.7087,0.0009,0.47,0.7069,0.0002,0.1389,0.7071,-0.0005,0.1388,0.0253,0.0067,0.0068,0.8335,0.0,0.0,0.1923,0.0013,-0.0003,0.2343,-0.5052,0.0839,-0.0873,-0.0,-0.0007,0.0002,-0.0,-0.0,0.0009,0.0009,3.0,3.0
0.05,0.7,0.0001,0.4885,0.707,0.0,0.1385,0.707,0.0,0.1385,0.7087,0.0004,0.47,0.707,0.0002,0.1389,0.707,-0.0004,0.1388,0.0253,0.0067,0.0068,0.8335,0.0,0.0,0.1923,0.0005,-0.0001,0.2343,-0.5052,0.0848,-0.0864,-0.0,-0.0004,0.0001,0.0,-0.0,0.0005,0.0005,3.0,3.0
0.05,0.7,0.0,0.4885,0.707,0.0,0.1385,0.707,0.0,0.1385,0.7087,0.0001,0.47,0.707,0.0003,0.1389,0.707,-0.0004,0.1388,0.0253,0.0067,0.0068,0.8335,0.0,0.0,0.1923,0.0002,-0.0,0.2343,-0.5052,0.0853,-0.0859,0.0,-0.0001,0.0,0.0,-0.0,0.0002,0.0002,3.0,3.0
0.05,0.7,-0.0,0.4885,0.707,0.0,0.1385,0.707,0.0,0.1385,0.7087,0.0,0.47,0.707,0.0003,0.1388,0.707,-0.0003,0.1388,0.0253,0.0067,0.0067,0.8335,0.0,0.0,0.1923,0.0,-0.0,0.2343,-0.5052,0.0855,-0.0856,0.0,-0.0,0.0,0.0,-0.0,0.0,0.0,3.0,3.0
0.05,0.7,-0.0,0.4885,0.707,0.0,0.1385,0.707,0.0,0.1385,0.7087,0.0,0.47,0.707,0.0003,0.1388,0.707,-0.0003,0.1388,0.0253,0.0067,0.0067,0.8335,0.0,0.0,0.1923,-0.0,-0.0,0.2343,-0.5052,0.0856,-0.0856,0.0,-0.0,0.0,0.0,-0.0,0.0,0.0,3.0,3.0
0.05,0.7,-0.0001,0.4885,0.707,0.0,0.1385,0.707,0.0,0.1385,0.7087,-0.0,0.47,0.707,0.0003,0.1388,0.707,-0.0003,0.1388,0.0253,0.0067,0.0067,0.8335,0.0,0.0,0.1923,-0.0,0.0,0.2343,-0.5052,0.0856,-0.0856,-0.0,-0.0001,0.0,-0.0,0.0,0.0002,0.0002,3.0,3.0
0.05,0.7,-0.0004,0.4885,0.707,0.0,0.1385,0.707,0.0,0.1385,0.7087,-0.0001,0.47,0.707,0.0003,0.1388,0.707,-0.0003,0.1388,0.0253,0.0068,0.0067,0.8335,0.0,0.0,0.1923,-0.0002,0.0,0.2343,-0.5052,0.0858,-0.0854,0.0,-0.0004,0.0001,0.0,0.0,0.0004,0.0004,3.0,3.0
0.05,0.7,-0.0009,0.4885,0.707,0.0,0.1385,0.707,0.0,0.1385,0.7087,-0.0004,0.47,0.707,0.0003,0.1389,0.707,-0.0004,0.1388,0.0253,0.0068,0.0067,0.8335,0.0,0.0,0.1923,-0.0005,0.0001,0.2343,-0.5052,0.0862,-0.085,0.0,-0.0007,0.0002,0.0,0.0,0.0008,0.0008,3.0,3.0
0.05,0.7,-0.0018,0.4885,0.707,0.0,0.1385,0.707,0.0,0.1385,0.7087,-0.0009,0.47,0.707,0.0003,0.1389,0.707,-0.0004,0.1388,0.0253,0.0068,0.0067,0.8335,0.0,0.0,0.1923,-0.0013,0.0003,0.2343,-0.5052,0.087,-0.0842,0.0,-0.0011,0.0002,0.0,0.0,0.0013,0.0013,3.0,3.0
0.05,0.7,-0.003,0.4885,0.707,0.0,0.1385,0.707,0.0,0.1385,0.7087,-0.0018,0.47,0.7069,0.0002,0.1389,0.7071,-0.0005,0.1388,0.0253,0.0069,0.0066,0.8335,0.0,0.0,0.1923,-0.0024,0.0005,0.2343,-0.5052,0.0883,-0.0829,0.0,-0.0016,0.0004,0.0,0.0,0.0019,0.0019,3.0,3.0
0.05,0.7,-0.0046,0.4885,0.707,0.0,0.1385,0.707,0.0,0.1385,0.7087,-0.003,0.47,0.7069,0.0002,0.1389,0.7071,-0.0005,0.1388,0.0254,0.007,0.0065,0.8335,0.0,0.0,0.1923,-0.004,0.0009,0.2343,-0.5052,0.0902,-0.081,0.0,-0.0022,0.0005,0.0,0.0,0.0025,0.0025,3.0,3.0
0.05,0.7,-0.0067,0.4885,0.707,0.0,0.1385,0.707,0.0,0.1385,0.7087,-0.0046,0.47,0.7069,0.0001,0.1389,0.7071,-0.0006,0.1388,0.0254,0.0072,0.0063,0.8334,0.0,0.0,0.1923,-0.0062,0.0013,0.2343,-0.5052,0.0927,-0.0785,0.0,-0.0028,0.0006,0.0,0.0,0.0033,0.0033,3.0,3.0
0.05,0.7,-0.0093,0.4885,0.707,0.0,0.1385,0.707,0.0,0.1385,0.7087,-0.0067,0.47,0.7068,0.0,0.1389,0.7072,-0.0006,0.1388,0.0255,0.0074,0.0061,0.8334,0.0,0.0,0.1923,-0.009,0.002,0.2343,-0.5052,0.096,-0.0752,0.0,-0.0035,0.0008,0.0,0.0,0.0041,0.0041,3.0,3.0
0.05,0.7,-0.0124,0.4885,0.707,0.0,0.1385,0.707,0.0,0.1385,0.7087,-0.0093,0.47,0.7068,-0.0,0.1389,0.7072,-0.0007,0.1388,0.0256,0.0076,0.0059,0.8333,0.0,0.0,0.1923,-0.0125,0.0027,0.2343,-0.5052,0.1,-0.0711,0.0,-0.0042,0.0009,0.0,0.0,0.0049,0.0049,3.0,3.0
0.05,0.7,-0.0161,0.4885,0.707,0.0,0.1385,0.707,0.0,0.1385,0.7087,-0.0124,0.47,0.7068,-0.0001,0.1389,0.7072,-0.0008,0.1388,0.0257,0.0079,0.0057,0.8333,0.0,0.0,0.1923,-0.0167,0.0036,0.2343,-0.5052,0.1049,-0.0662,0.0,-0.0049,0.0011,0.0,0.0,0.0058,0.0058,3.0,3.0
0.05,0.7,-0.0203,0.4885,0.707,0.0,0.1385,0.707,0.0,0.1385,0.7087,-0.0161,0.4701,0.7067,-0.0002,0.1389,0.7073,-0.0008,0.1388,0.0258,0.0083,0.0053,0.8331,0.0,0.0,0.1923,-0.0216,0.0047,0.2343,-0.5052,0.1107,-0.0605,0.0,-0.0056,0.0012,0.0,0.0,0.0066,0.0067,3.0,3.0
0.05,0.7,-0.025,0.4885,0.707,0.0,0.1385,0.707,0.0,0.1385,0.7086,-0.0203,0.4701,0.7067,-0.0002,0.1389,0.7073,-0.0009,0.1388,0.0259,0.0087,0.005,0.8329,0.0,0.0,0.1923,-0.0272,0.0059,0.2343,-0.5052,0.1174,-0.0538,0.0,-0.0064,0.0014,0.0,0.0,0.0075,0.0076,3.0,3.0
0.05,0.7,-0.0304,0.4885,0.707,0.0,0.1385,0.707,0.0,0.1385,0.7086,-0.025,0.4701,0.7066,-0.0003,0.1389,0.7073,-0.001,0.1388,0.0261,0.0091,0.0046,0.8326,0.0,0.0,0.1923,-0.0336,0.0073,0.2343,-0.5052,0.1249,-0.0462,0.0,-0.0071,0.0016,0.0,0.0,0.0084,0.0085,3.0,3.0
0.05,0.7,-0.0362,0.4885,0.707,0.0,0.1385,0.707,0.0,0.1385,0.7086,-0.0304,0.4702,0.7066,-0.0003,0.1389,0.7074,-0.001,0.1388,0.0262,0.0096,0.0042,0.8322,0.0,0.0,0.1923,-0.0407,0.0089,0.2343,-0.5051,0.1333,-0.0377,0.0,-0.0079,0.0017,0.0,0.0,0.0093,0.0094,3.0,3.0
0.05,0.7,-0.0427,0.4885,0.707,0.0,0.1385,0.707,0.0,0.1385,0.7086,-0.0362,0.4703,0.7065,-0.0004,0.1389,0.7074,-0.0011,0.1388,0.0263,0.0102,0.0037,0.8317,0.0,0.0,0.1923,-0.0486,0.0106,0.2343,-0.5051,0.1426,-0.0283,0.0,-0.0086,0.0019,0.0,0.0,0.0102,0.0103,3.0,3.0
0.05,0.7,-0.0496,0.4885,0.707,0.0,0.1385,0.707,0.0,0.1385,0.7085,-0.0426,0.4704,0.7065,-0.0004,0.1389,0.7074,-0.0012,0.1388,0.0264,0.0108,0.0032,0.8309,0.0,0.0,0.1923,-0.0572,0.0125,0.2344,-0.5051,0.1528,-0.018,0.0,-0.0093,0.002,0.0,0.0,0.011,0.0111,3.0,3.0
0.05,0.7,-0.0571,0.4885,0.707,0.0,0.1385,0.707,0.0,0.1385,0.7085,-0.0496,0.4705,0.7064,-0.0005,0.1389,0.7075,-0.0012,0.1388,0.0264,0.0114,0.0,0.83,0.0,0.0,0.1924,-0.0665,0.0145,0.2344,-0.505,0.1638,-0.0069,0.0001,-0.01,0.0022,0.0001,0.0001,0.0118,0.0102,3.0,3.0
0.05,0.7,-0.065,0.4885,0.707,0.0,0.1385,0.707,0.0,0.1385,0.7083,-0.0571,0.4708,0.7063,-0.0005,0.1391,0.7074,-0.0023,0.139,0.0262,0.0121,0.004,0.828,0.0,0.0,0.1925,-0.0765,0.0167,0.2345,-0.505,0.1756,0.0033,-0.0001,-0.0106,0.0023,-0.0001,0.0,0.0126,0.0145,3.0,3.0
0.05,0.7,-0.0735,0.4885,0.707,0.0,0.1385,0.707,0.0,0.1385,0.7083,-0.065,0.4709,0.7063,-0.0005,0.1389,0.7075,-0.0013,0.1388,0.0264,0.0129,0.0,0.8275,0.0,0.0,0.1925,-0.0871,0.019,0.2345,-0.5049,0.1882,0.0178,0.0002,-0.0112,0.0024,0.0002,0.0001,0.0133,0.0115,3.0,3.0
0.05,0.7,-0.0823,0.4885,0.707,0.0,0.1385,0.707,0.0,0.1385,0.7081,-0.0734,0.4713,0.7062,-0.0006,0.1391,0.7074,-0.0026,0.139,0.026,0.0136,0.0042,0.8247,0.0,0.0,0.1926,-0.0984,0.0214,0.2347,-0.5048,0.2015,0.0293,-0.0001,-0.0118,0.0025,-0.0001,0.0,0.0139,0.0162,3.0,3.0
0.05,0.7,-0.0916,0.4885,0.707,0.0,0.1385,0.707,0.0,0.1385,0.7081,-0.0823,0.4714,0.7062,-0.0006,0.1389,0.7076,-0.0014,0.1388,0.0261,0.0145,0.0,0.8237,0.0,0.0,0.1926,-0.1101,0.024,0.2346,-0.5048,0.2154,0.0455,0.0002,-0.0123,0.0026,0.0002,0.0002,0.0145,0.0126,3.0,3.0
0.05,0.7,-0.1012,0.4885,0.707,0.0,0.1385,0.707,0.0,0.1385,0.7078,-0.0915,0.4719,0.7061,-0.0006,0.1392,0.7074,-0.0028,0.1391,0.0256,0.0154,0.0051,0.8198,0.0,0.0,0.1928,-0.1224,0.0266,0.2348,-0.5046,0.2299,0.0581,-0.0001,-0.0127,0.0027,-0.0001,0.0001,0.015,0.0176,3.0,3.0
0.05,0.7,-0.1111,0.4885,0.707,0.0,0.1385,0.707,0.0,0.1385,0.7078,-0.1011,0.472,0.7061,-0.0006,0.139,0.7076,-0.0014,0.1388,0.0256,0.0164,0.0039,0.8183,0.0,0.0,0.1927,-0.1351,0.0293,0.2348,-0.5045,0.2448,0.0758,0.0001,-0.0131,0.0028,0.0001,0.0001,0.0154,0.0159,3.0,3.0
0.05,0.7,-0.1213,0.4885,0.707,0.0,0.1385,0.707,0.0,0.1385,0.7075,-0.111,0.4725,0.706,-0.0005,0.139,0.7075,-0.0014,0.1389,0.0252,0.0173,0.0049,0.815,0.0,0.0,0.1929,-0.1482,0.032,0.2349,-0.5044,0.2603,0.0916,0.0001,-0.0134,0.0028,0.0001,0.0002,0.0158,0.0163,3.0,3.0
0.05,0.7,-0.1318,0.4885,0.707,0.0,0.1385,0.707,0.0,0.1385,0.7073,-0.1212,0.4729,0.706,-0.0005,0.1391,0.7075,-0.0014,0.1389,0.0248,0.0184,0.0058,0.8112,0.0,0.0,0.193,-0.1616,0.0348,0.235,-0.5042,0.276,0.1079,0.0001,-0.0137,0.0028,0.0001,0.0002,0.016,0.0166,3.0,3.0
0.05,0.7,-0.1424,0.4885,0.707,0.0,0.1385,0.707,0.0,0.1385,0.7071,-0.1317,0.4734,0.7059,-0.0005,0.1391,0.7075,-0.0014,0.139,0.0243,0.0194,0.0069,0.8067,0.0,0.0,0.1931,-0.1752,0.0377,0.2351,-0.504,0.2921,0.1246,0.0001,-0.0138,0.0028,0.0001,0.0002,0.0162,0.0169,3.0,3.0
0.05,0.7,-0.1532,0.4885,0.707,0.0,0.1385,0.707,0.0,0.1385,0.7069,-0.1423,0.474,0.7059,-0.0004,0.1391,0.7075,-0.0014,0.139,0.0237,0.0205,0.008,0.8016,0.0,0.0,0.1932,-0.1891,0.0405,0.2352,-0.5038,0.3083,0.1414,0.0001,-0.014,0.0028,0.0001,0.0002,0.0163,0.0171,3.0,3.0
0.05,0.7,-0.1641,0.4885,0.707,0.0,0.1385,0.707,0.0,0.1385,0.7066,-0.1531,0.4746,0.7059,-0.0004,0.1392,0.7075,-0.0013,0.139,0.023,0.0217,0.0092,0.7958,0.0,0.0,0.1933,-0.2031,0.0433,0.2353,-0.5036,0.3247,0.1585,0.0001,-0.014,0.0028,0.0001,0.0003,0.0164,0.0171,3.0,3.0
0.05,0.7,-0.175,0.4885,0.707,0.0,0.1385,0.707,0.0,0.1385,0.7063,-0.1639,0.4752,0.7058,-0.0003,0.1392,0.7075,-0.0013,0.1391,0.0223,0.0229,0.0104,0.7893,0.0,0.0,0.1935,-0.2171,0.0461,0.2354,-0.5033,0.341,0.1756,0.0001,-0.014,0.0028,0.0001,0.0003,0.0163,0.0171,3.0,3.0
0.05,0.7,-0.1859,0.4885,0.707,0.0,0.1385,0.707,0.0,0.1385,0.706,-0.1749,0.4758,0.7058,-0.0002,0.1393,0.7074,-0.0012,0.1391,0.0215,0.0241,0.0117,0.782,0.0,0.0,0.1936,-0.2311,0.0489,0.2355,-0.503,0.3574,0.1928,0.0001,-0.0139,0.0027,0.0001,0.0003,0.0162,0.0171,3.0,3.0
0.05,0.7,-0.1968,0.4885,0.707,0.0,0.1385,0.707,0.0,0.1385,0.7057,-0.1858,0.4765,0.7058,-0.0001,0.1393,0.7074,-0.0012,0.1392,0.0207,0.0253,0.013,0.7737,0.0,0.0,0.1938,-0.245,0.0516,0.2356,-0.5027,0.3736,0.2098,0.0001,-0.0138,0.0026,0.0001,0.0004,0.016,0.0169,3.0,3.0
0.05,0.7,-0.2076,0.4885,0.707,0.0,0.1385,0.707,0.0,0.1385,0.7054,-0.1967,0.4772,0.7058,-0.0001,0.1394,0.7074,-0.0011,0.1392,0.0199,0.0265,0.0143,0.7646,0.0,0.0,0.1939,-0.2588,0.0542,0.2357,-0.5023,0.3895,0.2267,0.0001,-0.0136,0.0025,0.0001,0.0004,0.0157,0.0166,3.0,3.0
0.05,0.7,-0.2182,0.4885,0.707,0.0,0.1385,0.707,0.0,0.1385,0.7051,-0.2074,0.4779,0.7058,0.0,0.1394,0.7074,-0.001,0.1393,0.019,0.0278,0.0157,0.7544,0.0,0.0,0.194,-0.2723,0.0568,0.2357,-0.502,0.4053,0.2434,0.0001,-0.0133,0.0025,0.0001,0.0004,0.0154,0.0163,3.0,3.0
0.05,0.7,-0.2287,0.4885,0.707,0.0,0.1385,0.707,0.0,0.1385,0.7048,-0.2181,0.4786,0.7058,0.0001,0.1395,0.7074,-0.0009,0.1393,0.018,0.0291,0.017,0.7433,0.0,0.0,0.1941,-0.2856,0.0592,0.2358,-0.5015,0.4206,0.2597,0.0001,-0.0129,0.0024,0.0,0.0005,0.0149,0.0159,3.0,3.0
0.05,0.7,-0.2389,0.4885,0.707,0.0,0.1385,0.707,0.0,0.1385,0.7044,-0.2285,0.4793,0.7058,0.0002,0.1395,0.7073,-0.0008,0.1394,0.0171,0.0303,0.0184,0.731,0.0,0.0,0.1942,-0.2985,0.0616,0.2358,-0.5011,0.4356,0.2756,0.0001,-0.0126,0.0022,0.0,0.0005,0.0145,0.0155,3.0,3.0
0.05,0.7,-0.2488,0.4885,0.707,0.0,0.1385,0.707,0.0,0.1385,0.7041,-0.2387,0.4799,0.7058,0.0004,0.1396,0.7073,-0.0007,0.1395,0.0162,0.0315,0.0197,0.7177,0.0,0.0,0.1943,-0.3111,0.0638,0.2359,-0.5006,0.45,0.2911,0.0001,-0.0121,0.0021,-0.0,0.0005,0.0139,0.015,3.0,3.0
0.05,0.7,-0.2584,0.4885,0.707,0.0,0.1385,0.707,0.0,0.1385,0.7038,-0.2487,0.4806,0.7058,0.0005,0.1397,0.7073,-0.0006,0.1395,0.0152,0.0328,0.021,0.7032,0.0482,0.0,0.1944,-0.3232,0.066,0.2358,-0.5,0.464,0.3061,0.0,-0.011,0.0019,-0.0,0.0006,0.0127,0.0137,3.0,3.0
0.05,0.7,-0.2677,0.4885,0.707,0.0,0.1385,0.707,0.0,0.1385,0.7037,-0.2578,0.4812,0.7059,0.0006,0.1398,0.7073,-0.0004,0.1396,0.0148,0.0339,0.0223,0.6876,0.333,0.0,0.1945,-0.3342,0.0678,0.2358,-0.4995,0.4767,0.3198,-0.0001,-0.0059,0.0009,-0.0002,0.0006,0.0073,0.0082,3.0,3.0
0.05,0.7,-0.2765,0.4885,0.707,0.0,0.1385,0.707,0.0,0.1385,0.7048,-0.2632,0.4819,0.7064,0.0011,0.1398,0.7072,0.0003,0.1397,0.0186,0.0346,0.023,0.6696,0.5554,0.0,0.1944,-0.3401,0.0687,0.2356,-0.4989,0.484,0.328,-0.0002,-0.0043,0.0005,-0.0003,0.0007,0.0051,0.0056,3.0,3.0
0.05,0.7,-0.285,0.4885,0.707,0.0,0.1385,0.707,0.0,0.1385,0.7063,-0.2674,0.4825,0.7065,0.0013,0.1398,0.7072,0.0005,0.1398,0.0237,0.0352,0.0236,0.6501,0.7067,0.0,0.1942,-0.3444,0.0692,0.2353,-0.4982,0.4891,0.3336,-0.0002,-0.0028,0.0002,-0.0003,0.0007,0.0033,0.0037,3.0,3.0
0.05,0.7,-0.2929,0.4885,0.707,0.0,0.1385,0.707,0.0,0.1385,0.7082,-0.2704,0.483,0.7067,0.0015,0.1399,0.7072,0.0007,0.1398,0.03,0.0356,0.0241,0.6291,0.7952,0.0,0.194,-0.3472,0.0694,0.235,-0.4974,0.4924,0.3373,-0.0003,-0.0018,0.0,-0.0004,0.0008,0.0022,0.0024,3.0,3.0
0.05,0.7,-0.3004,0.4885,0.707,0.0,0.1385,0.707,0.0,0.1385,0.7102,-0.2727,0.4835,0.7068,0.0016,0.1399,0.7072,0.0009,0.1398,0.0368,0.0359,0.0245,0.6069,0.8463,0.0,0.1937,-0.349,0.0695,0.2346,-0.4967,0.4945,0.3397,-0.0003,-0.0012,-0.0001,-0.0004,0.0008,0.0014,0.0016,3.0,3.0
0.05,0.7,-0.3073,0.4885,0.707,0.0,0.1385,0.707,0.0,0.1385,0.7123,-0.2746,0.484,0.7068,0.0016,0.1399,0.7072,0.0009,0.1398,0.0437,0.0362,0.0248,0.5841,0.8771,0.0,0.1935,-0.3502,0.0694,0.2342,-0.4959,0.496,0.3413,-0.0003,-0.0009,-0.0001,-0.0004,0.0008,0.001,0.0011,3.0,3.0
0.05,0.7,-0.3138,0.4885,0.707,0.0,0.1385,0.707,0.0,0.1385,0.7144,-0.2761,0.4844,0.7069,0.0017,0.1399,0.7072,0.001,0.1399,0.0503,0.0364,0.025,0.561,0.8968,0.0,0.1932,-0.3511,0.0693,0.2338,-0.4952,0.497,0.3424,-0.0003,-0.0006,-0.0002,-0.0004,0.0008,0.0007,0.0008,3.0,3.0
0.05,0.7,-0.3196,0.4885,0.707,0.0,0.1385,0.707,0.0,0.1385,0.7165,-0.2774,0.4847,0.7069,0.0017,0.1399,0.7072,0.001,0.1399,0.0565,0.0366,0.0252,0.538,0.9101,0.0,0.1929,-0.3517,0.0691,0.2334,-0.4944,0.4977,0.3432,-0.0003,-0.0005,-0.0002,-0.0004,0.0007,0.0005,0.0006,3.0,3.0
0.05,0.7,-0.325,0.4885,0.707,0.0,0.1385,0.707,0.0,0.1385,0.7184,-0.2785,0.485,0.7069,0.0017,0.1399,0.7072,0.0011,0.1399,0.0621,0.0367,0.0254,0.5156,0.9195,0.0,0.1926,-0.3522,0.069,0.233,-0.4936,0.4983,0.3438,-0.0003,-0.0004,-0.0002,-0.0004,0.0007,0.0004,0.0004,3.0,3.0
0.05,0.7,-0.3297,0.4885,0.707,0.0,0.1385,0.707,0.0,0.1385,0.7202,-0.2795,0.4853,0.7069,0.0017,0.1399,0.7072,0.0011,0.1399,0.0672,0.0368,0.0255,0.4941,0.9265,0.0,0.1923,-0.3525,0.0688,0.2326,-0.4929,0.4987,0.3442,-0.0003,-0.0003,-0.0001,-0.0003,0.0007,0.0003,0.0003,3.0,3.0
0.05,0.7,-0.3339,0.4885,0.707,0.0,0.1385,0.707,0.0,0.1385,0.7219,-0.2804,0.4855,0.7069,0.0017,0.14,0.7072,0.0011,0.1399,0.0718,0.0369,0.0256,0.474,0.9317,0.0,0.1921,-0.3528,0.0686,0.2323,-0.4923,0.499,0.3446,-0.0002,-0.0002,-0.0001,-0.0003,0.0006,0.0003,0.0003,3.0,3.0
0.05,0.7,-0.3376,0.4885,0.707,0.0,0.1385,0.707,0.0,0.1385,0.7233,-0.2811,0.4857,0.7069,0.0017,0.14,0.7072,0.0011,0.1399,0.0757,0.037,0.0257,0.4555,0.9357,0.0,0.1919,-0.3531,0.0685,0.232,-0.4917,0.4993,0.3449,-0.0002,-0.0002,-0.0001,-0.0003,0.0006,0.0002,0.0002,3.0,3.0
0.05,0.7,-0.3407,0.4885,0.707,0.0,0.1385,0.707,0.0,0.1385,0.7247,-0.2818,0.4859,0.7069,0.0018,0.14,0.7072,0.0011,0.1399,0.0791,0.0371,0.0258,0.4389,0.9388,0.0,0.1916,-0.3532,0.0684,0.2317,-0.4911,0.4995,0.3451,-0.0002,-0.0001,-0.0001,-0.0002,0.0005,0.0002,0.0002,3.0,3.0
0.05,0.7,-0.3433,0.4885,0.707,0.0,0.1385,0.707,0.0,0.1385,0.7258,-0.2823,0.486,0.7069,0.0018,0.14,0.7072,0.0011,0.1399,0.0819,0.0371,0.0258,0.4243,0.9411,0.0,0.1915,-0.3534,0.0683,0.2314,-0.4906,0.4996,0.3452,-0.0002,-0.0001,-0.0001,-0.0002,0.0004,0.0001,0.0001,3.0,3.0
0.05,0.7,-0.3454,0.4885,0.707,0.0,0.1385,0.707,0.0,0.1385,0.7268,-0.2828,0.4861,0.7069,0.0018,0.14,0.7072,0.0011,0.1399,0.0842,0.0371,0.0259,0.4119,0.943,0.0,0.1913,-0.3535,0.0682,0.2312,-0.4902,0.4998,0.3454,-0.0001,-0.0001,-0.0001,-0.0002,0.0003,0.0001,0.0001,3.0,3.0
0.05,0.7,-0.347,0.4885,0.707,0.0,0.1385,0.707,0.0,0.1385,0.7275,-0.2831,0.4862,0.7069,0.0018,0.14,0.7072,0.0011,0.14,0.086,0.0371,0.0259,0.4017,0.9443,0.0,0.1912,-0.3536,0.0681,0.231,-0.4899,0.4999,0.3455,-0.0001,-0.0001,-0.0001,-0.0001,0.0003,0.0001,0.0001,3.0,3.0
0.05,0.7,-0.3482,0.4885,0.707,0.0,0.1385,0.707,0.0,0.1385,0.7282,-0.2834,0.4863,0.7069,0.0018,0.14,0.7072,0.0011,0.14,0.0873,0.0372,0.0259,0.3935,0.9454,0.0,0.1911,-0.3536,0.0681,0.2309,-0.4896,0.4999,0.3455,-0.0001,-0.0,-0.0,-0.0001,0.0002,0.0001,0.0001,3.0,3.0
0.05,0.7,-0.3491,0.4885,0.707,0.0,0.1385,0.707,0.0,0.1385,0.7286,-0.2836,0.4863,0.7069,0.0018,0.14,0.7072,0.0011,0.14,0.0882,0.0372,0.0259,0.3873,0.9461,0.0,0.191,-0.3537,0.068,0.2308,-0.4894,0.5,0.3456,-0.0001,-0.0,-0.0,-0.0001,0.0002,0.0,0.0,3.0,3.0
0.05,0.7,-0.3496,0.4885,0.707,0.0,0.1385,0.707,0.0,0.1385,0.7289,-0.2837,0.4863,0.7069,0.0018,0.14,0.7071,0.0011,0.14,0.0888,0.0372,0.026,0.3828,0.9465,0.0,0.1909,-0.3537,0.068,0.2307,-0.4892,0.5,0.3456,-0.0,-0.0,-0.0,-0.0,0.0001,0.0,0.0,3.0,3.0
0.05,0.7,-0.3499,0.4885,0.707,0.0,0.1385,0.707,0.0,0.1385,0.7291,-0.2838,0.4863,0.7069,0.0018,0.14,0.7071,0.0012,0.14,0.0891,0.0372,0.026,0.3799,0.9468,0.0,0.1909,-0.3537,0.068,0.2307,-0.4891,0.5,0.3456,-0.0,-0.0,-0.0,-0.0,0.0001,0.0,0.0,3.0,3.0
0.05,0.7,-0.35,0.4885,0.707,0.0,0.1385,0.707,0.0,0.1385,0.7292,-0.2839,0.4864,0.7069,0.0018,0.14,0.7071,0.0012,0.14,0.0892,0.0372,0.026,0.3782,0.947,0.0,0.1909,-0.3537,0.068,0.2307,-0.4891,0.5001,0.3456,-0.0,-0.0,-0.0,-0.0,0.0,0.0,0.0,3.0,3.0
0.05,0.7,-0.35,0.4885,0.707,0.0,0.1385,0.707,0.0,0.1385,0.7293,-0.2839,0.4864,0.7069,0.0018,0.14,0.7071,0.0012,0.14,0.0892,0.0372,0.026,0.3775,0.947,0.0,0.1909,-0.3537,0.068,0.2307,-0.489,0.5001,0.3456,-0.0,0.0,0.0,-0.0,0.0,-0.0,-0.0,3.0,3.0
0.05,0.7,-0.35,0.4885,0.707,0.0,0.1385,0.707,0.0,0.1385,0.7293,-0.2839,0.4864,0.7069,0.0018,0.14,0.7071,0.0012,0.14,0.0892,0.0372,0.026,0.3772,0.947,0.0,0.1908,-0.3537,0.068,0.2307,-0.489,0.5001,0.3456,-0.0,-0.0,-0.0,-0.0,0.0,0.0,-0.0,3.0,3.0
0.05,0.7,-0.35,0.4884,0.707,0.0,0.1385,0.707,0.0,0.1385,0.7293,-0.2839,0.4863,0.7069,0.0018,0.14,0.7071,0.0012,0.14,0.0892,0.0372,0.026,0.3769,0.947,0.0,0.1908,-0.3537,0.068,0.2306,-0.489,0.5001,0.3456,-0.0,-0.0,-0.0,-0.0,0.0001,0.0,-0.0,3.0,3.0
0.05,0.7,-0.35,0.4881,0.707,0.0,0.1385,0.707,0.0,0.1385,0.7293,-0.2839,0.4863,0.7069,0.0018,0.14,0.7071,0.0012,0.14,0.0892,0.0372,0.026,0.3748,0.947,0.0,0.1908,-0.3537,0.0679,0.2306,-0.489,0.5001,0.3456,-0.0001,-0.0,-0.0001,-0.0001,0.0002,0.0,-0.0,3.0,3.0
0.05,0.7,-0.35,0.4876,0.707,0.0,0.1385,0.707,0.0,0.1385,0.7293,-0.2839,0.4861,0.7069,0.0018,0.14,0.7072,0.0012,0.14,0.0892,0.0372,0.026,0.369,0.947,0.0,0.1907,-0.3537,0.0679,0.2305,-0.4888,0.5001,0.3456,-0.0002,-0.0,-0.0001,-0.0002,0.0004,0.0,-0.0,3.0,3.0
0.05,0.7,-0.35,0.4867,0.707,0.0,0.1385,0.707,0.0,0.1385,0.7292,-0.2839,0.4857,0.7069,0.0018,0.14,0.7072,0.0011,0.14,0.0892,0.0373,0.0261,0.3576,0.947,0.0,0.1906,-0.3537,0.0677,0.2302,-0.4884,0.5001,0.3456,-0.0003,-0.0,-0.0002,-0.0004,0.0007,0.0,-0.0,3.0,3.0
0.05,0.7,-0.35,0.4855,0.707,0.0,0.1385,0.707,0.0,0.1385,0.7291,-0.2839,0.485,0.7069,0.0018,0.14,0.7072,0.0011,0.1399,0.0893,0.0374,0.0262,0.3388,0.947,0.0,0.1903,-0.3538,0.0675,0.2299,-0.4877,0.5001,0.3456,-0.0004,-0.0,-0.0003,-0.0006,0.001,0.0,-0.0,3.0,3.0
0.05,0.7,-0.35,0.4839,0.707,0.0,0.1385,0.707,0.0,0.1385,0.729,-0.2838,0.4841,0.707,0.0018,0.1399,0.7072,0.0011,0.1399,0.0893,0.0375,0.0263,0.3109,0.9471,0.0,0.1899,-0.3538,0.0672,0.2293,-0.4867,0.5001,0.3456,-0.0006,-0.0,-0.0004,-0.0008,0.0014,0.0,-0.0,3.0,3.0
0.05,0.7,-0.35,0.4818,0.707,0.0,0.1385,0.707,0.0,0.1385,0.7289,-0.2838,0.4827,0.707,0.0018,0.1399,0.7073,0.0011,0.1399,0.0894,0.0376,0.0264,0.2725,0.9471,0.0,0.1893,-0.3538,0.0668,0.2286,-0.4853,0.5001,0.3456,-0.0008,-0.0,-0.0005,-0.001,0.0019,0.0,-0.0,3.0,3.0
0.05,0.7,-0.35,0.4792,0.707,0.0,0.1385,0.707,0.0,0.1385,0.7288,-0.2837,0.481,0.7071,0.0018,0.1399,0.7073,0.0011,0.1398,0.0895,0.0377,0.0266,0.2228,0.9472,0.0,0.1885,-0.3538,0.0664,0.2275,-0.4834,0.5001,0.3456,-0.001,-0.0,-0.0006,-0.0013,0.0025,0.0,-0.0,3.0,3.0
0.05,0.7,-0.35,0.4761,0.707,0.0,0.1385,0.707,0.0,0.1385,0.7288,-0.2837,0.4787,0.7071,0.0017,0.1398,0.7074,0.0011,0.1398,0.0897,0.0378,0.0267,0.163,0.9473,0.0,0.1874,-0.3538,0.0658,0.2262,-0.4809,0.5001,0.3455,-0.0013,-0.0,-0.0006,-0.0017,0.0032,0.0,-0.0,3.0,3.0
0.05,0.7,-0.35,0.4724,0.707,0.0,0.1385,0.707,0.0,0.1385,0.7287,-0.2836,0.4759,0.7072,0.0017,0.1398,0.7074,0.0011,0.1397,0.0899,0.0378,0.0267,0.0977,0.9474,0.0,0.1861,-0.3539,0.0651,0.2246,-0.4777,0.5001,0.3455,-0.0017,-0.0,-0.0007,-0.002,0.004,0.0,-0.0001,3.0,3.0
0.05,0.7,-0.35,0.4682,0.707,0.0,0.1385,0.707,0.0,0.1385,0.7287,-0.2834,0.4724,0.7073,0.0017,0.1397,0.7075,0.0011,0.1396,0.0902,0.0377,0.0267,0.0379,0.9475,0.0,0.1844,-0.3539,0.0644,0.2225,-0.4736,0.5001,0.3454,-0.002,0.0,-0.0008,-0.0024,0.0049,0.0,-0.0001,3.0,3.0
0.05,0.7,-0.35,0.4635,0.707,0.0,0.1385,0.707,0.0,0.1385,0.7288,-0.2833,0.4683,0.7073,0.0017,0.1396,0.7076,0.0011,0.1396,0.0905,0.0374,0.0265,0.0023,0.9477,0.0,0.1824,-0.3539,0.0636,0.2201,-0.4688,0.5001,0.3454,-0.0023,0.0,-0.0009,-0.0028,0.0057,0.0,-0.0001,3.0,3.0
0.05,0.7,-0.35,0.4581,0.707,0.0,0.1385,0.707,0.0,0.1385,0.729,-0.2831,0.4635,0.7074,0.0016,0.1395,0.7077,0.0011,0.1395,0.0909,0.0371,0.0263,0.0,0.9479,0.0,0.1801,-0.3538,0.0628,0.2173,-0.4631,0.5001,0.3453,-0.0026,0.0,-0.001,-0.0032,0.0064,0.0,-0.0001,3.0,3.0
0.05,0.7,-0.35,0.4523,0.707,0.0,0.1385,0.707,0.0,0.1385,0.7291,-0.2828,0.4582,0.7075,0.0016,0.1394,0.7077,0.001,0.1394,0.0913,0.0368,0.026,0.0,0.9481,0.0,0.1774,-0.3538,0.0618,0.2141,-0.4566,0.5001,0.3451,-0.0029,0.0,-0.0011,-0.0035,0.0072,0.0,-0.0001,3.0,3.0
0.05,0.7,-0.35,0.4458,0.707,0.0,0.1385,0.707,0.0,0.1385,0.7293,-0.2826,0.4523,0.7076,0.0016,0.1393,0.7078,0.001,0.1393,0.0918,0.0364,0.0258,0.0,0.9483,0.0,0.1745,-0.3538,0.0607,0.2106,-0.4495,0.5001,0.345,-0.0032,0.0,-0.0012,-0.0039,0.0079,0.0,-0.0001,3.0,3.0
0.05,0.7,-0.35,0.4389,0.707,0.0,0.1385,0.707,0.0,0.1385,0.7294,-0.2823,0.4459,0.7076,0.0015,0.1393,0.7078,0.001,0.1392,0.0923,0.0359,0.0254,0.0,0.9485,0.0,0.1713,-0.3538,0.0595,0.2067,-0.4416,0.5002,0.3449,-0.0035,0.0,-0.0013,-0.0042,0.0086,0.0,-0.0002,3.0,3.0
0.05,0.7,-0.35,0.4314,0.707,0.0,0.1385,0.707,0.0,0.1385,0.7296,-0.282,0.439,0.7077,0.0014,0.1392,0.7079,0.0009,0.1391,0.0928,0.0354,0.025,0.0,0.9488,0.0,0.1678,-0.3537,0.0582,0.2025,-0.433,0.5002,0.3447,-0.0038,0.0,-0.0014,-0.0045,0.0093,0.0,-0.0002,3.0,3.0
0.05,0.7,-0.35,0.4235,0.707,0.0,0.1385,0.707,0.0,0.1385,0.7298,-0.2816,0.4315,0.7078,0.0014,0.1391,0.708,0.0009,0.1391,0.0934,0.0348,0.0246,0.0,0.949,0.0,0.164,-0.3537,0.0569,0.198,-0.4236,0.5002,0.3446,-0.0041,0.0001,-0.0015,-0.0049,0.01,0.0,-0.0002,3.0,3.0
0.05,0.7,-0.35,0.415,0.707,0.0,0.1385,0.707,0.0,0.1385,0.73,-0.2813,0.4236,0.7078,0.0013,0.139,0.708,0.0009,0.139,0.0941,0.0342,0.0242,0.0,0.9493,0.0,0.16,-0.3536,0.0554,0.1931,-0.4136,0.5002,0.3444,-0.0043,0.0001,-0.0016,-0.0052,0.0107,0.0,-0.0002,3.0,3.0
0.05,0.7,-0.35,0.4062,0.707,0.0,0.1385,0.707,0.0,0.1385,0.7302,-0.2809,0.4151,0.7079,0.0013,0.1389,0.7081,0.0008,0.1389,0.0947,0.0335,0.0237,0.0,0.9496,0.0,0.1556,-0.3535,0.0538,0.188,-0.4029,0.5002,0.3442,-0.0046,0.0001,-0.0017,-0.0055,0.0114,0.0,-0.0002,3.0,3.0
0.05,0.7,-0.35,0.3969,0.707,0.0,0.1385,0.707,0.0,0.1385,0.7304,-0.2804,0.4063,0.7079,0.0012,0.1388,0.7081,0.0008,0.1388,0.0954,0.0327,0.0232,0.0,0.95,0.0,0.151,-0.3535,0.0521,0.1825,-0.3915,0.5003,0.344,-0.0048,0.0001,-0.0017,-0.0058,0.012,0.0,-0.0002,3.0,3.0
0.05,0.7,-0.35,0.3873,0.707,0.0,0.1385,0.707,0.0,0.1385,0.7306,-0.28,0.3971,0.708,0.0011,0.1387,0.7081,0.0007,0.1387,0.0962,0.032,0.0226,0.0,0.9503,0.0,0.1462,-0.3534,0.0504,0.1767,-0.3795,0.5003,0.3438,-0.0051,0.0001,-0.0018,-0.0061,0.0126,0.0,-0.0002,3.0,3.0
0.05,0.7,-0.35,0.3774,0.707,0.0,0.1385,0.707,0.0,0.1385,0.7308,-0.2796,0.3874,0.708,0.0011,0.1386,0.7082,0.0007,0.1386,0.0969,0.0311,0.022,0.0,0.9506,0.0,0.1411,-0.3533,0.0486,0.1706,-0.3669,0.5003,0.3436,-0.0053,0.0001,-0.0019,-0.0063,0.0132,0.0,-0.0002,3.0,3.0
0.05,0.7,-0.35,0.3672,0.707,0.0,0.1385,0.707,0.0,0.1385,0.7311,-0.2791,0.3775,0.708,0.001,0.1385,0.7082,0.0006,0.1385,0.0977,0.0302,0.0214,0.0,0.951,0.0,0.1359,-0.3532,0.0467,0.1643,-0.3538,0.5003,0.3433,-0.0055,0.0001,-0.002,-0.0065,0.0137,0.0,-0.0002,3.0,3.0
0.05,0.7,-0.35,0.3567,0.707,0.0,0.1385,0.707,0.0,0.1385,0.7313,-0.2786,0.3673,0.7081,0.0009,0.1384,0.7082,0.0006,0.1384,0.0985,0.0293,0.0207,0.0,0.9513,0.0,0.1304,-0.3531,0.0447,0.1578,-0.3401,0.5004,0.3431,-0.0056,0.0001,-0.002,-0.0067,0.0141,0.0,-0.0002,3.0,3.0
0.05,0.7,-0.35,0.3461,0.707,0.0,0.1385,0.707,0.0,0.1385,0.7316,-0.2781,0.3569,0.7081,0.0009,0.1383,0.7082,0.0005,0.1383,0.0993,0.0283,0.02,0.0,0.9517,0.0,0.1248,-0.353,0.0427,0.1511,-0.3259,0.5004,0.3428,-0.0058,0.0001,-0.0021,-0.0069,0.0145,0.0,-0.0003,3.0,3.0
0.05,0.7,-0.35,0.3353,0.707,0.0,0.1385,0.707,0.0,0.1385,0.7318,-0.2776,0.3462,0.7081,0.0008,0.1382,0.7082,0.0005,0.1382,0.1001,0.0272,0.0193,0.0,0.952,0.0,0.119,-0.3529,0.0407,0.1442,-0.3114,0.5004,0.3426,-0.0059,0.0001,-0.0021,-0.0071,0.0149,0.0,-0.0003,3.0,3.0
0.05,0.7,-0.35,0.3244,0.707,0.0,0.1385,0.707,0.0,0.1385,0.732,-0.2771,0.3354,0.7081,0.0007,0.1382,0.7082,0.0005,0.1382,0.1009,0.0262,0.0185,0.0,0.9524,0.0,0.1131,-0.3527,0.0386,0.1371,-0.2965,0.5005,0.3423,-0.006,0.0001,-0.0021,-0.0072,0.0152,0.0,-0.0003,3.0,3.0
0.05,0.7,-0.35,0.3135,0.707,0.0,0.1385,0.707,0.0,0.1385,0.7323,-0.2766,0.3245,0.7081,0.0007,0.1381,0.7082,0.0004,0.1381,0.1018,0.025,0.0177,0.0,0.9527,0.0,0.1071,-0.3526,0.0364,0.1299,-0.2813,0.5005,0.3421,-0.0061,0.0001,-0.0021,-0.0073,0.0154,0.0,-0.0003,3.0,3.0
0.05,0.7,-0.35,0.3026,0.707,0.0,0.1385,0.707,0.0,0.1385,0.7325,-0.276,0.3136,0.7081,0.0006,0.138,0.7082,0.0004,0.138,0.1026,0.0239,0.0169,0.0,0.9531,0.0,0.101,-0.3525,0.0343,0.1227,-0.2659,0.5005,0.3418,-0.0061,0.0001,-0.0022,-0.0073,0.0156,0.0,-0.0003,3.0,3.0
0.05,0.7,-0.35,0.2917,0.707,0.0,0.1385,0.707,0.0,0.1385,0.7327,-0.2755,0.3027,0.7081,0.0005,0.1379,0.7082,0.0003,0.1379,0.1034,0.0227,0.0161,0.0,0.9534,0.0,0.0949,-0.3523,0.0321,0.1154,-0.2504,0.5005,0.3415,-0.0061,0.0001,-0.0022,-0.0073,0.0156,0.0,-0.0003,3.0,3.0
0.05,0.7,-0.35,0.2809,0.707,0.0,0.1385,0.707,0.0,0.1385,0.733,-0.275,0.2918,0.7081,0.0005,0.1379,0.7082,0.0003,0.1379,0.1042,0.0215,0.0152,0.0,0.9538,0.0,0.0887,-0.3522,0.03,0.108,-0.2347,0.5006,0.3413,-0.0061,0.0002,-0.0021,-0.0073,0.0156,0.0,-0.0003,3.0,3.0
0.05,0.7,-0.35,0.2703,0.707,0.0,0.1385,0.707,0.0,0.1385,0.7332,-0.2745,0.281,0.7081,0.0004,0.1378,0.7082,0.0003,0.1378,0.1049,0.0202,0.0144,0.0,0.9541,0.0,0.0826,-0.352,0.0278,0.1007,-0.2191,0.5006,0.341,-0.0061,0.0002,-0.0021,-0.0072,0.0156,0.0,-0.0003,3.0,3.0
0.05,0.7,-0.35,0.2598,0.707,0.0,0.1385,0.707,0.0,0.1385,0.7334,-0.274,0.2704,0.7081,0.0004,0.1378,0.7081,0.0002,0.1378,0.1057,0.019,0.0135,0.0,0.9544,0.0,0.0765,-0.3519,0.0257,0.0935,-0.2036,0.5006,0.3407,-0.006,0.0002,-0.0021,-0.0072,0.0154,0.0,-0.0003,3.0,3.0
0.05,0.7,-0.35,0.2496,0.707,0.0,0.1385,0.707,0.0,0.1385,0.7336,-0.2735,0.2599,0.7081,0.0003,0.1377,0.7081,0.0002,0.1377,0.1064,0.0178,0.0126,0.0,0.9547,0.0,0.0705,-0.3517,0.0236,0.0863,-0.1882,0.5006,0.3405,-0.0059,0.0002,-0.002,-0.007,0.0152,0.0,-0.0003,3.0,3.0
0.05,0.7,-0.35,0.2397,0.707,0.0,0.1385,0.707,0.0,0.1385,0.7338,-0.273,0.2497,0.708,0.0003,0.1377,0.7081,0.0002,0.1377,0.1071,0.0165,0.0117,0.0,0.955,0.0,0.0646,-0.3515,0.0216,0.0793,-0.173,0.5007,0.3402,-0.0058,0.0002,-0.002,-0.0069,0.0149,0.0,-0.0002,3.0,3.0
0.05,0.7,-0.35,0.23,0.707,0.0,0.1385,0.707,0.0,0.1385,0.734,-0.2726,0.2397,0.708,0.0002,0.1377,0.708,0.0001,0.1377,0.1078,0.0153,0.0109,0.0,0.9553,0.0,0.0589,-0.3514,0.0196,0.0724,-0.1581,0.5007,0.34,-0.0056,0.0002,-0.0019,-0.0067,0.0145,0.0,-0.0002,3.0,3.0
0.05,0.7,-0.35,0.2208,0.707,0.0,0.1385,0.707,0.0,0.1385,0.7342,-0.2721,0.2301,0.7079,0.0002,0.1376,0.708,0.0001,0.1376,0.1084,0.014,0.01,0.0,0.9556,0.0,0.0532,-0.3512,0.0177,0.0657,-0.1436,0.5007,0.3397,-0.0054,0.0002,-0.0019,-0.0064,0.014,0.0,-0.0002,3.0,3.0
0.05,0.7,-0.35,0.2119,0.707,0.0,0.1385,0.707,0.0,0.1385,0.7343,-0.2717,0.2209,0.7079,0.0002,0.1376,0.7079,0.0001,0.1376,0.109,0.0128,0.0092,0.0,0.9558,0.0,0.0478,-0.3511,0.0158,0.0593,-0.1296,0.5007,0.3395,-0.0052,0.0001,-0.0018,-0.0062,0.0135,0.0,-0.0002,3.0,3.0
0.05,0.7,-0.35,0.2035,0.707,0.0,0.1385,0.707,0.0,0.1385,0.7345,-0.2713,0.212,0.7079,0.0001,0.1376,0.7079,0.0001,0.1376,0.1096,0.0116,0.0084,0.0,0.9561,0.0,0.0426,-0.3509,0.014,0.0531,-0.1161,0.5007,0.3393,-0.005,0.0001,-0.0017,-0.0059,0.0129,0.0,-0.0002,3.0,3.0
0.05,0.7,-0.35,0.1956,0.707,0.0,0.1385,0.707,0.0,0.1385,0.7346,-0.2709,0.2036,0.7078,0.0001,0.1376,0.7078,0.0001,0.1376,0.1102,0.0105,0.0076,0.0,0.9563,0.0,0.0377,-0.3508,0.0123,0.0472,-0.1031,0.5008,0.3391,-0.0047,0.0001,-0.0016,-0.0056,0.0123,0.0,-0.0002,3.0,3.0
0.05,0.7,-0.35,0.1881,0.707,0.0,0.1385,0.707,0.0,0.1385,0.7348,-0.2706,0.1956,0.7078,0.0001,0.1377,0.7077,0.0001,0.1377,0.1107,0.0094,0.0068,0.0,0.9565,0.0,0.0329,-0.3506,0.0107,0.0416,-0.0908,0.5008,0.3389,-0.0044,0.0001,-0.0015,-0.0053,0.0116,0.0,-0.0002,3.0,3.0
0.05,0.7,-0.35,0.1811,0.707,0.0,0.1385,0.707,0.0,0.1385,0.7349,-0.2702,0.1882,0.7077,0.0001,0.1377,0.7077,0.0,0.1377,0.1111,0.0083,0.006,0.0,0.9567,0.0,0.0285,-0.3505,0.0092,0.0363,-0.0793,0.5008,0.3387,-0.0041,0.0001,-0.0014,-0.0049,0.0108,0.0,-0.0002,3.0,3.0
0.05,0.7,-0.35,0.1747,0.707,0.0,0.1385,0.707,0.0,0.1385,0.735,-0.2699,0.1812,0.7076,0.0001,0.1377,0.7076,0.0,0.1377,0.1116,0.0073,0.0053,0.0,0.9569,0.0,0.0244,-0.3504,0.0079,0.0314,-0.0684,0.5008,0.3385,-0.0038,0.0001,-0.0013,-0.0045,0.0101,0.0,-0.0002,3.0,3.0
0.05,0.7,-0.35,0.1688,0.707,0.0,0.1385,0.707,0.0,0.1385,0.7351,-0.2697,0.1748,0.7076,0.0,0.1377,0.7076,0.0,0.1377,0.1119,0.0064,0.0047,0.0,0.957,0.0,0.0205,-0.3503,0.0066,0.0269,-0.0583,0.5008,0.3384,-0.0035,0.0001,-0.0012,-0.0042,0.0093,0.0,-0.0001,3.0,3.0
0.05,0.7,-0.35,0.1635,0.707,0.0,0.1385,0.707,0.0,0.1385,0.7351,-0.2694,0.1689,0.7075,0.0,0.1378,0.7075,0.0,0.1378,0.1123,0.0055,0.004,0.0,0.9572,0.0,0.017,-0.3502,0.0054,0.0227,-0.0491,0.5008,0.3382,-0.0032,0.0001,-0.0011,-0.0038,0.0084,0.0,-0.0001,3.0,3.0
0.05,0.7,-0.35,0.1588,0.707,0.0,0.1385,0.707,0.0,0.1385,0.7352,-0.2692,0.1636,0.7075,0.0,0.1378,0.7075,0.0,0.1378,0.1126,0.0047,0.0035,0.0,0.9573,0.0,0.0138,-0.3501,0.0043,0.0189,-0.0407,0.5008,0.3381,-0.0029,0.0001,-0.0009,-0.0034,0.0076,0.0,-0.0001,3.0,3.0
0.05,0.7,-0.35,0.1546,0.707,0.0,0.1385,0.707,0.0,0.1385,0.7353,-0.269,0.1588,0.7074,0.0,0.1379,0.7074,0.0,0.1379,0.1129,0.0039,0.0029,0.0,0.9574,0.0,0.011,-0.35,0.0034,0.0156,-0.0331,0.5008,0.338,-0.0025,0.0001,-0.0008,-0.003,0.0067,0.0,-0.0001,3.0,3.0
0.05,0.7,-0.35,0.1509,0.707,0.0,0.1385,0.707,0.0,0.1385,0.7353,-0.2688,0.1546,0.7074,0.0,0.138,0.7074,0.0,0.138,0.1132,0.0032,0.0,0.0,0.9576,0.0,0.0085,-0.3499,0.0026,0.0126,-0.0264,0.5009,0.3378,-0.0022,0.0001,-0.0007,-0.0026,0.0054,0.0,-0.0001,3.0,3.0
0.05,0.7,-0.35,0.1478,0.707,0.0,0.1385,0.707,0.0,0.1385,0.7353,-0.2686,0.1509,0.7073,0.0,0.1378,0.7073,0.0,0.1378,0.1134,0.003,0.0,0.0,0.9576,0.0,0.0063,-0.3498,0.0019,0.01,-0.021,0.5009,0.3378,-0.0019,0.0001,-0.0006,-0.0022,0.0048,0.0,-0.0001,3.0,3.0
0.05,0.7,-0.35,0.1452,0.707,0.0,0.1385,0.707,0.0,0.1385,0.7354,-0.2685,0.1478,0.7073,0.0,0.1377,0.7073,0.0,0.1377,0.1136,0.0,0.0,0.0,0.9577,0.0,0.0044,-0.3498,0.0013,0.0078,-0.0162,0.5009,0.3377,-0.0016,-0.0,-0.0005,-0.0018,0.0033,0.0,0.0,3.0,3.0
0.05,0.7,-0.35,0.1431,0.707,0.0,0.1385,0.707,0.0,0.1385,0.7354,-0.2684,0.1452,0.7072,-0.0,0.1373,0.7072,0.0,0.1373,0.1137,0.003,0.0,0.0,0.9578,0.0,0.0029,-0.3498,0.0008,0.0059,-0.0129,0.5009,0.3377,-0.0013,0.0001,-0.0004,-0.0015,0.0039,0.0,-0.0001,3.0,3.0
0.05,0.7,-0.35,0.1415,0.707,0.0,0.1385,0.707,0.0,0.1385,0.7354,-0.2682,0.1431,0.7072,0.0,0.1376,0.7072,0.0,0.1376,0.1139,0.0,0.0,0.0,0.9579,0.0,0.0016,-0.3497,0.0004,0.0044,-0.009,0.5009,0.3376,-0.001,0.0,-0.0003,-0.0012,0.0021,-0.0,-0.0,3.0,3.0
0.05,0.7,-0.35,0.1403,0.707,0.0,0.1385,0.707,0.0,0.1385,0.7354,-0.2682,0.1415,0.7071,-0.0,0.1373,0.7071,0.0,0.1373,0.1139,0.0,0.0,0.0,0.9579,0.0,0.0006,-0.3497,0.0001,0.0033,-0.0069,0.5009,0.3376,-0.0007,-0.0,-0.0002,-0.0009,0.0016,0.0,0.0,3.0,3.0
0.05,0.7,-0.35,0.1394,0.707,0.0,0.1385,0.707,0.0,0.1385,0.7354,-0.2681,0.1403,0.7071,-0.0,0.1372,0.7071,0.0,0.1372,0.114,0.0,0.0,0.0,0.9579,0.0,-0.0001,-0.3497,-0.0001,0.0024,-0.0053,0.5009,0.3376,-0.0005,-0.0,-0.0001,-0.0006,0.0011,0.0,0.0,3.0,3.0
0.05,0.7,-0.35,0.1389,0.707,0.0,0.1385,0.707,0.0,0.1385,0.7353,-0.2681,0.1394,0.7071,-0.0001,0.137,0.7071,0.0001,0.137,0.114,0.0028,0.0,0.0,0.9579,0.0,-0.0006,-0.3497,-0.0003,0.0018,-0.0042,0.5009,0.3376,-0.0003,0.0001,-0.0001,-0.0004,0.0021,0.0,-0.0001,3.0,3.0
0.05,0.7,-0.35,0.1386,0.707,0.0,0.1385,0.707,0.0,0.1385,0.7354,-0.268,0.1389,0.7071,0.0,0.1377,0.707,0.0001,0.1377,0.1142,0.0,0.0,0.0,0.958,0.0,-0.001,-0.3496,-0.0004,0.0014,-0.0022,0.5009,0.3375,-0.0002,0.0,-0.0,-0.0002,0.0004,-0.0,-0.0,3.0,3.0
0.05,0.7,-0.35,0.1385,0.707,0.0,0.1385,0.707,0.0,0.1385,0.7353,-0.268,0.1386,0.707,0.0,0.1376,0.707,0.0001,0.1376,0.1142,0.0,0.0,0.0,0.958,0.0,-0.0011,-0.3496,-0.0004,0.0012,-0.0018,0.5009,0.3375,-0.0001,-0.0,-0.0,-0.0001,0.0001,0.0,0.0,3.0,3.0
0.05,0.7,-0.35,0.1385,0.707,0.0,0.1385,0.707,0.0,0.1385,0.7353,-0.268,0.1385,0.707,-0.0,0.1376,0.707,0.0001,0.1376,0.1142,0.0,0.0,0.0,0.958,0.0,-0.0012,-0.3496,-0.0004,0.0012,-0.0017,0.5009,0.3375,-0.0,0.0,0.0,-0.0,0.0,-0.0,-0.0,3.0,3.0
0.05,0.7,-0.35,0.1385,0.707,0.0,0.1385,0.707,0.0,0.1385,0.7353,-0.268,0.1385,0.707,-0.0,0.1376,0.707,0.0001,0.1376,0.1142,0.0,0.0,0.0,0.958,0.0,-0.0012,-0.3496,-0.0004,0.0012,-0.0016,0.5009,0.3375,-0.0,0.0,0.0,-0.0,0.0,-0.0,-0.0,3.0,3.0
0.05,0.7,-0.3499,0.1385,0.707,0.0,0.1385,0.707,0.0,0.1385,0.7353,-0.268,0.1385,0.707,-0.0,0.1376,0.707,0.0001,0.1376,0.114,0.0,0.0,0.0,0.958,0.0,-0.0012,-0.3496,-0.0004,0.0012,-0.0016,0.5009,0.3375,-0.0,0.0,0.0,-0.0,0.0,-0.0,-0.0,3.0,3.0
0.05,0.7,-0.3496,0.1385,0.707,0.0,0.1385,0.707,0.0,0.1385,0.7353,-0.268,0.1385,0.707,-0.0,0.1376,0.707,0.0001,0.1376,0.1137,0.0,0.0,0.0,0.9579,0.0,-0.0012,-0.3496,-0.0004,0.0012,-0.0016,0.5009,0.3375,-0.0,0.0,0.0,0.0,0.0,-0.0,-0.0,3.0,3.0
0.05,0.7,-0.3491,0.1385,0.707,0.0,0.1385,0.707,0.0,0.1385,0.7352,-0.2679,0.1385,0.707,-0.0,0.1376,0.707,0.0001,0.1376,0.1131,0.0,0.0,0.0,0.9578,0.0,-0.0012,-0.3496,-0.0004,0.0012,-0.0016,0.5009,0.3375,0.0,0.0,0.0,0.0,0.0,-0.0,-0.0,3.0,3.0
0.05,0.7,-0.3482,0.1385,0.707,0.0,0.1385,0.707,0.0,0.1385,0.7349,-0.2678,0.1385,0.707,0.0,0.1376,0.707,0.0001,0.1376,0.1122,0.0,0.0,0.0,0.9575,0.0,-0.0012,-0.3495,-0.0004,0.0012,-0.0016,0.5009,0.3375,0.0,0.0,0.0,0.0,0.0,-0.0,-0.0,3.0,3.0
0.05,0.7,-0.347,0.1385,0.707,0.0,0.1385,0.707,0.0,0.1385,0.7346,-0.2677,0.1385,0.707,0.0,0.1376,0.707,0.0001,0.1376,0.1108,0.0,0.0,0.0,0.9571,0.0,-0.0012,-0.3495,-0.0004,0.0012,-0.0016,0.5008,0.3374,0.0,0.0,0.0,0.0,0.0,-0.0,-0.0,3.0,3.0
0.05,0.7,-0.3454,0.1385,0.707,0.0,0.1385,0.707,0.0,0.1385,0.7341,-0.2675,0.1385,0.707,0.0,0.1376,0.707,0.0001,0.1376,0.109,0.0,0.0,0.0,0.9566,0.0,-0.0012,-0.3495,-0.0004,0.0012,-0.0016,0.5008,0.3374,0.0,0.0001,0.0,0.0,0.0,-0.0001,-0.0001,3.0,3.0
0.05,0.7,-0.3433,0.1385,0.707,0.0,0.1385,0.707,0.0,0.1385,0.7334,-0.2672,0.1385,0.707,0.0,0.1376,0.707,0.0001,0.1376,0.1066,0.0,0.0,0.0,0.9558,0.0,-0.0012,-0.3494,-0.0004,0.0012,-0.0016,0.5007,0.3373,0.0,0.0001,0.0,0.0,0.0,-0.0001,-0.0001,3.0,3.0
0.05,0.7,-0.3407,0.1385,0.707,0.0,0.1385,0.707,0.0,0.1385,0.7326,-0.2668,0.1385,0.707,0.0,0.1376,0.707,0.0001,0.1376,0.1037,0.0,0.0,0.0,0.9549,0.0,-0.0012,-0.3493,-0.0004,0.0012,-0.0016,0.5006,0.3373,0.0,0.0001,0.0,0.0,0.0,-0.0001,-0.0001,3.0,3.0
0.05,0.7,-0.3376,0.1385,0.707,0.0,0.1385,0.707,0.0,0.1385,0.7315,-0.2663,0.1385,0.707,0.0,0.1376,0.707,0.0001,0.1376,0.1002,0.0,0.0,0.0,0.9536,0.0,-0.0012,-0.3492,-0.0004,0.0012,-0.0016,0.5005,0.3372,0.0,0.0001,0.0,0.0,0.0,-0.0001,-0.0001,3.0,3.0
0.05,0.7,-0.3339,0.1385,0.707,0.0,0.1385,0.707,0.0,0.1385,0.7303,-0.2658,0.1385,0.707,0.0,0.1376,0.707,0.0001,0.1376,0.0961,0.0,0.0,0.0,0.952,0.0,-0.0012,-0.3491,-0.0004,0.0012,-0.0016,0.5004,0.337,0.0,0.0002,0.0,0.0,0.0,-0.0002,-0.0002,3.0,3.0
0.05,0.7,-0.3297,0.1385,0.707,0.0,0.1385,0.707,0.0,0.1385,0.7289,-0.2651,0.1385,0.707,0.0001,0.1376,0.707,0.0001,0.1376,0.0914,0.0,0.0,0.0,0.95,0.0,-0.0012,-0.349,-0.0004,0.0012,-0.0016,0.5003,0.3369,0.0,0.0002,0.0,0.0,0.0,-0.0002,-0.0002,3.0,3.0
0.05,0.7,-0.325,0.1385,0.707,0.0,0.1385,0.707,0.0,0.1385,0.7272,-0.2644,0.1385,0.707,0.0001,0.1376,0.707,0.0002,0.1376,0.086,0.0,0.0,0.0,0.9475,0.0,-0.0012,-0.3488,-0.0004,0.0012,-0.0016,0.5001,0.3367,0.0,0.0002,0.0,0.0,0.0,-0.0002,-0.0002,3.0,3.0
0.05,0.7,-0.3196,0.1385,0.707,0.0,0.1385,0.707,0.0,0.1385,0.7254,-0.2635,0.1385,0.707,0.0001,0.1376,0.707,0.0002,0.1376,0.0799,0.0,0.0,0.0,0.9443,0.0,-0.0012,-0.3485,-0.0004,0.0012,-0.0016,0.4999,0.3365,0.0,0.0003,0.0,0.0,0.0,-0.0003,-0.0003,3.0,3.0
0.05,0.7,-0.3138,0.1385,0.707,0.0,0.1385,0.707,0.0,0.1385,0.7234,-0.2626,0.1385,0.707,0.0001,0.1376,0.707,0.0002,0.1376,0.0732,0.0,0.0,0.0,0.9404,0.0,-0.0012,-0.3483,-0.0004,0.0012,-0.0016,0.4996,0.3362,0.0,0.0003,0.0,0.0,0.0,-0.0003,-0.0003,3.0,3.0
0.05,0.7,-0.3073,0.1385,0.707,0.0,0.1385,0.707,0.0,0.1385,0.7212,-0.2615,0.1385,0.707,0.0001,0.1376,0.707,0.0003,0.1376,0.0659,0.0,0.0,0.0,0.9354,0.0,-0.0012,-0.3479,-0.0004,0.0012,-0.0016,0.4993,0.3359,0.0,0.0004,0.0,0.0,0.0,-0.0004,-0.0004,3.0,3.0
0.05,0.7,-0.3004,0.1385,0.707,0.0,0.1385,0.707,0.0,0.1385,0.7188,-0.2603,0.1385,0.707,0.0002,0.1376,0.707,0.0003,0.1376,0.0579,0.0,0.0,0.0,0.929,0.0,-0.0012,-0.3475,-0.0004,0.0012,-0.0016,0.4988,0.3355,0.0,0.0005,0.0,0.0,0.0,-0.0005,-0.0005,3.0,3.0
0.05,0.7,-0.2929,0.1385,0.707,0.0,0.1385,0.707,0.0,0.1385,0.7164,-0.259,0.1385,0.707,0.0002,0.1376,0.707,0.0004,0.1376,0.0494,0.0,0.0,0.0,0.9205,0.0,-0.0012,-0.347,-0.0004,0.0012,-0.0016,0.4983,0.3349,0.0,0.0007,0.0,0.0,0.0,-0.0007,-0.0007,3.0,3.0
0.05,0.7,-0.285,0.1385,0.707,0.0,0.1385,0.707,0.0,0.1385,0.7138,-0.2575,0.1385,0.707,0.0003,0.1376,0.707,0.0005,0.1376,0.0403,0.0,0.0,0.0,0.9091,0.0,-0.0012,-0.3463,-0.0004,0.0012,-0.0016,0.4977,0.3343,0.0,0.0009,0.0,0.0,0.0,-0.0009,-0.0009,3.0,3.0
0.05,0.7,-0.2765,0.1385,0.707,0.0,0.1385,0.707,0.0,0.1385,0.7111,-0.2559,0.1385,0.707,0.0004,0.1376,0.707,0.0006,0.1376,0.0308,0.0,0.0,0.0,0.8933,0.0,-0.0012,-0.3455,-0.0004,0.0012,-0.0016,0.4968,0.3334,0.0,0.0011,0.0,0.0,0.0,-0.0011,-0.0011,3.0,3.0
0.05,0.7,-0.2677,0.1385,0.707,0.0,0.1385,0.707,0.0,0.1385,0.7085,-0.254,0.1385,0.7071,0.0005,0.1376,0.707,0.0008,0.1376,0.021,0.0,0.0,0.0,0.8704,0.0,-0.0012,-0.3443,-0.0004,0.0012,-0.0016,0.4957,0.3323,0.0,0.0016,0.0,0.0,0.0,-0.0016,-0.0016,3.0,3.0
0.05,0.7,-0.2584,0.1385,0.707,0.0,0.1385,0.707,0.0,0.1385,0.7059,-0.2518,0.1385,0.7071,0.0006,0.1376,0.707,0.001,0.1376,0.011,0.0,0.0,0.0,0.8355,0.0,-0.0012,-0.3427,-0.0004,0.0012,-0.0016,0.4941,0.3307,0.0,0.0023,0.0,0.0,0.0,-0.0023,-0.0023,3.0,3.0
0.05,0.7,-0.2488,0.1385,0.707,0.0,0.1385,0.707,0.0,0.1385,0.7034,-0.2491,0.1385,0.7071,0.0008,0.1376,0.707,0.0013,0.1376,0.0,0.0,0.0,0.0,0.7791,0.0,-0.0012,-0.3404,-0.0004,0.0012,-0.0016,0.4918,0.3284,0.0,0.0038,0.0,0.0,0.0,-0.0038,-0.0038,3.0,3.0
0.05,0.7,-0.2389,0.1385,0.707,0.0,0.1385,0.707,0.0,0.1385,0.7012,-0.2453,0.1385,0.7072,0.0011,0.1376,0.707,0.0018,0.1376,0.0076,0.0,0.0036,0.0,0.6738,0.0,-0.0012,-0.3366,-0.0004,0.0012,-0.0016,0.4879,0.3245,0.0,0.0058,0.0,0.0,0.0008,-0.0058,-0.009,3.0,3.0
0.05,0.7,-0.2287,0.1385,0.707,0.0,0.1385,0.707,0.0,0.1385,0.6996,-0.2402,0.1385,0.7074,0.0017,0.1381,0.7069,0.0008,0.1381,0.015,0.0,0.0,0.0,0.4987,0.0,-0.0012,-0.3308,-0.0004,0.0012,-0.0008,0.4821,0.3156,0.0,0.0099,0.0,0.0,0.0,-0.0099,-0.0099,3.0,3.0
0.05,0.7,-0.2182,0.1385,0.707,0.0,0.1385,0.707,0.0,0.1385,0.6988,-0.2322,0.1385,0.7077,0.0026,0.1381,0.7069,0.0021,0.1381,0.0186,0.0041,0.0038,0.0,0.2109,0.0,-0.0012,-0.3209,-0.0004,0.0012,-0.0008,0.4722,0.3056,0.0,0.0148,0.0,0.0,0.0008,-0.0189,-0.0186,3.0,3.0
0.05,0.7,-0.2076,0.1385,0.707,0.0,0.1385,0.707,0.0,0.1385,0.6992,-0.2209,0.1385,0.7083,0.0015,0.1385,0.7068,0.002,0.1385,0.0177,0.0,0.0035,0.0,0.0,0.0,-0.0012,-0.3061,-0.0004,0.0012,0.0,0.4534,0.2871,0.0,0.0177,0.0,0.0,-0.0,-0.0177,-0.0212,3.0,3.0
0.05,0.7,-0.1968,0.1385,0.707,0.0,0.1385,0.707,0.0,0.1385,0.7,-0.2076,0.1385,0.7084,0.0031,0.1385,0.7068,0.0024,0.1385,0.0142,0.0048,0.0042,0.0,0.0,0.0,-0.0012,-0.2884,-0.0003,0.0012,0.0,0.4357,0.2659,0.0,0.0142,0.0,0.0,-0.0,-0.019,-0.0184,3.0,3.0
0.05,0.7,-0.1859,0.1385,0.707,0.0,0.1385,0.707,0.0,0.1385,0.7,-0.1968,0.1385,0.7082,0.0015,0.1385,0.7068,0.0019,0.1385,0.0145,0.0,0.0033,0.0,0.0,0.0,-0.0012,-0.2741,-0.0003,0.0012,-0.0,0.4167,0.2475,0.0,0.0145,0.0,0.0,0.0,-0.0145,-0.0178,3.0,3.0
0.05,0.7,-0.175,0.1385,0.707,0.0,0.1385,0.707,0.0,0.1385,0.7,-0.1859,0.1385,0.708,0.0028,0.1385,0.7067,0.0019,0.1385,0.0146,0.0044,0.0034,0.0,0.0,0.0,-0.0012,-0.2597,-0.0003,0.0012,0.0,0.4022,0.2297,0.0,0.0146,0.0,0.0,-0.0,-0.019,-0.018,3.0,3.0
0.05,0.7,-0.1641,0.1385,0.707,0.0,0.1385,0.707,0.0,0.1385,0.7,-0.175,0.1385,0.7082,0.0016,0.1385,0.7067,0.002,0.1385,0.0148,0.0,0.0034,0.0,0.0,0.0,-0.0012,-0.245,-0.0003,0.0012,-0.0,0.3832,0.2117,0.0,0.0148,0.0,0.0,0.0,-0.0148,-0.0182,3.0,3.0
0.05,0.7,-0.1532,0.1385,0.707,0.0,0.1385,0.707,0.0,0.1385,0.7,-0.1641,0.1385,0.708,0.003,0.1385,0.7067,0.002,0.1385,0.0148,0.0047,0.0034,0.0,0.0,0.0,-0.0012,-0.2303,-0.0003,0.0012,0.0,0.3684,0.1935,0.0,0.0148,0.0,0.0,-0.0,-0.0195,-0.0182,3.0,3.0
0.05,0.7,-0.1424,0.1385,0.707,0.0,0.1385,0.707,0.0,0.1385,0.7,-0.1532,0.1385,0.7082,0.0016,0.1385,0.7066,0.002,0.1385,0.0148,0.0,0.0034,0.0,0.0,0.0,-0.0012,-0.2155,-0.0003,0.0012,0.0,0.3489,0.1753,0.0,0.0148,0.0,0.0,0.0,-0.0148,-0.0182,3.0,3.0
0.05,0.7,-0.1318,0.1385,0.707,0.0,0.1385,0.707,0.0,0.1385,0.7,-0.1424,0.1385,0.708,0.0031,0.1385,0.7066,0.002,0.1385,0.0146,0.0049,0.0034,0.0,0.0,0.0,-0.0012,-0.2007,-0.0002,0.0012,0.0,0.3342,0.1571,0.0,0.0146,0.0,0.0,-0.0,-0.0195,-0.018,3.0,3.0
0.05,0.7,-0.1213,0.1385,0.707,0.0,0.1385,0.707,0.0,0.1385,0.7,-0.1318,0.1385,0.7081,0.0016,0.1385,0.7066,0.0019,0.1385,0.0145,0.0,0.0033,0.0,0.0,0.0,-0.0012,-0.1861,-0.0002,0.0012,0.0,0.3146,0.1391,0.0,0.0145,0.0,0.0,0.0,-0.0145,-0.0178,3.0,3.0
0.05,0.7,-0.1111,0.1385,0.707,0.0,0.1385,0.707,0.0,0.1385,0.7,-0.1213,0.1385,0.7079,0.0031,0.1385,0.7066,0.0019,0.1385,0.0142,0.005,0.0033,0.0,0.0,0.0,-0.0012,-0.1716,-0.0002,0.0012,0.0,0.3002,0.1213,0.0,0.0142,0.0,0.0,-0.0,-0.0192,-0.0175,3.0,3.0
0.05,0.7,-0.1012,0.1385,0.707,0.0,0.1385,0.707,0.0,0.1385,0.7,-0.1111,0.1385,0.708,0.0016,0.1385,0.7065,0.0019,0.1385,0.0139,0.0,0.0032,0.0,0.0,0.0,-0.0012,-0.1574,-0.0002,0.0012,0.0,0.281,0.1038,0.0,0.0139,0.0,0.0,0.0,-0.0139,-0.0171,3.0,3.0
0.05,0.7,-0.0916,0.1385,0.707,0.0,0.1385,0.707,0.0,0.1385,0.7,-0.1012,0.1385,0.7078,0.0031,0.1385,0.7065,0.0018,0.1385,0.0135,0.005,0.0031,0.0,0.0,0.0,-0.0012,-0.1436,-0.0002,0.0012,0.0,0.2671,0.0867,0.0,0.0135,0.0,0.0,0.0,-0.0185,-0.0166,3.0,3.0
0.05,0.7,-0.0823,0.1385,0.707,0.0,0.1385,0.707,0.0,0.1385,0.7,-0.0916,0.1385,0.7079,0.0016,0.1385,0.7065,0.0018,0.1385,0.013,0.0,0.003,0.0,0.0,0.0,-0.0012,-0.1301,-0.0002,0.0012,0.0,0.2486,0.0701,0.0,0.013,0.0,0.0,0.0,-0.013,-0.016,3.0,3.0
0.05,0.7,-0.0735,0.1385,0.707,0.0,0.1385,0.707,0.0,0.1385,0.7,-0.0823,0.1385,0.7077,0.003,0.1385,0.7065,0.0017,0.1385,0.0125,0.0048,0.0029,0.0,0.0,0.0,-0.0012,-0.1171,-0.0001,0.0012,0.0,0.2356,0.0541,0.0,0.0125,0.0,0.0,0.0,-0.0173,-0.0154,3.0,3.0
0.05,0.7,-0.065,0.1385,0.707,0.0,0.1385,0.707,0.0,0.1385,0.7,-0.0735,0.1385,0.7078,0.0015,0.1385,0.7065,0.0016,0.1385,0.0119,0.0,0.0,0.0,0.0,0.0,-0.0012,-0.1046,-0.0001,0.0012,0.0,0.2183,0.0387,0.0,0.0119,0.0,0.0,0.0,-0.0119,-0.0119,3.0,3.0
0.05,0.7,-0.0571,0.1385,0.707,0.0,0.1385,0.707,0.0,0.1385,0.7,-0.065,0.1385,0.7076,0.0028,0.1385,0.7066,0.0031,0.1385,0.0113,0.0046,0.0054,0.0,0.0,0.0,-0.0012,-0.0927,-0.0001,0.0012,0.0,0.2064,0.0268,0.0,0.0113,0.0,0.0,0.0,-0.0159,-0.0166,3.0,3.0
0.05,0.7,-0.0496,0.1385,0.707,0.0,0.1385,0.707,0.0,0.1385,0.7,-0.0571,0.1385,0.7077,0.0014,0.1385,0.7065,0.0015,0.1385,0.0106,0.0,0.0,0.0,0.0,0.0,-0.0012,-0.0814,-0.0001,0.0012,0.0,0.1905,0.0101,0.0,0.0106,0.0,0.0,0.0,-0.0106,-0.0106,3.0,3.0
0.05,0.7,-0.0427,0.1385,0.707,0.0,0.1385,0.707,0.0,0.1385,0.7,-0.0496,0.1385,0.7075,0.0025,0.1385,0.7066,0.0028,0.1385,0.0099,0.0042,0.0047,0.0,0.0,0.0,-0.0012,-0.0708,-0.0001,0.0012,0.0,0.1799,-0.0005,0.0,0.0099,0.0,0.0,0.0,-0.0141,-0.0146,3.0,3.0
0.05,0.7,-0.0362,0.1385,0.707,0.0,0.1385,0.707,0.0,0.1385,0.7,-0.0427,0.1385,0.7076,0.0012,0.1385,0.7066,0.0013,0.1385,0.0091,0.0,0.0,0.0,0.0,0.0,-0.0012,-0.0609,-0.0001,0.0012,0.0,0.1658,-0.0151,0.0,0.0091,0.0,0.0,0.0,-0.0091,-0.0091,3.0,3.0
0.05,0.7,-0.0304,0.1385,0.707,0.0,0.1385,0.707,0.0,0.1385,0.7,-0.0362,0.1385,0.7074,0.0022,0.1385,0.7067,0.0024,0.1385,0.0084,0.0037,0.0041,0.0,0.0,0.0,-0.0012,-0.0517,-0.0001,0.0012,0.0,0.1567,-0.0243,0.0,0.0084,0.0,0.0,0.0,-0.0121,-0.0125,3.0,3.0
0.05,0.7,-0.025,0.1385,0.707,0.0,0.1385,0.707,0.0,0.1385,0.7,-0.0304,0.1385,0.7075,0.001,0.1385,0.7066,0.0011,0.1385,0.0076,0.0,0.0,0.0,0.0,0.0,-0.0012,-0.0433,-0.0001,0.0012,0.0,0.1446,-0.0367,0.0,0.0076,0.0,0.0,0.0,-0.0076,-0.0076,3.0,3.0
0.05,0.7,-0.0203,0.1385,0.707,0.0,0.1385,0.707,0.0,0.1385,0.7,-0.025,0.1385,0.7073,0.0019,0.1385,0.7067,0.002,0.1385,0.0068,0.0032,0.0034,0.0,0.0,0.0,-0.0012,-0.0358,-0.0,0.0012,0.0,0.137,-0.0443,0.0,0.0068,0.0,0.0,0.0,-0.01,-0.0102,3.0,3.0
0.05,0.7,-0.0161,0.1385,0.707,0.0,0.1385,0.707,0.0,0.1385,0.7,-0.0203,0.1385,0.7074,0.0008,0.1385,0.7067,0.0009,0.1385,0.006,0.0,0.0,0.0,0.0,0.0,-0.0012,-0.029,-0.0,0.0012,0.0,0.127,-0.0545,0.0,0.006,0.0,0.0,0.0,-0.006,-0.006,3.0,3.0
0.05,0.7,-0.0124,0.1385,0.707,0.0,0.1385,0.707,0.0,0.1385,0.7,-0.0161,0.1385,0.7073,0.0015,0.1385,0.7068,0.0016,0.1385,0.0052,0.0,0.0,0.0,0.0,0.0,-0.0012,-0.023,-0.0,0.0012,0.0,0.121,-0.0605,0.0,0.0052,0.0,0.0,0.0,-0.0052,-0.0052,3.0,3.0
0.05,0.7,-0.0093,0.1385,0.707,0.0,0.1385,0.707,0.0,0.1385,0.7,-0.0124,0.1385,0.7071,0.0021,0.1385,0.7069,0.0022,0.1385,0.0044,0.0036,0.0038,0.0,0.0,0.0,-0.0012,-0.0177,-0.0,0.0012,0.0,0.1158,-0.0657,0.0,0.0044,0.0,0.0,-0.0,-0.0081,-0.0082,3.0,3.0
0.05,0.7,-0.0067,0.1385,0.707,0.0,0.1385,0.707,0.0,0.1385,0.7,-0.0093,0.1385,0.7072,0.0006,0.1385,0.7068,0.0006,0.1385,0.0037,0.0,0.0,0.0,0.0,0.0,-0.0012,-0.0133,-0.0,0.0012,-0.0,0.1078,-0.0739,0.0,0.0037,0.0,0.0,0.0,-0.0037,-0.0037,3.0,3.0
0.05,0.7,-0.0046,0.1385,0.707,0.0,0.1385,0.707,0.0,0.1385,0.7,-0.0067,0.1385,0.7072,0.001,0.1385,0.7069,0.001,0.1385,0.003,0.0,0.0,0.0,0.0,0.0,-0.0012,-0.0096,-0.0,0.0012,0.0,0.1041,-0.0776,0.0,0.003,0.0,0.0,0.0,-0.003,-0.003,3.0,3.0
0.05,0.7,-0.003,0.1385,0.707,0.0,0.1385,0.707,0.0,0.1385,0.7,-0.0046,0.1385,0.7071,0.0013,0.1385,0.7069,0.0014,0.1385,0.0,0.0,0.0,0.0,0.0,0.0,-0.0012,-0.0066,-0.0,0.0012,0.0,0.1011,-0.0806,0.0,0.0,0.0,0.0,0.0,0.0,0.0,3.0,3.0
0.05,0.7,-0.0018,0.1385,0.707,0.0,0.1385,0.707,0.0,0.1385,0.7,-0.0046,0.1385,0.7069,0.0013,0.1385,0.7071,0.0013,0.1385,0.0041,0.0,0.0,0.0,0.0,0.0,-0.0012,-0.0066,-0.0,0.0012,0.0,0.1011,-0.0806,0.0,0.0041,0.0,0.0,0.0,-0.0041,-0.0041,3.0,3.0
0.05,0.7,-0.0009,0.1385,0.707,0.0,0.1385,0.707,0.0,0.1385,0.7,-0.0018,0.1385,0.7071,0.0018,0.1385,0.7069,0.0018,0.1385,0.0,0.0031,0.0031,0.0,0.0,0.0,-0.0012,-0.0025,-0.0,0.0012,0.0,0.097,-0.0846,0.0,0.0,0.0,0.0,-0.0,-0.0031,-0.0031,3.0,3.0
0.05,0.7,-0.0004,0.1385,0.707,0.0,0.1385,0.707,0.0,0.1385,0.7,-0.0018,0.1385,0.707,0.0,0.1385,0.707,0.0,0.1385,0.0,0.0,0.0,0.0,0.0,0.0,-0.0012,-0.0025,-0.0,0.0012,0.0,0.0939,-0.0878,0.0,0.0,0.0,0.0,0.0,0.0,0.0,3.0,3.0
0.05,0.7,-0.0001,0.1385,0.707,0.0,0.1385,0.707,0.0,0.1385,0.7,-0.0018,0.1385,0.707,0.0,0.1385,0.707,-0.0,0.1385,0.0,0.0,0.0,0.0,0.0,0.0,-0.0012,-0.0025,-0.0,0.0012,0.0,0.0939,-0.0878,0.0,0.0,0.0,0.0,0.0,0.0,0.0,3.0,3.0
0.05,0.7,-0.0,0.1385,0.707,0.0,0.1385,0.707,0.0,0.1385,0.7,-0.0018,0.1385,0.707,0.0,0.1385,0.707,-0.0,0.1385,0.0,0.0,0.0,0.0,0.0,0.0,-0.0012,-0.0025,-0.0,0.0012,0.0,0.0939,-0.0878,0.0,0.0,0.0,0.0,0.0,0.0,0.0,3.0,3.0
0.05,0.7,0.0,0.1385,0.707,0.0,0.1385,0.707,0.0,0.1385,0.7,-0.0018,0.1385,0.707,0.0,0.1385,0.707,-0.0,0.1385,0.0,0.0,0.0,0.0,0.0,0.0,-0.0012,-0.0025,-0.0,0.0012,0.0,0.0939,-0.0878,0.0,0.0,0.0,0.0,0.0,0.0,0.0,3.0,3.0
