stevenjj/dreamer_head_plots/data/fixed_point_no_intermediate_task.csv
dt,head_des_x,head_des_y,head_des_z,reye_des_x,reye_des_y,reye_des_z,leye_des_x,leye_des_y,leye_des_z,head_cur_x,head_cur_y,head_cur_z,reye_cur_x,reye_cur_y,reye_cur_z,leye_cur_x,leye_cur_y,leye_cur_z,head_ori_error,reye_orientation_error,leye_orientation_error,h1,h2,h3,q0,q1,q2,q3,q4,q5,q6,dq0,dq1,dq2,dq3,dq4,dq5,dq6,rank_t1,rank_t2
0.05,0.7,0.0,0.1385,0.5,0.0,0.1385,0.5,0.0,0.1385,0.7,0.0,0.1385,0.5001,-0.0006,0.1385,0.5001,0.0006,0.1385,0.0,0.0,0.0,0.0,0.0,0.0,0.0,0.0,0.0,-0.0,0.0,0.1387,-0.1387,0.0,0.0,0.0,0.0,0.0,0.0,0.0,3.0,3.0
0.05,0.7,0.0001,0.1385,0.5,0.0,0.1385,0.5,0.0,0.1385,0.7,0.0,0.1385,0.5001,-0.0006,0.1385,0.5001,0.0006,0.1385,0.0,0.0,0.0,0.0,0.0,0.0,0.0,0.0,0.0,-0.0,0.0,0.1387,-0.1387,0.0,0.0,0.0,0.0,0.0,0.0,0.0,3.0,3.0
0.05,0.7,0.0002,0.1385,0.5,0.0,0.1385,0.5,0.0,0.1385,0.7,0.0,0.1385,0.5001,-0.0006,0.1385,0.5001,0.0006,0.1385,0.0,0.0,0.0,0.0,0.0,0.0,0.0,0.0,0.0,-0.0,0.0,0.1387,-0.1387,0.0,0.0,0.0,0.0,0.0,0.0,0.0,3.0,3.0
0.05,0.7,0.0005,0.1385,0.5,0.0,0.1385,0.5,0.0,0.1385,0.7,0.0,0.1385,0.5001,-0.0006,0.1385,0.5001,0.0006,0.1385,0.0,0.0,0.0,0.0,0.0,0.0,0.0,0.0,0.0,-0.0,0.0,0.1387,-0.1387,0.0,0.0,0.0,0.0,0.0,0.0,0.0,3.0,3.0
0.05,0.7,0.0009,0.1385,0.5,0.0,0.1385,0.5,0.0,0.1385,0.7,0.0,0.1385,0.5001,-0.0006,0.1385,0.5001,0.0006,0.1385,0.0,0.0,0.0,0.0,0.0,0.0,0.0,0.0,0.0,-0.0,0.0,0.1387,-0.1387,0.0,0.0,0.0,0.0,0.0,0.0,0.0,3.0,3.0
0.05,0.7,0.0015,0.1385,0.5,0.0,0.1385,0.5,0.0,0.1385,0.7,0.0,0.1385,0.5001,-0.0006,0.1385,0.5001,0.0006,0.1385,0.0,0.0,0.0,0.0,0.0,0.0,0.0,0.0,0.0,-0.0,0.0,0.1387,-0.1387,0.0,0.0,0.0,0.0,0.0,0.0,0.0,3.0,3.0
0.05,0.7,0.0023,0.1385,0.5001,0.0,0.1385,0.5001,0.0,0.1385,0.7,0.0,0.1385,0.5001,-0.0006,0.1385,0.5001,0.0006,0.1385,0.0033,0.0,0.0,0.0,0.0,0.0,0.0,0.0,0.0,-0.0,0.0,0.1387,-0.1387,-0.0,0.0033,0.0,-0.0,0.0,-0.0033,-0.0033,3.0,3.0
0.05,0.7,0.0034,0.1385,0.5001,0.0,0.1385,0.5001,0.0,0.1385,0.7,0.0023,0.1385,0.5003,-0.0002,0.1385,0.5,0.0011,0.1385,0.0,0.0,0.0,0.0,0.0,0.0,0.0,0.0033,0.0,-0.0,0.0,0.1354,-0.142,0.0,0.0,0.0,0.0,0.0,0.0,0.0,3.0,3.0
0.05,0.7,0.0048,0.1385,0.5001,0.0,0.1385,0.5001,0.0,0.1385,0.7,0.0023,0.1385,0.5001,-0.0002,0.1385,0.5002,0.001,0.1385,0.0035,0.0,0.0,0.0,0.0,0.0,0.0,0.0033,0.0,-0.0,0.0,0.1354,-0.142,-0.0,0.0035,-0.0,-0.0,0.0,-0.0035,-0.0035,3.0,3.0
0.05,0.7,0.0064,0.1385,0.5002,0.0,0.1385,0.5002,0.0,0.1385,0.7,0.0048,0.1385,0.5003,0.0002,0.1385,0.5001,0.0014,0.1385,0.0,0.0,0.0038,0.0,0.0,0.0,0.0,0.0068,-0.0,-0.0,0.0,0.1319,-0.1455,-0.0,0.0,-0.0,-0.0,0.0,-0.0,-0.0038,3.0,3.0
0.05,0.7,0.0084,0.1385,0.5002,0.0,0.1385,0.5002,0.0,0.1385,0.7,0.0048,0.1385,0.5002,0.0002,0.1385,0.5002,0.0,0.1385,0.0051,0.0,0.0,0.0,0.0,0.0,0.0,0.0068,-0.0,-0.0,0.0,0.1319,-0.1493,0.0,0.0051,-0.0,-0.0,0.0,-0.0051,-0.0051,3.0,3.0
0.05,0.7,0.0106,0.1385,0.5003,0.0,0.1385,0.5003,0.0,0.1385,0.7,0.0084,0.1385,0.5005,0.0008,0.1385,0.5,0.0006,0.1385,0.0032,0.0,0.0,0.0,0.0,0.0,0.0,0.012,-0.0,-0.0,0.0,0.1267,-0.1544,-0.0,0.0032,0.0,0.0,-0.0,-0.0032,-0.0032,3.0,3.0
0.05,0.7,0.0133,0.1385,0.5004,0.0,0.1385,0.5004,0.0,0.1385,0.7,0.0106,0.1385,0.5003,0.0012,0.1385,0.5002,0.001,0.1385,0.0037,0.0031,0.0,0.0,0.0,0.0,0.0,0.0152,-0.0,-0.0,-0.0,0.1235,-0.1577,0.0,0.0037,-0.0,-0.0,0.0,-0.0068,-0.0037,3.0,3.0
0.05,0.7,0.0162,0.1385,0.5004,0.0,0.1385,0.5004,0.0,0.1385,0.7,0.0133,0.1385,0.5005,0.0005,0.1385,0.5003,0.0014,0.1385,0.0042,0.0,0.0036,0.0,0.0,0.0,0.0,0.0189,-0.0,-0.0,0.0,0.1167,-0.1614,0.0,0.0042,0.0,0.0,-0.0,-0.0042,-0.0078,3.0,3.0
0.05,0.7,0.0195,0.1385,0.5005,0.0,0.1385,0.5005,0.0,0.1385,0.7,0.0162,0.1385,0.5006,0.001,0.1385,0.5002,0.0005,0.1385,0.0047,0.0,0.0,0.0,0.0,0.0,0.0,0.0231,0.0,-0.0,-0.0,0.1125,-0.1692,0.0,0.0047,-0.0,-0.0,0.0,-0.0047,-0.0047,3.0,3.0
0.05,0.7,0.0232,0.1385,0.5006,0.0,0.1385,0.5006,0.0,0.1385,0.7,0.0195,0.1385,0.5006,0.0015,0.1385,0.5003,0.001,0.1385,0.0052,0.0041,0.0,0.0,0.0,0.0,0.0,0.0279,-0.0,-0.0,0.0,0.1077,-0.1739,0.0,0.0052,-0.0,-0.0,0.0,-0.0093,-0.0052,3.0,3.0
0.05,0.7,0.0272,0.1385,0.5007,0.0,0.1385,0.5007,0.0,0.1385,0.7,0.0232,0.1385,0.5009,0.0007,0.1385,0.5005,0.0016,0.1385,0.0057,0.0,0.0041,0.0,0.0,0.0,0.0,0.0331,-0.0,-0.0,0.0,0.0985,-0.1791,-0.0,0.0057,-0.0,-0.0,0.0,-0.0057,-0.0099,3.0,3.0
0.05,0.7,0.0316,0.1385,0.5008,0.0,0.1385,0.5008,0.0,0.1385,0.7,0.0272,0.1385,0.5009,0.0014,0.1385,0.5004,0.0007,0.1385,0.0062,0.0035,0.0,0.0,0.0,0.0,0.0,0.0388,-0.0,-0.0,0.0,0.0927,-0.189,-0.0,0.0062,0.0,0.0,0.0,-0.0098,-0.0062,3.0,3.0
0.05,0.7,0.0363,0.1385,0.5009,0.0,0.1385,0.5009,0.0,0.1385,0.7,0.0316,0.1385,0.5011,0.0008,0.1385,0.5005,0.0014,0.1385,0.0068,0.0,0.0034,0.0,0.0,0.0,0.0,0.0451,-0.0,-0.0,0.0,0.0829,-0.1952,0.0,0.0068,0.0,0.0,0.0,-0.0068,-0.0102,3.0,3.0
0.05,0.7,0.0414,0.1385,0.501,0.0,0.1385,0.501,0.0,0.1385,0.7,0.0363,0.1385,0.5011,0.0016,0.1385,0.5005,0.0008,0.1385,0.0073,0.0042,0.0,0.0,0.0,0.0,0.0,0.0518,-0.0,-0.0,0.0,0.0762,-0.2054,-0.0,0.0073,0.0,0.0,-0.0,-0.0115,-0.0073,3.0,3.0
0.05,0.7,0.0469,0.1385,0.5012,0.0,0.1385,0.5012,0.0,0.1385,0.7,0.0414,0.1385,0.5014,0.0009,0.1385,0.5007,0.0016,0.1385,0.0078,0.0,0.004,0.0,0.0,0.0,0.0,0.0591,0.0,-0.0,0.0,0.0647,-0.2127,0.0,0.0078,0.0,0.0,-0.0,-0.0078,-0.0117,3.0,3.0
0.05,0.7,0.0526,0.1385,0.5013,0.0,0.1385,0.5013,0.0,0.1385,0.7,0.0469,0.1385,0.5014,0.0019,0.1385,0.5007,0.0009,0.1385,0.0082,0.0049,0.0,0.0,0.0,0.0,0.0,0.0668,0.0,-0.0,-0.0,0.0569,-0.2244,0.0,0.0082,-0.0,-0.0,0.0,-0.0132,-0.0082,3.0,3.0
0.05,0.7,0.0588,0.1385,0.5014,0.0,0.1385,0.5014,0.0,0.1385,0.7,0.0526,0.1385,0.5017,0.0011,0.1385,0.5009,0.0018,0.1385,0.0087,0.0,0.0045,0.0,0.0,0.0,0.0,0.0751,-0.0,-0.0,0.0,0.0438,-0.2327,0.0,0.0087,-0.0,-0.0,0.0,-0.0087,-0.0132,3.0,3.0
0.05,0.7,0.0652,0.1385,0.5016,0.0,0.1385,0.5016,0.0,0.1385,0.7,0.0588,0.1385,0.5017,0.0021,0.1385,0.5009,0.001,0.1385,0.0092,0.0056,0.0,0.0,0.0,0.0,0.0,0.0838,-0.0,-0.0,0.0,0.0351,-0.2458,0.0,0.0092,-0.0,-0.0,0.0,-0.0148,-0.0092,3.0,3.0
0.05,0.7,0.072,0.1385,0.5017,0.0,0.1385,0.5017,0.0,0.1385,0.7,0.0652,0.1385,0.502,0.0012,0.1385,0.5012,0.002,0.1385,0.0096,0.0031,0.0049,0.0,0.0,0.0,0.0,0.0929,-0.0,-0.0,0.0,0.0203,-0.255,0.0,0.0096,0.0,0.0,0.0,-0.0126,-0.0145,3.0,3.0
0.05,0.7,0.0791,0.1385,0.5019,0.0,0.1385,0.5019,0.0,0.1385,0.7,0.072,0.1385,0.5021,0.0012,0.1385,0.5011,0.0011,0.1385,0.01,0.0032,0.0,0.0,0.0,0.0,0.0,0.1025,0.0,-0.0,0.0,0.0076,-0.2694,0.0,0.01,0.0,0.0,-0.0,-0.0132,-0.01,3.0,3.0
0.05,0.7,0.0864,0.1385,0.502,0.0,0.1385,0.502,0.0,0.1385,0.7,0.0791,0.1385,0.5023,0.0013,0.1385,0.5014,0.0022,0.1385,0.0104,0.0034,0.0052,0.0,0.0,0.0,0.0,0.1125,0.0,-0.0,0.0,-0.0056,-0.2794,-0.0,0.0104,0.0,0.0,-0.0,-0.0138,-0.0156,3.0,3.0
0.05,0.7,0.0941,0.1385,0.5022,0.0,0.1385,0.5022,0.0,0.1385,0.7,0.0864,0.1385,0.5024,0.0014,0.1385,0.5013,0.0012,0.1385,0.0107,0.0035,0.0,0.0,0.0,0.0,0.0,0.1229,0.0,-0.0,0.0,-0.0193,-0.295,0.0,0.0107,-0.0,-0.0,0.0,-0.0143,-0.0107,3.0,3.0
0.05,0.7,0.102,0.1385,0.5023,0.0,0.1385,0.5023,0.0,0.1385,0.7,0.0941,0.1385,0.5026,0.0014,0.1385,0.5016,0.0023,0.1385,0.0111,0.0037,0.0055,0.0,0.0,0.0,0.0,0.1336,0.0,-0.0,0.0,-0.0336,-0.3057,-0.0,0.0111,0.0,0.0,0.0,-0.0147,-0.0165,3.0,3.0
0.05,0.7,0.1101,0.1385,0.5025,0.0,0.1385,0.5025,0.0,0.1385,0.7,0.102,0.1385,0.5027,0.0015,0.1385,0.5016,0.0013,0.1385,0.0113,0.0038,0.0,0.0,0.0,0.0,0.0,0.1446,0.0,-0.0,0.0,-0.0483,-0.3222,-0.0,0.0113,-0.0,-0.0,0.0,-0.0152,-0.0113,3.0,3.0
0.05,0.7,0.1184,0.1385,0.5027,0.0,0.1385,0.5027,0.0,0.1385,0.7,0.1101,0.1385,0.5029,0.0015,0.1385,0.5019,0.0024,0.1385,0.0116,0.0039,0.0057,0.0,0.0,0.0,0.0,0.156,-0.0,-0.0,0.0,-0.0635,-0.3336,-0.0,0.0116,0.0,0.0,-0.0,-0.0156,-0.0173,3.0,3.0
0.05,0.7,0.127,0.1385,0.5028,0.0,0.1385,0.5028,0.0,0.1385,0.7,0.1184,0.1385,0.503,0.0015,0.1385,0.5018,0.0013,0.1385,0.0118,0.0041,0.0029,0.0,0.0,0.0,0.0,0.1676,-0.0,-0.0,0.0,-0.079,-0.3509,-0.0,0.0118,-0.0,-0.0,0.0,-0.0159,-0.0147,3.0,3.0
0.05,0.7,0.1357,0.1385,0.503,0.0,0.1385,0.503,0.0,0.1385,0.7,0.127,0.1385,0.5032,0.0016,0.1385,0.5019,0.0014,0.1385,0.012,0.0042,0.0029,0.0,0.0,0.0,0.0,0.1794,-0.0,-0.0,0.0,-0.0949,-0.3656,-0.0,0.012,-0.0,-0.0,0.0,-0.0162,-0.0149,3.0,3.0
0.05,0.7,0.1446,0.1385,0.5031,0.0,0.1385,0.5031,0.0,0.1385,0.7,0.1357,0.1385,0.5033,0.0016,0.1385,0.5021,0.0014,0.1385,0.0122,0.0042,0.0029,0.0,0.0,0.0,-0.0,0.1915,-0.0,-0.0,0.0,-0.1111,-0.3805,0.0,0.0122,-0.0,-0.0,0.0,-0.0165,-0.0151,3.0,3.0
0.05,0.7,0.1536,0.1385,0.5033,0.0,0.1385,0.5033,0.0,0.1385,0.7,0.1446,0.1385,0.5035,0.0016,0.1385,0.5022,0.0014,0.1385,0.0123,0.0043,0.0029,0.0,0.0,0.0,0.0,0.2037,-0.0,-0.0,0.0,-0.1276,-0.3955,-0.0,0.0123,0.0,0.0,0.0,-0.0167,-0.0152,3.0,3.0
0.05,0.7,0.1627,0.1385,0.5034,0.0,0.1385,0.5034,0.0,0.1385,0.7,0.1536,0.1385,0.5036,0.0016,0.1385,0.5023,0.0014,0.1385,0.0124,0.0044,0.0,0.0,0.0,0.0,0.0,0.216,-0.0,-0.0,0.0,-0.1443,-0.4107,0.0,0.0124,-0.0,-0.0,0.0,-0.0168,-0.0124,3.0,3.0
0.05,0.7,0.172,0.1385,0.5036,0.0,0.1385,0.5036,0.0,0.1385,0.7,0.1627,0.1385,0.5037,0.0017,0.1385,0.5026,0.0025,0.1385,0.0125,0.0044,0.0056,0.0,0.0,0.0,0.0,0.2284,-0.0,-0.0,0.0,-0.1611,-0.4232,-0.0,0.0125,0.0,0.0,-0.0,-0.0169,-0.0181,3.0,3.0
0.05,0.7,0.1813,0.1385,0.5037,0.0,0.1385,0.5037,0.0,0.1385,0.7,0.172,0.1385,0.5038,0.0017,0.1385,0.5025,0.0014,0.1385,0.0125,0.0045,0.0,0.0,0.0,0.0,0.0,0.2409,-0.0,-0.0,0.0,-0.178,-0.4412,-0.0,0.0125,-0.0,-0.0,0.0,-0.017,-0.0125,3.0,3.0
0.05,0.7,0.1906,0.1385,0.5038,0.0,0.1385,0.5038,0.0,0.1385,0.7,0.1813,0.1385,0.504,0.0017,0.1385,0.5029,0.0024,0.1385,0.0125,0.0045,0.0054,0.0,0.0,0.0,-0.0,0.2534,-0.0,-0.0,0.0,-0.195,-0.4537,0.0,0.0125,-0.0,-0.0,0.0,-0.017,-0.0179,3.0,3.0
0.05,0.7,0.2,0.1385,0.504,0.0,0.1385,0.504,0.0,0.1385,0.7,0.1906,0.1385,0.5041,0.0017,0.1385,0.5028,0.0013,0.1385,0.0124,0.0045,0.0,0.0,0.0,1.0,0.0,0.2659,-0.0,-0.0,0.0,-0.2119,-0.4717,0.0,0.0124,0.0,0.0,0.0,-0.0169,-0.0124,3.0,3.0
0.05,0.7,0.2094,0.1385,0.5041,0.0,0.1385,0.5041,0.0,0.1385,0.7,0.2,0.1385,0.5042,0.0017,0.1385,0.5031,0.0024,0.1385,0.0123,0.0045,0.0052,0.0,0.0,1.0,0.0,0.2783,-0.0,-0.0,0.0,-0.2289,-0.4841,0.0,0.0123,0.0,0.0,0.0,-0.0168,-0.0175,3.0,3.0
0.05,0.7,0.2187,0.1385,0.5042,0.0,0.1385,0.5042,0.0,0.1385,0.7,0.2094,0.1385,0.5043,0.0017,0.1385,0.503,0.0013,0.1385,0.0122,0.0045,0.0,0.0,0.0,1.0,0.0,0.2906,-0.0,-0.0,0.0,-0.2457,-0.5016,0.0,0.0122,0.0,0.0,0.0,-0.0167,-0.0122,3.0,3.0
0.05,0.7,0.228,0.1385,0.5043,0.0,0.1385,0.5043,0.0,0.1385,0.7,0.2187,0.1385,0.5044,0.0016,0.1385,0.5033,0.0023,0.1385,0.0121,0.0045,0.0049,0.0,0.0,1.0,0.0,0.3028,-0.0,-0.0,0.0,-0.2624,-0.5138,0.0,0.0121,0.0,0.0,0.0,-0.0165,-0.017,3.0,3.0
0.05,0.7,0.2373,0.1385,0.5044,0.0,0.1385,0.5044,0.0,0.1385,0.7,0.228,0.1385,0.5044,0.0016,0.1385,0.5032,0.0012,0.1385,0.0119,0.0044,0.0,0.0,0.0,1.0,0.0,0.3149,-0.0,-0.0,0.0,-0.2789,-0.5308,0.0,0.0119,0.0,0.0,0.0,-0.0163,-0.0119,3.0,3.0
0.05,0.7,0.2464,0.1385,0.5045,0.0,0.1385,0.5045,0.0,0.1385,0.7,0.2373,0.1385,0.5045,0.0016,0.1385,0.5035,0.0022,0.1385,0.0117,0.0044,0.0046,0.0,0.0,1.0,0.0,0.3268,-0.0,-0.0,0.0,-0.2952,-0.5427,0.0,0.0117,0.0,0.0,0.0,-0.016,-0.0163,3.0,3.0
0.05,0.7,0.2554,0.1385,0.5046,0.0,0.1385,0.5046,0.0,0.1385,0.7,0.2464,0.1385,0.5046,0.0016,0.1385,0.5034,0.0012,0.1385,0.0114,0.0043,0.0,0.0,0.0,1.0,0.0,0.3384,-0.0,-0.0,0.0,-0.3112,-0.559,0.0,0.0114,0.0,0.0,0.0,-0.0157,-0.0114,3.0,3.0
0.05,0.7,0.2643,0.1385,0.5046,0.0,0.1385,0.5046,0.0,0.1385,0.7,0.2554,0.1385,0.5047,0.0015,0.1385,0.5037,0.002,0.1385,0.0112,0.0042,0.0042,0.0,0.0,1.0,0.0,0.3499,-0.0,-0.0,0.0,-0.3269,-0.5704,0.0,0.0112,0.0,0.0,0.0,-0.0154,-0.0154,3.0,3.0
0.05,0.7,0.273,0.1385,0.5047,0.0,0.1385,0.5047,0.0,0.1385,0.7,0.2643,0.1385,0.5047,0.0015,0.1385,0.5039,0.0025,0.1385,0.0109,0.0041,0.0055,0.0,0.0,1.0,0.0,0.361,-0.0,-0.0,0.0,-0.3423,-0.5823,0.0,0.0109,0.0,0.0,0.0,-0.015,-0.0163,3.0,3.0
0.05,0.7,0.2816,0.1385,0.5048,0.0,0.1385,0.5048,0.0,0.1385,0.7,0.273,0.1385,0.5048,0.0015,0.1385,0.5052,0.0077,0.1385,0.0106,0.004,0.0182,0.0,0.0,1.0,0.0,0.3719,-0.0,-0.0,0.0,-0.3572,-0.5823,0.0,0.0106,0.0,0.0,0.0,-0.0146,-0.0288,3.0,3.0
0.05,0.7,0.2899,0.1385,0.5048,0.0,0.1385,0.5048,0.0,0.1385,0.7,0.2816,0.1385,0.5048,0.0014,0.1385,0.5063,0.0128,0.1385,0.0102,0.0039,0.0306,0.0,0.0,1.0,0.0,0.3824,-0.0,-0.0,0.0,-0.3718,-0.5823,0.0,0.0102,0.0,0.0,0.0,-0.0141,-0.0408,3.0,3.0
0.05,0.7,0.298,0.1385,0.5049,0.0,0.1385,0.5049,0.0,0.1385,0.7,0.2899,0.1385,0.5048,0.0014,0.1385,0.5074,0.0177,0.1385,0.0099,0.0038,0.0425,0.0,0.0,1.0,0.0,0.3927,-0.0,-0.0,0.0,-0.3859,-0.5823,0.0,0.0099,0.0,0.0,0.0,-0.0136,-0.0524,3.0,3.0
0.05,0.7,0.3059,0.1385,0.5049,0.0,0.1385,0.5049,0.0,0.1385,0.7,0.298,0.1385,0.5049,0.0013,0.1385,0.5084,0.0225,0.1385,0.0095,0.0036,0.054,0.0,0.0,1.0,0.0,0.4025,-0.0,-0.0,0.0,-0.3995,-0.5823,0.0,0.0095,0.0,0.0,0.0,-0.0131,-0.0635,3.0,3.0
0.05,0.7,0.3136,0.1385,0.5049,0.0,0.1385,0.5049,0.0,0.1385,0.7,0.3059,0.1385,0.5049,0.0013,0.1385,0.5093,0.0271,0.1385,0.0091,0.0035,0.065,0.0,0.0,1.0,0.0,0.412,-0.0,-0.0,0.0,-0.4127,-0.5823,0.0,0.0091,0.0,0.0,0.0,-0.0126,-0.0741,3.0,3.0
0.05,0.7,0.3209,0.1385,0.505,0.0,0.1385,0.505,0.0,0.1385,0.7,0.3136,0.1385,0.5049,0.0012,0.1385,0.5102,0.0316,0.1385,0.0087,0.0034,0.0755,0.0,0.0,1.0,0.0,0.4211,-0.0,-0.0,0.0,-0.4253,-0.5823,0.0,0.0087,0.0,0.0,0.0,-0.0121,-0.0843,3.0,3.0
0.05,0.7,0.328,0.1385,0.505,0.0,0.1385,0.505,0.0,0.1385,0.7,0.3209,0.1385,0.5049,0.0012,0.1385,0.511,0.0359,0.1385,0.0083,0.0032,0.0856,0.0,0.0,1.0,0.0,0.4299,-0.0,-0.0,0.0,-0.4374,-0.5823,0.0,0.0083,0.0,0.0,0.0,-0.0115,-0.0939,3.0,3.0
0.05,0.7,0.3348,0.1385,0.505,0.0,0.1385,0.505,0.0,0.1385,0.7,0.328,0.1385,0.5049,0.0011,0.1385,0.5117,0.04,0.1385,0.0079,0.0031,0.0952,0.0,0.0,1.0,0.0,0.4382,-0.0,-0.0,0.0,-0.4489,-0.5823,0.0,0.0079,0.0,0.0,0.0,-0.011,-0.1031,3.0,3.0
0.05,0.7,0.3412,0.1385,0.505,0.0,0.1385,0.505,0.0,0.1385,0.7,0.3348,0.1385,0.5049,0.0011,0.1385,0.5124,0.0439,0.1385,0.0075,0.0029,0.1043,0.0,1.0,1.0,0.0,0.4461,-0.0,-0.0,0.0,-0.4598,-0.5823,0.0,-0.1101,0.0,0.0,0.0,0.1072,0.0058,2.0,3.0
0.05,0.7,0.3474,0.1385,0.505,0.0,0.1385,0.505,0.0,0.1385,0.7352,0.2568,0.1385,0.5048,-0.0149,0.1385,0.5156,-0.0105,0.1385,0.1246,0.0405,0.0185,0.0,0.0,1.0,0.0,0.336,-0.0,-0.0,0.0,-0.3527,-0.5765,0.0,0.1246,0.0,0.0,0.0,-0.0842,-0.1061,3.0,3.0
0.05,0.7,0.3531,0.1385,0.505,0.0,0.1385,0.505,0.0,0.1385,0.7,0.3474,0.1385,0.505,0.0169,0.1385,0.5,0.0527,0.1385,0.0066,0.0458,0.1209,0.0,0.0,1.0,0.0,0.4606,-0.0,-0.0,0.0,-0.4368,-0.5823,0.0,0.0066,0.0,0.0,0.0,-0.0524,-0.1275,3.0,3.0
0.05,0.7,0.3586,0.1385,0.505,0.0,0.1385,0.505,0.0,0.1385,0.7,0.3531,0.1385,0.5049,0.0009,0.1385,0.514,0.0544,0.1385,0.0062,0.0,0.1285,0.0,1.0,1.0,0.0,0.4672,-0.0,-0.0,0.0,-0.4892,-0.5823,0.0,-0.1343,0.0,0.0,0.0,0.1343,0.0058,2.0,3.0
0.05,0.7,0.3637,0.1385,0.505,0.0,0.1385,0.505,0.0,0.1385,0.7433,0.2571,0.1385,0.505,-0.0173,0.1385,0.5181,-0.0127,0.1385,0.1462,0.0469,0.0221,0.0,0.0,1.0,0.0,0.333,-0.0,-0.0,0.0,-0.3549,-0.5765,0.0,0.1462,0.0,0.0,0.0,-0.0993,-0.1241,3.0,3.0
0.05,0.7,0.3684,0.1385,0.505,0.0,0.1385,0.505,0.0,0.1385,0.7,0.3637,0.1385,0.5049,0.0198,0.1385,0.4986,0.0621,0.1385,0.0053,0.0537,0.142,0.0,0.0,1.0,0.0,0.4792,-0.0,-0.0,0.0,-0.4543,-0.5823,0.0,0.0053,0.0,0.0,0.0,-0.059,-0.1474,3.0,3.0
0.05,0.7,0.3728,0.1385,0.505,0.0,0.1385,0.505,0.0,0.1385,0.7,0.3684,0.1385,0.5049,0.0007,0.1385,0.5153,0.063,0.1385,0.0049,0.0,0.1481,0.0,1.0,1.0,0.0,0.4845,-0.0,-0.0,0.0,-0.5133,-0.5823,0.0,-0.1539,0.0,0.0,0.0,0.1539,0.0058,2.0,3.0
0.05,0.7,0.3768,0.1385,0.505,0.0,0.1385,0.505,0.0,0.1385,0.7501,0.2574,0.1385,0.5052,-0.0202,0.1385,0.5201,-0.0144,0.1385,0.1632,0.0546,0.0249,0.0,0.0,1.0,0.0,0.3306,-0.0,-0.0,0.0,-0.3594,-0.5765,0.0,0.1632,0.0,0.0,0.0,-0.1087,-0.1383,3.0,3.0
0.05,0.7,0.3805,0.1385,0.505,0.0,0.1385,0.505,0.0,0.1385,0.7,0.3768,0.1385,0.5047,0.0222,0.1385,0.4974,0.0694,0.1385,0.004,0.0599,0.1587,0.0,1.0,1.0,0.0,0.4938,-0.0,-0.0,0.0,-0.4681,-0.5823,0.0,-0.1645,0.0,0.0,0.0,0.1046,0.0058,2.0,3.0
0.05,0.7,0.3838,0.1385,0.505,0.0,0.1385,0.505,0.0,0.1385,0.7539,0.2577,0.1385,0.5052,-0.0223,0.1385,0.5212,-0.0154,0.1385,0.1722,0.0604,0.0264,0.0,0.0,1.0,0.0,0.3294,-0.0,-0.0,0.0,-0.3635,-0.5765,0.0,0.1722,0.0,0.0,0.0,-0.1118,-0.1458,3.0,3.0
0.05,0.7,0.3867,0.1385,0.505,0.0,0.1385,0.505,0.0,0.1385,0.7,0.3838,0.1385,0.5047,0.0234,0.1385,0.4967,0.0732,0.1385,0.0032,0.0632,0.1673,0.0,1.0,1.0,0.0,0.5015,-0.0,-0.0,0.0,-0.4753,-0.5823,0.0,-0.1732,0.0,0.0,0.0,0.11,0.0058,2.0,3.0
0.05,0.7,0.3894,0.1385,0.505,0.0,0.1385,0.505,0.0,0.1385,0.757,0.2579,0.1385,0.5053,-0.0235,0.1385,0.5221,-0.0161,0.1385,0.1792,0.0635,0.0276,0.0,0.0,1.0,0.0,0.3284,-0.0,-0.0,0.0,-0.3653,-0.5765,0.0,0.1792,0.0,0.0,0.0,-0.1157,-0.1517,3.0,3.0
0.05,0.7,0.3916,0.1385,0.505,0.0,0.1385,0.505,0.0,0.1385,0.7,0.3894,0.1385,0.5046,0.0243,0.1385,0.4961,0.0762,0.1385,0.0,0.0657,0.1742,0.0,1.0,1.0,0.0,0.5076,-0.0,-0.0,0.0,-0.481,-0.5823,0.0,-0.18,0.0,0.0,0.0,0.1143,0.0058,2.0,3.0
0.05,0.7,0.3936,0.1385,0.505,0.0,0.1385,0.505,0.0,0.1385,0.7594,0.2581,0.1385,0.5054,-0.0244,0.1385,0.5228,-0.0167,0.1385,0.1846,0.066,0.0285,0.0,0.0,1.0,0.0,0.3276,-0.0,-0.0,0.0,-0.3667,-0.5765,0.0,0.1846,0.0,0.0,0.0,-0.1186,-0.1561,3.0,3.0
0.05,0.7,0.3952,0.1385,0.505,0.0,0.1385,0.505,0.0,0.1385,0.7,0.3936,0.1385,0.5045,0.025,0.1385,0.4957,0.0785,0.1385,0.0,0.0677,0.1794,0.0,1.0,1.0,0.0,0.5122,-0.0,-0.0,0.0,-0.4853,-0.5823,0.0,-0.1852,0.0,0.0,0.0,0.1175,0.0058,2.0,3.0
0.05,0.7,0.3966,0.1385,0.505,0.0,0.1385,0.505,0.0,0.1385,0.7613,0.2582,0.1385,0.5055,-0.0251,0.1385,0.5234,-0.0171,0.1385,0.1884,0.0679,0.0292,0.0,0.0,1.0,0.0,0.327,-0.0,-0.0,0.0,-0.3678,-0.5765,0.0,0.1884,0.0,0.0,0.0,-0.1205,-0.1593,3.0,3.0
0.05,0.7,0.3977,0.1385,0.505,0.0,0.1385,0.505,0.0,0.1385,0.7,0.3966,0.1385,0.5045,0.0256,0.1385,0.4953,0.0801,0.1385,0.0,0.0691,0.183,0.0,1.0,1.0,0.0,0.5155,-0.0,-0.0,0.0,-0.4884,-0.5823,0.0,-0.1888,0.0,0.0,0.0,0.1198,0.0058,2.0,3.0
0.05,0.7,0.3985,0.1385,0.505,0.0,0.1385,0.505,0.0,0.1385,0.7625,0.2583,0.1385,0.5055,-0.0256,0.1385,0.5238,-0.0174,0.1385,0.1909,0.0692,0.0297,0.0,0.0,1.0,0.0,0.3266,-0.0,-0.0,0.0,-0.3686,-0.5765,0.0,0.1909,0.0,0.0,0.0,-0.1217,-0.1613,3.0,3.0
0.05,0.7,0.3991,0.1385,0.505,0.0,0.1385,0.505,0.0,0.1385,0.7,0.3985,0.1385,0.5044,0.0259,0.1385,0.4951,0.0812,0.1385,0.0,0.07,0.1853,0.0,1.0,1.0,0.0,0.5175,-0.0,-0.0,0.0,-0.4903,-0.5823,0.0,-0.1912,0.0,0.0,0.0,0.1212,0.0058,2.0,3.0
0.05,0.7,0.3995,0.1385,0.505,0.0,0.1385,0.505,0.0,0.1385,0.7633,0.2583,0.1385,0.5055,-0.0259,0.1385,0.524,-0.0176,0.1385,0.1923,0.0701,0.03,0.0,0.0,1.0,0.0,0.3264,-0.0,-0.0,0.0,-0.3691,-0.5765,0.0,0.1923,0.0,0.0,0.0,-0.1222,-0.1623,3.0,3.0
0.05,0.7,0.3998,0.1385,0.505,0.0,0.1385,0.505,0.0,0.1385,0.7,0.3995,0.1385,0.5044,0.0261,0.1385,0.495,0.0817,0.1385,0.0,0.0705,0.1866,0.0,1.0,1.0,0.0,0.5186,-0.0,-0.0,0.0,-0.4913,-0.5823,0.0,-0.1924,0.0,0.0,0.0,0.122,0.0058,2.0,3.0
0.05,0.7,0.3999,0.1385,0.505,0.0,0.1385,0.505,0.0,0.1385,0.7636,0.2583,0.1385,0.5056,-0.0261,0.1385,0.5241,-0.0177,0.1385,0.1928,0.0705,0.0301,0.0,0.0,1.0,0.0,0.3262,-0.0,-0.0,0.0,-0.3694,-0.5765,0.0,0.1928,0.0,0.0,0.0,-0.1223,-0.1627,3.0,3.0
0.05,0.7,0.4,0.1385,0.505,0.0,0.1385,0.505,0.0,0.1385,0.7,0.3999,0.1385,0.5044,0.0262,0.1385,0.495,0.0819,0.1385,0.0,0.0707,0.1871,0.0,1.0,1.0,0.0,0.5191,-0.0,-0.0,0.0,-0.4917,-0.5823,0.0,-0.1929,0.0,0.0,0.0,0.1222,0.0058,2.0,3.0
0.05,0.7,0.4,0.1385,0.505,0.0,0.1385,0.505,0.0,0.1385,0.7637,0.2583,0.1385,0.5056,-0.0262,0.1385,0.5242,-0.0178,0.1385,0.193,0.0707,0.0302,0.0,0.0,1.0,0.0,0.3262,-0.0,-0.0,0.0,-0.3695,-0.5765,0.0,0.193,0.0,0.0,0.0,-0.1223,-0.1628,3.0,3.0
0.05,0.7,0.4,0.1385,0.505,0.0,0.1385,0.505,0.0,0.1385,0.7,0.4,0.1385,0.5044,0.0262,0.1385,0.495,0.082,0.1385,0.0,0.0707,0.1871,0.0,1.0,1.0,0.0,0.5191,-0.0,-0.0,0.0,-0.4917,-0.5823,0.0,-0.193,0.0,0.0,0.0,0.1223,0.0058,2.0,3.0
0.05,0.7,0.4,0.1386,0.505,0.0,0.1385,0.505,0.0,0.1385,0.7637,0.2583,0.1385,0.5056,-0.0262,0.1385,0.5242,-0.0178,0.1385,0.193,0.0707,0.0302,0.0,0.0,1.0,0.0,0.3262,-0.0,-0.0,0.0,-0.3695,-0.5765,0.0,0.193,-0.0,0.0,-0.0001,-0.1223,-0.1628,3.0,3.0
0.05,0.7,0.4,0.1387,0.505,0.0,0.1385,0.505,0.0,0.1385,0.7,0.4,0.1385,0.5044,0.0262,0.1385,0.4949,0.082,0.1385,0.0,0.0707,0.1871,0.0,1.0,1.0,0.0,0.5191,-0.0,0.0,-0.0001,-0.4917,-0.5823,-0.0,-0.193,0.0,-0.0,-0.0,0.1223,0.0058,2.0,3.0
0.05,0.7,0.4,0.139,0.505,0.0,0.1385,0.505,0.0,0.1385,0.7637,0.2583,0.1385,0.5056,-0.0262,0.1385,0.5242,-0.0178,0.1385,0.193,0.0707,0.0302,0.0,0.0,1.0,0.0,0.3262,-0.0,0.0,-0.0001,-0.3695,-0.5765,0.0002,0.193,-0.0001,0.0003,-0.0005,-0.1223,-0.1628,3.0,3.0
0.05,0.7,0.4,0.1394,0.505,0.0,0.1385,0.505,0.0,0.1385,0.7,0.4,0.1389,0.5044,0.0262,0.1385,0.4949,0.082,0.1385,0.0,0.0707,0.1871,0.0,1.0,1.0,0.0003,0.5191,-0.0001,0.0003,-0.0006,-0.4917,-0.5823,-0.0,-0.1929,0.0,-0.0,-0.0002,0.1222,0.0058,2.0,3.0
0.05,0.7,0.4,0.14,0.505,0.0,0.1385,0.505,0.0,0.1385,0.7637,0.2584,0.1389,0.5056,-0.0262,0.1385,0.5242,-0.0178,0.1385,0.1929,0.0707,0.0302,0.0,0.0,1.0,0.0003,0.3262,-0.0001,0.0003,-0.0007,-0.3695,-0.5765,0.0006,0.1929,-0.0004,0.0008,-0.0013,-0.1222,-0.1627,3.0,3.0
0.05,0.7,0.4,0.1408,0.505,0.0,0.1385,0.505,0.0,0.1385,0.6999,0.4,0.1399,0.5043,0.0262,0.1386,0.4949,0.082,0.1386,0.0,0.0707,0.1871,0.0,1.0,1.0,0.0009,0.5191,-0.0004,0.0011,-0.002,-0.4917,-0.5823,-0.0,-0.1929,0.0002,-0.0001,-0.0004,0.1222,0.0058,2.0,3.0
0.05,0.7,0.4,0.1419,0.505,0.0,0.1385,0.505,0.0,0.1385,0.7637,0.2584,0.1399,0.5056,-0.0262,0.1385,0.5242,-0.0178,0.1385,0.1928,0.0707,0.0302,0.0,0.0,1.0,0.0008,0.3262,-0.0003,0.001,-0.0024,-0.3695,-0.5765,0.0012,0.1928,-0.0007,0.0014,-0.0024,-0.1222,-0.1627,3.0,3.0
0.05,0.7,0.4,0.1433,0.505,0.0,0.1385,0.505,0.0,0.1385,0.6998,0.4,0.1418,0.5043,0.0261,0.1388,0.4948,0.0819,0.1388,0.0,0.0706,0.1869,0.0,1.0,1.0,0.002,0.5191,-0.001,0.0024,-0.0048,-0.4917,-0.5823,-0.0001,-0.1927,0.0004,-0.0001,-0.0007,0.1221,0.0058,2.0,3.0
0.05,0.7,0.4,0.1449,0.505,0.0,0.1385,0.505,0.0,0.1385,0.7636,0.2585,0.1418,0.5056,-0.0261,0.1385,0.5242,-0.0178,0.1385,0.1927,0.0706,0.0301,0.0,0.0,1.0,0.0019,0.3263,-0.0007,0.0023,-0.0055,-0.3696,-0.5765,0.0018,0.1926,-0.0013,0.0022,-0.0037,-0.1221,-0.1625,3.0,3.0
0.05,0.7,0.4,0.1469,0.505,0.0,0.1385,0.505,0.0,0.1385,0.6997,0.4,0.1448,0.5042,0.0261,0.139,0.4947,0.0819,0.1389,0.0,0.0705,0.1867,0.0,1.0,1.0,0.0037,0.519,-0.0019,0.0045,-0.0093,-0.4917,-0.5823,-0.0002,-0.1925,0.0007,-0.0002,-0.0011,0.122,0.0058,2.0,3.0
0.05,0.7,0.4,0.1491,0.505,0.0,0.1385,0.505,0.0,0.1385,0.7636,0.2587,0.1447,0.5056,-0.0261,0.1385,0.5242,-0.0177,0.1384,0.1924,0.0704,0.0301,0.0,0.0,1.0,0.0036,0.3265,-0.0012,0.0043,-0.0104,-0.3697,-0.5765,0.0026,0.1923,-0.002,0.0032,-0.0053,-0.1219,-0.1623,3.0,3.0
0.05,0.7,0.4,0.1517,0.505,0.0,0.1385,0.505,0.0,0.1385,0.6996,0.4,0.1489,0.5041,0.0261,0.1392,0.4946,0.0818,0.1391,0.0035,0.0704,0.1863,0.0,1.0,1.0,0.0062,0.5188,-0.0032,0.0075,-0.0157,-0.4916,-0.5823,0.0013,-0.1921,0.0005,0.0018,-0.0051,0.1218,0.0058,2.0,3.0
0.05,0.7,0.4,0.1547,0.505,0.0,0.1385,0.505,0.0,0.1385,0.7633,0.259,0.1517,0.5054,-0.0261,0.139,0.5239,-0.0177,0.1389,0.1918,0.0703,0.0302,0.0,0.0,1.0,0.0075,0.3267,-0.0027,0.0093,-0.0208,-0.3698,-0.5765,0.002,0.1918,-0.0021,0.0023,-0.0048,-0.1216,-0.1617,3.0,3.0
0.05,0.7,0.4,0.158,0.505,0.0,0.1385,0.505,0.0,0.1385,0.6997,0.4,0.1545,0.5042,0.026,0.139,0.4948,0.0816,0.1389,0.0044,0.0701,0.1857,0.0,1.0,1.0,0.0094,0.5185,-0.0047,0.0116,-0.0256,-0.4914,-0.5823,0.0015,-0.1915,0.0009,0.0021,-0.0052,0.1215,0.0058,2.0,3.0
0.05,0.7,0.4,0.1617,0.505,0.0,0.1385,0.505,0.0,0.1385,0.7631,0.2593,0.158,0.5053,-0.026,0.1391,0.5238,-0.0177,0.139,0.1912,0.07,0.0302,0.0,0.0,1.0,0.011,0.327,-0.0039,0.0137,-0.0308,-0.3699,-0.5765,0.0025,0.1912,-0.0029,0.0029,-0.0061,-0.1213,-0.1612,3.0,3.0
0.05,0.7,0.4,0.1657,0.505,0.0,0.1385,0.505,0.0,0.1385,0.6997,0.4,0.1614,0.5041,0.0259,0.1392,0.4947,0.0814,0.139,0.0053,0.0698,0.185,0.0,1.0,1.0,0.0135,0.5182,-0.0067,0.0166,-0.0369,-0.4912,-0.5823,0.0018,-0.1908,0.0014,0.0025,-0.0062,0.1211,0.0058,2.0,3.0
0.05,0.7,0.4,0.1701,0.505,0.0,0.1385,0.505,0.0,0.1385,0.7628,0.2598,0.1656,0.5053,-0.0259,0.1393,0.5237,-0.0176,0.1391,0.1905,0.0696,0.0303,0.0,0.0,1.0,0.0152,0.3274,-0.0053,0.0191,-0.0431,-0.3701,-0.5765,0.0031,0.1904,-0.0038,0.0035,-0.0074,-0.1209,-0.1606,3.0,3.0
0.05,0.7,0.4,0.1748,0.505,0.0,0.1385,0.505,0.0,0.1385,0.6996,0.4,0.1697,0.504,0.0258,0.1394,0.4947,0.0811,0.1391,0.0063,0.0695,0.1843,0.0,1.0,1.0,0.0183,0.5178,-0.0092,0.0227,-0.0505,-0.491,-0.5823,0.002,-0.19,0.0021,0.0028,-0.0072,0.1207,0.0058,2.0,3.0
0.05,0.7,0.4,0.1799,0.505,0.0,0.1385,0.505,0.0,0.1385,0.7626,0.2603,0.1747,0.5053,-0.0258,0.1395,0.5236,-0.0175,0.1392,0.1897,0.0693,0.0306,0.0,0.0,1.0,0.0203,0.3278,-0.007,0.0255,-0.0577,-0.3703,-0.5765,0.0037,0.1895,-0.0049,0.0042,-0.0087,-0.1205,-0.1598,3.0,3.0
0.05,0.7,0.4,0.1853,0.505,0.0,0.1385,0.505,0.0,0.1385,0.6995,0.4,0.1794,0.5039,0.0256,0.1396,0.4947,0.0808,0.1393,0.0073,0.0692,0.1834,0.0,1.0,1.0,0.024,0.5173,-0.012,0.0297,-0.0664,-0.4908,-0.5823,0.0022,-0.189,0.003,0.0031,-0.0082,0.1202,0.0058,2.0,3.0
0.05,0.7,0.4,0.1911,0.505,0.0,0.1385,0.505,0.0,0.1385,0.7623,0.261,0.1851,0.5052,-0.0256,0.1396,0.5234,-0.0175,0.1393,0.1886,0.0688,0.031,0.0,0.0,1.0,0.0262,0.3283,-0.009,0.0329,-0.0746,-0.3706,-0.5765,0.0043,0.1884,-0.0062,0.0049,-0.01,-0.12,-0.1589,3.0,3.0
0.05,0.7,0.4,0.1973,0.505,0.0,0.1385,0.505,0.0,0.1385,0.6994,0.4,0.1905,0.5038,0.0254,0.1397,0.4946,0.0804,0.1394,0.0082,0.0689,0.1823,0.0,1.0,1.0,0.0305,0.5167,-0.0152,0.0378,-0.0846,-0.4905,-0.5823,0.0024,-0.1878,0.0039,0.0033,-0.009,0.1197,0.0058,2.0,3.0
0.05,0.7,0.4,0.2037,0.505,0.0,0.1385,0.505,0.0,0.1385,0.7619,0.2617,0.197,0.5052,-0.0255,0.1398,0.5233,-0.0174,0.1394,0.1874,0.0684,0.0316,0.0,0.0,1.0,0.0328,0.3289,-0.0113,0.0411,-0.0936,-0.3708,-0.5765,0.0049,0.1871,-0.0075,0.0056,-0.0113,-0.1194,-0.1579,3.0,3.0
0.05,0.7,0.4,0.2105,0.505,0.0,0.1385,0.505,0.0,0.1385,0.6994,0.4,0.203,0.5037,0.0252,0.1399,0.4946,0.08,0.1394,0.0091,0.0686,0.1812,0.0,1.0,1.0,0.0377,0.516,-0.0188,0.0468,-0.1049,-0.4902,-0.5823,0.0025,-0.1864,0.005,0.0035,-0.0098,0.1191,0.0058,2.0,3.0
0.05,0.7,0.4,0.2176,0.505,0.0,0.1385,0.505,0.0,0.1385,0.7615,0.2626,0.2101,0.5051,-0.0253,0.14,0.5231,-0.0173,0.1395,0.1861,0.0679,0.0324,0.0,0.0,1.0,0.0402,0.3296,-0.0137,0.0502,-0.1147,-0.3711,-0.5765,0.0055,0.1857,-0.009,0.0063,-0.0125,-0.1187,-0.1568,3.0,3.0
0.05,0.7,0.4,0.2249,0.505,0.0,0.1385,0.505,0.0,0.1385,0.6993,0.4,0.2167,0.5037,0.0249,0.1401,0.4946,0.0795,0.1395,0.01,0.0683,0.1799,0.0,1.0,1.0,0.0457,0.5153,-0.0227,0.0566,-0.1271,-0.4899,-0.5823,0.0025,-0.1849,0.0063,0.0036,-0.0103,0.1184,0.0058,2.0,3.0
0.05,0.7,0.4,0.2326,0.505,0.0,0.1385,0.505,0.0,0.1385,0.7611,0.2636,0.2245,0.5051,-0.0251,0.1402,0.5229,-0.0172,0.1396,0.1845,0.0674,0.0335,0.0,0.0,1.0,0.0482,0.3304,-0.0164,0.0601,-0.1375,-0.3715,-0.5765,0.0061,0.184,-0.0105,0.007,-0.0136,-0.118,-0.1556,3.0,3.0
0.05,0.7,0.4,0.2404,0.505,0.0,0.1385,0.505,0.0,0.1385,0.6993,0.4,0.2316,0.5036,0.0246,0.1403,0.4947,0.0789,0.1396,0.0107,0.0681,0.1785,0.0,1.0,1.0,0.0543,0.5144,-0.0269,0.0671,-0.1511,-0.4895,-0.5823,0.0025,-0.1832,0.0076,0.0035,-0.0108,0.1176,0.0058,2.0,3.0
0.05,0.7,0.4,0.2486,0.505,0.0,0.1385,0.505,0.0,0.1385,0.7607,0.2647,0.2399,0.505,-0.0249,0.1404,0.5226,-0.0171,0.1397,0.1829,0.0669,0.0349,0.0,0.0,1.0,0.0568,0.3312,-0.0193,0.0706,-0.1619,-0.3718,-0.5765,0.0066,0.1822,-0.0121,0.0076,-0.0146,-0.1172,-0.1543,3.0,3.0
0.05,0.7,0.4,0.2569,0.505,0.0,0.1385,0.505,0.0,0.1385,0.6992,0.4,0.2474,0.5035,0.0243,0.1405,0.4947,0.0782,0.1397,0.0113,0.0679,0.1771,0.0,1.0,1.0,0.0634,0.5135,-0.0314,0.0783,-0.1765,-0.4891,-0.5823,0.0025,-0.1813,0.009,0.0035,-0.0111,0.1168,0.0058,2.0,3.0
0.05,0.7,0.4,0.2655,0.505,0.0,0.1385,0.505,0.0,0.1385,0.7602,0.2659,0.2563,0.505,-0.0247,0.1406,0.5224,-0.017,0.1397,0.181,0.0663,0.0366,0.0,0.0,1.0,0.0659,0.3322,-0.0224,0.0817,-0.1876,-0.3722,-0.5765,0.0071,0.1802,-0.0137,0.0082,-0.0155,-0.1164,-0.1528,3.0,3.0
0.05,0.7,0.4,0.2742,0.505,0.0,0.1385,0.505,0.0,0.1385,0.6992,0.4,0.2642,0.5035,0.0238,0.1406,0.4947,0.0775,0.1397,0.0118,0.0679,0.1756,0.0,1.0,1.0,0.073,0.5124,-0.0361,0.09,-0.203,-0.4886,-0.5823,0.0024,-0.1793,0.0105,0.0033,-0.0112,0.116,0.0058,2.0,3.0
0.05,0.7,0.4,0.2831,0.505,0.0,0.1385,0.505,0.0,0.1385,0.7597,0.2672,0.2734,0.505,-0.0245,0.1407,0.5221,-0.0169,0.1398,0.1791,0.0658,0.0385,0.0,0.0,1.0,0.0754,0.3331,-0.0256,0.0933,-0.2142,-0.3726,-0.5765,0.0076,0.1781,-0.0153,0.0088,-0.0162,-0.1155,-0.1513,3.0,3.0
0.05,0.7,0.4,0.2921,0.505,0.0,0.1385,0.505,0.0,0.1385,0.6992,0.4001,0.2817,0.5034,0.0234,0.1408,0.4948,0.0767,0.1397,0.0122,0.0679,0.1741,0.0,1.0,1.0,0.083,0.5113,-0.0409,0.102,-0.2304,-0.4881,-0.5823,0.0022,-0.1771,0.012,0.003,-0.0111,0.1151,0.0058,2.0,3.0
0.05,0.7,0.4,0.3012,0.505,0.0,0.1385,0.505,0.0,0.1385,0.7592,0.2686,0.2912,0.5049,-0.0242,0.1409,0.5218,-0.0168,0.1398,0.177,0.0654,0.0406,0.0,0.0,1.0,0.0852,0.3342,-0.029,0.1051,-0.2415,-0.373,-0.5765,0.008,0.1759,-0.0169,0.0092,-0.0167,-0.1146,-0.1497,3.0,3.0
0.05,0.7,0.4,0.3105,0.505,0.0,0.1385,0.505,0.0,0.1385,0.6992,0.4001,0.2997,0.5034,0.0229,0.1409,0.4949,0.0758,0.1397,0.0125,0.0681,0.1726,0.0,1.0,1.0,0.0932,0.5101,-0.0459,0.1143,-0.2582,-0.4877,-0.5823,0.002,-0.1748,0.0135,0.0027,-0.0109,0.1142,0.0058,2.0,3.0
0.05,0.7,0.4,0.3198,0.505,0.0,0.1385,0.505,0.0,0.1385,0.7586,0.27,0.3095,0.5049,-0.024,0.141,0.5216,-0.0167,0.1399,0.1748,0.065,0.0429,0.0,0.0,1.0,0.0952,0.3353,-0.0324,0.117,-0.2691,-0.3734,-0.5765,0.0083,0.1735,-0.0185,0.0096,-0.0171,-0.1137,-0.1481,3.0,3.0
0.05,0.7,0.4,0.3291,0.505,0.0,0.1385,0.505,0.0,0.1385,0.6992,0.4001,0.3181,0.5034,0.0224,0.141,0.4949,0.0749,0.1398,0.0126,0.0683,0.1711,0.0,1.0,1.0,0.1035,0.5088,-0.0508,0.1267,-0.2863,-0.4871,-0.5823,0.0017,-0.1724,0.015,0.0023,-0.0105,0.1133,0.0058,2.0,3.0
0.05,0.7,0.4,0.3385,0.505,0.0,0.1385,0.505,0.0,0.1385,0.7581,0.2715,0.328,0.5049,-0.0237,0.1411,0.5213,-0.0166,0.1399,0.1725,0.0646,0.0453,0.0,0.0,1.0,0.1052,0.3364,-0.0358,0.129,-0.2968,-0.3739,-0.5765,0.0086,0.1711,-0.02,0.01,-0.0174,-0.1127,-0.1464,3.0,3.0
0.05,0.7,0.4,0.3479,0.505,0.0,0.1385,0.505,0.0,0.1385,0.6992,0.4001,0.3367,0.5034,0.0218,0.1411,0.4951,0.074,0.1397,0.0126,0.0687,0.1696,0.0,1.0,1.0,0.1138,0.5075,-0.0558,0.139,-0.3142,-0.4866,-0.5823,0.0014,-0.1699,0.0165,0.0019,-0.01,0.1123,0.0058,2.0,3.0
0.05,0.7,0.4,0.3572,0.505,0.0,0.1385,0.505,0.0,0.1385,0.7575,0.2731,0.3467,0.5049,-0.0234,0.1412,0.521,-0.0165,0.1399,0.1702,0.0643,0.0477,0.0,0.0,1.0,0.1152,0.3375,-0.0393,0.1409,-0.3242,-0.3743,-0.5765,0.0088,0.1686,-0.0214,0.0102,-0.0175,-0.1118,-0.1447,3.0,3.0
0.05,0.7,0.4,0.3665,0.505,0.0,0.1385,0.505,0.0,0.1385,0.6992,0.4001,0.3554,0.5034,0.0212,0.1412,0.4952,0.073,0.1397,0.0125,0.0691,0.1682,0.0,1.0,1.0,0.1241,0.5061,-0.0607,0.1512,-0.3416,-0.4861,-0.5823,0.001,-0.1674,0.018,0.0014,-0.0093,0.1114,0.0058,2.0,3.0
0.05,0.7,0.4,0.3757,0.505,0.0,0.1385,0.505,0.0,0.1385,0.7569,0.2747,0.3652,0.5049,-0.0231,0.1413,0.5207,-0.0164,0.1399,0.1679,0.064,0.0501,0.0,0.0,1.0,0.1251,0.3387,-0.0427,0.1525,-0.351,-0.3747,-0.5765,0.009,0.1661,-0.0227,0.0104,-0.0174,-0.1108,-0.143,3.0,3.0
0.05,0.7,0.4,0.3849,0.505,0.0,0.1385,0.505,0.0,0.1385,0.6993,0.4001,0.3738,0.5034,0.0206,0.1412,0.4953,0.072,0.1397,0.0122,0.0696,0.1668,0.0,1.0,1.0,0.1341,0.5048,-0.0655,0.163,-0.3684,-0.4855,-0.5823,0.0006,-0.1649,0.0194,0.0009,-0.0085,0.1104,0.0058,2.0,3.0
0.05,0.7,0.4,0.3939,0.505,0.0,0.1385,0.505,0.0,0.1385,0.7564,0.2763,0.3835,0.5049,-0.0228,0.1414,0.5204,-0.0163,0.1399,0.1655,0.0638,0.0525,0.0,0.0,1.0,0.1347,0.3398,-0.0461,0.1638,-0.3769,-0.3751,-0.5765,0.0091,0.1636,-0.024,0.0105,-0.0172,-0.1099,-0.1413,3.0,3.0
0.05,0.7,0.4,0.4028,0.505,0.0,0.1385,0.505,0.0,0.1385,0.6993,0.4001,0.3919,0.5034,0.0201,0.1413,0.4955,0.0709,0.1396,0.0119,0.0701,0.1655,0.0,1.0,1.0,0.1438,0.5034,-0.0701,0.1744,-0.3941,-0.485,-0.5823,0.0002,-0.1624,0.0207,0.0003,-0.0077,0.1094,0.0058,2.0,3.0
0.05,0.7,0.4,0.4115,0.505,0.0,0.1385,0.505,0.0,0.1385,0.7558,0.2779,0.4013,0.5049,-0.0226,0.1414,0.5201,-0.0162,0.1399,0.1632,0.0637,0.0549,0.0,0.0,1.0,0.1441,0.3409,-0.0494,0.1747,-0.4017,-0.3755,-0.5765,0.0091,0.1611,-0.0251,0.0106,-0.0168,-0.1089,-0.1397,3.0,3.0
0.05,0.7,0.4,0.4201,0.505,0.0,0.1385,0.505,0.0,0.1385,0.6994,0.4001,0.4094,0.5035,0.0195,0.1413,0.4956,0.0699,0.1396,0.0114,0.0706,0.1642,0.0,1.0,1.0,0.1532,0.502,-0.0745,0.1853,-0.4186,-0.4844,-0.5823,-0.0002,-0.16,0.0219,-0.0003,-0.0067,0.1085,0.0058,2.0,3.0
0.05,0.7,0.4,0.4284,0.505,0.0,0.1385,0.505,0.0,0.1385,0.7553,0.2795,0.4186,0.505,-0.0223,0.1415,0.5199,-0.0161,0.1399,0.1609,0.0636,0.0571,0.0,0.0,1.0,0.153,0.342,-0.0525,0.1849,-0.4253,-0.3759,-0.5765,0.0091,0.1587,-0.0261,0.0106,-0.0164,-0.108,-0.1381,3.0,3.0
0.05,0.7,0.4,0.4365,0.505,0.0,0.1385,0.505,0.0,0.1385,0.6994,0.4002,0.4263,0.5036,0.0189,0.1413,0.4958,0.0689,0.1395,0.0109,0.0712,0.163,0.0,1.0,1.0,0.162,0.5007,-0.0786,0.1955,-0.4416,-0.4839,-0.5823,-0.0007,-0.1576,0.0231,-0.001,-0.0057,0.1076,0.0058,2.0,3.0
0.05,0.7,0.4,0.4444,0.505,0.0,0.1385,0.505,0.0,0.1385,0.7547,0.2811,0.435,0.505,-0.022,0.1415,0.5197,-0.016,0.1399,0.1587,0.0635,0.0591,0.0,0.0,1.0,0.1614,0.3431,-0.0556,0.1945,-0.4473,-0.3763,-0.5765,0.009,0.1564,-0.027,0.0105,-0.0158,-0.1071,-0.1366,3.0,3.0
0.05,0.7,0.4,0.4521,0.505,0.0,0.1385,0.505,0.0,0.1385,0.6995,0.4002,0.4423,0.5036,0.0183,0.1413,0.496,0.068,0.1395,0.0103,0.0718,0.1619,0.0,1.0,1.0,0.1704,0.4994,-0.0825,0.205,-0.4631,-0.4834,-0.5823,-0.0011,-0.1554,0.0242,-0.0016,-0.0046,0.1067,0.0058,2.0,3.0
0.05,0.7,0.4,0.4594,0.505,0.0,0.1385,0.505,0.0,0.1385,0.7543,0.2825,0.4504,0.505,-0.0218,0.1415,0.5194,-0.0159,0.1399,0.1566,0.0635,0.061,1.0,0.0,1.0,0.1693,0.3441,-0.0584,0.2034,-0.4677,-0.3767,-0.5765,-0.0005,0.153,-0.0308,0.0016,0.0047,-0.1056,-0.1344,3.0,3.0
0.05,0.7,0.4,0.4665,0.505,0.0,0.1385,0.505,0.0,0.1385,0.7069,0.4002,0.4435,0.5058,0.0181,0.1388,0.4982,0.0671,0.1373,0.0278,0.0663,0.1584,0.0,1.0,1.0,0.1688,0.4971,-0.0892,0.205,-0.463,-0.4822,-0.5823,0.0069,-0.1533,0.0268,0.007,-0.0188,0.1061,0.0058,2.0,3.0
0.05,0.7,0.4,0.4733,0.505,0.0,0.1385,0.505,0.0,0.1385,0.7535,0.2823,0.4642,0.5031,-0.0216,0.1429,0.5174,-0.0158,0.1413,0.1558,0.0625,0.0601,1.0,0.0,1.0,0.1757,0.3438,-0.0624,0.212,-0.4818,-0.3761,-0.5765,-0.0017,0.152,-0.0305,-0.0004,0.0048,-0.105,-0.1326,3.0,3.0
0.05,0.7,0.4,0.4797,0.505,0.0,0.1385,0.505,0.0,0.1385,0.7084,0.4002,0.4548,0.5062,0.018,0.1385,0.4986,0.0664,0.137,0.0304,0.0659,0.157,1.0,1.0,1.0,0.174,0.4958,-0.0929,0.2116,-0.477,-0.4811,-0.5823,-0.0026,-0.103,0.0135,-0.0006,0.0048,0.0048,0.0058,2.0,3.0
0.05,0.7,0.4,0.4858,0.505,0.0,0.1385,0.505,0.0,0.1385,0.7472,0.3215,0.4596,0.5047,-0.0349,0.1417,0.5195,0.0117,0.1389,0.1098,0.091,0.0576,1.0,1.0,1.0,0.1714,0.3928,-0.0794,0.211,-0.4723,-0.4763,-0.5765,-0.0018,0.0181,-0.0057,-0.001,0.0047,0.0048,0.0058,2.0,3.0
0.05,0.7,0.4,0.4916,0.505,0.0,0.1385,0.505,0.0,0.1385,0.7447,0.3361,0.4572,0.5052,-0.023,0.1407,0.5083,0.0264,0.1391,0.0964,0.063,0.0751,1.0,1.0,1.0,0.1696,0.4109,-0.085,0.2099,-0.4675,-0.4716,-0.5707,-0.0021,-0.0098,-0.002,-0.0005,0.0047,0.0047,0.0057,2.0,3.0
0.05,0.7,0.4,0.4971,0.505,0.0,0.1385,0.505,0.0,0.1385,0.7509,0.3286,0.4564,0.505,-0.026,0.1406,0.511,0.0238,0.139,0.1087,0.0678,0.0676,0.0,1.0,1.0,0.1676,0.4011,-0.087,0.2094,-0.4629,-0.4668,-0.565,0.0218,-0.0619,0.0181,0.0214,-0.0512,0.1263,0.0057,2.0,3.0
0.05,0.7,0.4,0.5022,0.505,0.0,0.1385,0.505,0.0,0.1385,0.7527,0.2786,0.4948,0.4995,-0.0096,0.1452,0.5053,-0.0082,0.1446,0.158,0.0393,0.0544,1.0,0.0,1.0,0.1894,0.3392,-0.0689,0.2308,-0.514,-0.3405,-0.5594,-0.0042,0.1542,-0.0308,-0.0043,0.0051,-0.137,-0.1453,3.0,3.0
0.05,0.7,0.4,0.5069,0.505,0.0,0.1385,0.505,0.0,0.1385,0.7111,0.4004,0.4801,0.507,0.0181,0.1378,0.4989,0.0647,0.1364,0.0334,0.0671,0.1546,1.0,1.0,1.0,0.1852,0.4933,-0.0997,0.2265,-0.5089,-0.4776,-0.5823,-0.0022,-0.1012,0.015,-0.0004,0.0051,0.0048,0.0058,2.0,3.0
0.05,0.7,0.4,0.5113,0.505,0.0,0.1385,0.505,0.0,0.1385,0.7481,0.3221,0.4855,0.5046,-0.0341,0.1418,0.5189,0.0109,0.139,0.1086,0.089,0.0585,1.0,1.0,1.0,0.183,0.3921,-0.0847,0.2261,-0.5038,-0.4728,-0.5765,-0.002,0.0176,-0.005,-0.0016,0.005,0.0047,0.0058,2.0,3.0
0.05,0.7,0.4,0.5153,0.505,0.0,0.1385,0.505,0.0,0.1385,0.7456,0.3364,0.4823,0.5054,-0.0225,0.1408,0.5082,0.0253,0.1391,0.0953,0.0624,0.075,1.0,1.0,1.0,0.181,0.4097,-0.0897,0.2246,-0.4987,-0.4681,-0.5707,-0.0022,-0.0096,-0.0012,-0.001,0.005,0.0047,0.0057,2.0,3.0
0.05,0.7,0.4,0.519,0.505,0.0,0.1385,0.505,0.0,0.1385,0.7514,0.329,0.4809,0.5051,-0.0254,0.1407,0.5108,0.0227,0.139,0.1067,0.0669,0.0679,1.0,1.0,1.0,0.1789,0.4001,-0.0908,0.2236,-0.4938,-0.4634,-0.565,-0.0022,-0.0031,-0.0018,-0.0013,0.0049,0.0046,0.0057,2.0,3.0
0.05,0.7,0.4,0.5223,0.505,0.0,0.1385,0.505,0.0,0.1385,0.7551,0.3268,0.4788,0.5052,-0.0249,0.1404,0.5103,0.0241,0.1389,0.1126,0.0645,0.0677,1.0,1.0,1.0,0.1767,0.397,-0.0926,0.2222,-0.4888,-0.4588,-0.5594,-0.0021,-0.0046,-0.0014,-0.0013,0.0049,0.0046,0.0056,2.0,3.0
0.05,0.7,0.4,0.5252,0.505,0.0,0.1385,0.505,0.0,0.1385,0.759,0.3233,0.4768,0.5051,-0.0252,0.1401,0.5104,0.0245,0.1388,0.1197,0.0643,0.0662,1.0,0.0,1.0,0.1746,0.3924,-0.094,0.221,-0.4839,-0.4542,-0.5538,0.0016,0.099,-0.0201,0.0007,0.0048,-0.0401,-0.16,3.0,3.0
0.05,0.7,0.4,0.5278,0.505,0.0,0.1385,0.505,0.0,0.1385,0.7254,0.4006,0.4725,0.505,0.0119,0.1388,0.5035,0.0652,0.1377,0.0717,0.0388,0.147,1.0,1.0,1.0,0.1761,0.4914,-0.1142,0.2216,-0.4791,-0.4942,-0.5823,-0.0047,-0.0926,0.0121,-0.0012,0.0048,0.0049,0.0058,2.0,3.0
0.05,0.7,0.4,0.5301,0.505,0.0,0.1385,0.505,0.0,0.1385,0.7612,0.328,0.4745,0.5049,-0.0353,0.1402,0.5195,0.0167,0.1384,0.12,0.088,0.0498,1.0,1.0,1.0,0.1715,0.3988,-0.1021,0.2205,-0.4743,-0.4893,-0.5765,-0.0019,0.016,-0.0022,-0.0027,0.0047,0.0049,0.0058,2.0,3.0
0.05,0.7,0.4,0.5321,0.505,0.0,0.1385,0.505,0.0,0.1385,0.7582,0.3415,0.4699,0.505,-0.0247,0.1393,0.5091,0.0297,0.1384,0.1128,0.062,0.0721,1.0,1.0,1.0,0.1696,0.4148,-0.1042,0.2177,-0.4696,-0.4844,-0.5707,-0.0019,-0.0094,-0.0006,-0.0008,0.0047,0.0048,0.0057,2.0,3.0
0.05,0.7,0.4,0.5337,0.505,0.0,0.1385,0.505,0.0,0.1385,0.763,0.334,0.4685,0.5047,-0.0276,0.1395,0.5114,0.0273,0.1386,0.1224,0.0688,0.0662,0.0,1.0,1.0,0.1677,0.4054,-0.1048,0.2169,-0.4649,-0.4796,-0.565,0.0365,-0.0679,0.0275,0.0349,-0.0861,0.1379,0.0057,2.0,3.0
0.05,0.7,0.4,0.5351,0.505,0.0,0.1385,0.505,0.0,0.1385,0.7519,0.2774,0.5297,0.4957,-0.0107,0.1474,0.5022,-0.009,0.1467,0.1568,0.0407,0.0545,1.0,0.0,1.0,0.2042,0.3375,-0.0773,0.2518,-0.551,-0.3416,-0.5594,-0.0057,0.1531,-0.0295,-0.0075,0.0055,-0.1332,-0.1411,3.0,3.0
0.05,0.7,0.4,0.5361,0.505,0.0,0.1385,0.505,0.0,0.1385,0.7134,0.4005,0.5108,0.5077,0.0178,0.1375,0.4994,0.0629,0.1362,0.0328,0.0679,0.1519,1.0,1.0,1.0,0.1985,0.4907,-0.1069,0.2442,-0.5455,-0.4748,-0.5823,-0.0023,-0.0985,0.0172,-0.0012,0.0055,0.0047,0.0058,2.0,3.0
0.05,0.7,0.4,0.537,0.505,0.0,0.1385,0.505,0.0,0.1385,0.7481,0.3235,0.5151,0.5047,-0.0333,0.1419,0.5184,0.0103,0.1389,0.1055,0.0876,0.0613,1.0,1.0,1.0,0.1962,0.3922,-0.0896,0.243,-0.54,-0.4701,-0.5765,-0.0019,0.0168,-0.0036,-0.0021,0.0054,0.0047,0.0058,2.0,3.0
0.05,0.7,0.4,0.5376,0.505,0.0,0.1385,0.505,0.0,0.1385,0.7448,0.3371,0.5108,0.5055,-0.0222,0.1411,0.5082,0.0241,0.1392,0.0914,0.0636,0.0767,1.0,1.0,1.0,0.1942,0.4089,-0.0933,0.2409,-0.5346,-0.4654,-0.5707,-0.0023,-0.0092,0.0003,-0.0017,0.0053,0.0047,0.0057,2.0,3.0
0.05,0.7,0.4,0.538,0.505,0.0,0.1385,0.505,0.0,0.1385,0.7496,0.3298,0.5082,0.5053,-0.025,0.1411,0.5106,0.0217,0.1391,0.1016,0.0678,0.0707,1.0,1.0,1.0,0.192,0.3997,-0.093,0.2392,-0.5293,-0.4607,-0.565,-0.0022,-0.0031,-0.0004,-0.002,0.0053,0.0046,0.0057,2.0,3.0
0.05,0.7,0.4,0.5383,0.505,0.0,0.1385,0.505,0.0,0.1385,0.7523,0.3274,0.5051,0.5053,-0.0246,0.1408,0.5101,0.023,0.139,0.1063,0.0659,0.0707,1.0,0.0,1.0,0.1897,0.3966,-0.0934,0.2372,-0.524,-0.4561,-0.5594,0.0007,0.0936,-0.0197,0.0002,0.0052,-0.0381,-0.1523,3.0,3.0
0.05,0.7,0.4,0.5384,0.505,0.0,0.1385,0.505,0.0,0.1385,0.7202,0.4,0.4992,0.5053,0.0106,0.1392,0.5041,0.0635,0.1375,0.0517,0.0453,0.1472,1.0,1.0,1.0,0.1904,0.4901,-0.1131,0.2375,-0.5187,-0.4942,-0.5823,-0.0043,-0.0896,0.0148,-0.0026,0.0052,0.0049,0.0058,2.0,3.0
0.05,0.7,0.4,0.5385,0.505,0.0,0.1385,0.505,0.0,0.1385,0.7541,0.3301,0.5,0.5049,-0.0355,0.1409,0.5189,0.0163,0.1383,0.1059,0.0895,0.0582,1.0,1.0,1.0,0.1861,0.4005,-0.0983,0.2349,-0.5136,-0.4893,-0.5765,-0.0017,0.0148,-0.0021,-0.0024,0.0051,0.0049,0.0058,2.0,3.0
0.05,0.7,0.4,0.5385,0.505,0.0,0.1385,0.505,0.0,0.1385,0.7506,0.3422,0.4955,0.5051,-0.0254,0.1404,0.509,0.0287,0.1388,0.0961,0.0663,0.0768,1.0,1.0,1.0,0.1843,0.4153,-0.1004,0.2324,-0.5084,-0.4844,-0.5707,-0.0021,-0.0089,0.0004,-0.0016,0.0051,0.0048,0.0057,2.0,3.0
0.05,0.7,0.4,0.5385,0.505,0.0,0.1385,0.505,0.0,0.1385,0.7549,0.3351,0.4931,0.5049,-0.0281,0.1404,0.5113,0.0265,0.1387,0.1054,0.0715,0.0713,1.0,1.0,1.0,0.1822,0.4064,-0.1,0.2308,-0.5033,-0.4795,-0.565,-0.0022,-0.0032,-0.0002,-0.002,0.005,0.0048,0.0057,2.0,3.0
0.05,0.7,0.3999,0.5385,0.505,0.0,0.1385,0.505,0.0,0.1385,0.7575,0.3326,0.4898,0.505,-0.0277,0.1401,0.5108,0.0276,0.1386,0.1103,0.0701,0.0721,1.0,1.0,1.0,0.18,0.4032,-0.1002,0.2288,-0.4983,-0.4747,-0.5594,-0.0021,-0.0045,-0.0,-0.0018,0.005,0.0047,0.0056,2.0,3.0
0.05,0.7,0.3996,0.5385,0.505,0.0,0.1385,0.505,0.0,0.1385,0.7603,0.329,0.4868,0.5049,-0.028,0.14,0.511,0.0279,0.1386,0.1161,0.0705,0.0715,1.0,1.0,1.0,0.1779,0.3987,-0.1002,0.227,-0.4933,-0.47,-0.5538,-0.0021,-0.0041,-0.0001,-0.0018,0.0049,0.0047,0.0055,2.0,3.0
0.05,0.7,0.3991,0.5385,0.505,0.0,0.1385,0.505,0.0,0.1385,0.7629,0.3257,0.4837,0.5049,-0.0282,0.1398,0.511,0.0285,0.1385,0.1214,0.0706,0.0714,1.0,1.0,1.0,0.1758,0.3945,-0.1003,0.2252,-0.4884,-0.4653,-0.5482,-0.0021,-0.0042,-0.0001,-0.0018,0.0049,0.0047,0.0055,2.0,3.0
0.05,0.7,0.3982,0.5385,0.505,0.0,0.1385,0.505,0.0,0.1385,0.7654,0.3223,0.4807,0.5049,-0.0284,0.1396,0.511,0.0289,0.1385,0.1264,0.0709,0.0714,1.0,1.0,1.0,0.1737,0.3904,-0.1004,0.2234,-0.4835,-0.4606,-0.5428,-0.0021,-0.0041,-0.0001,-0.0018,0.0048,0.0046,0.0054,2.0,3.0
0.05,0.7,0.397,0.5385,0.505,0.0,0.1385,0.505,0.0,0.1385,0.7677,0.3189,0.4775,0.5049,-0.0286,0.1394,0.5111,0.0294,0.1384,0.1312,0.0712,0.0714,1.0,0.0,1.0,0.1716,0.3863,-0.1006,0.2216,-0.4787,-0.456,-0.5373,0.0026,0.1014,-0.019,0.0003,0.0048,-0.0327,-0.1722,3.0,3.0
0.05,0.7,0.3953,0.5385,0.505,0.0,0.1385,0.505,0.0,0.1385,0.7316,0.3983,0.473,0.5048,0.0126,0.1385,0.503,0.0638,0.1379,0.0862,0.0356,0.1419,1.0,1.0,1.0,0.1742,0.4876,-0.1196,0.2219,-0.4739,-0.4887,-0.5823,-0.005,-0.0912,0.0119,-0.0011,0.0047,0.0049,0.0058,2.0,3.0
0.05,0.7,0.3932,0.5385,0.505,0.0,0.1385,0.505,0.0,0.1385,0.7654,0.3258,0.4739,0.505,-0.0339,0.1397,0.5192,0.016,0.1383,0.1244,0.0842,0.0447,1.0,1.0,1.0,0.1691,0.3965,-0.1077,0.2208,-0.4691,-0.4838,-0.5765,-0.0019,0.0159,-0.0008,-0.0035,0.0047,0.0048,0.0058,2.0,3.0
0.05,0.7,0.3904,0.5385,0.505,0.0,0.1385,0.505,0.0,0.1385,0.7609,0.339,0.468,0.5051,-0.0234,0.1387,0.509,0.0289,0.1382,0.1166,0.0583,0.0683,0.0,1.0,1.0,0.1672,0.4124,-0.1085,0.2174,-0.4644,-0.479,-0.5707,0.0402,-0.0706,0.0293,0.0386,-0.0938,0.1304,0.0057,2.0,3.0
0.05,0.7,0.3872,0.5385,0.505,0.0,0.1385,0.505,0.0,0.1385,0.7459,0.2793,0.5344,0.4948,-0.0113,0.1481,0.5016,-0.0094,0.1474,0.1384,0.0426,0.0559,1.0,0.0,1.0,0.2074,0.3418,-0.0792,0.2559,-0.5583,-0.3485,-0.565,-0.0066,0.135,-0.0261,-0.0084,0.0056,-0.1134,-0.1216,3.0,3.0
0.05,0.7,0.3833,0.5385,0.505,0.0,0.1385,0.505,0.0,0.1385,0.7134,0.3875,0.5148,0.5079,0.0155,0.1377,0.5008,0.0553,0.1366,0.0322,0.063,0.1375,1.0,1.0,1.0,0.2008,0.4768,-0.1053,0.2475,-0.5527,-0.462,-0.5823,-0.0021,-0.0876,0.0156,-0.0012,0.0055,0.0046,0.0058,2.0,3.0
0.05,0.7,0.3787,0.5385,0.505,0.0,0.1385,0.505,0.0,0.1385,0.7418,0.3184,0.5174,0.5048,-0.0298,0.1418,0.5168,0.0087,0.1391,0.0865,0.0798,0.0603,1.0,1.0,1.0,0.1986,0.3891,-0.0897,0.2463,-0.5472,-0.4574,-0.5765,-0.002,0.0144,-0.0033,-0.0021,0.0055,0.0046,0.0058,2.0,3.0
0.05,0.7,0.3735,0.5385,0.505,0.0,0.1385,0.505,0.0,0.1385,0.7375,0.3292,0.5123,0.5057,-0.02,0.141,0.508,0.0211,0.1394,0.0709,0.059,0.0725,1.0,0.0,1.0,0.1966,0.4035,-0.093,0.2441,-0.5417,-0.4528,-0.5707,-0.0006,0.0582,-0.0137,-0.0002,0.0054,-0.0145,-0.1123,3.0,3.0
0.05,0.7,0.3676,0.5385,0.505,0.0,0.1385,0.505,0.0,0.1385,0.7171,0.373,0.5067,0.5056,0.0058,0.1398,0.5065,0.0475,0.1381,0.0441,0.041,0.1182,1.0,1.0,1.0,0.196,0.4618,-0.1067,0.2439,-0.5363,-0.4673,-0.5823,-0.0038,-0.0675,0.0114,-0.0027,0.0054,0.0047,0.0058,2.0,3.0
0.05,0.7,0.361,0.5385,0.505,0.0,0.1385,0.505,0.0,0.1385,0.7397,0.3199,0.5052,0.5052,-0.0285,0.141,0.5157,0.0127,0.1387,0.0731,0.0741,0.0571,1.0,1.0,1.0,0.1922,0.3943,-0.0953,0.2412,-0.5309,-0.4627,-0.5765,-0.0019,0.0099,-0.0021,-0.0021,0.0053,0.0046,0.0058,2.0,3.0
0.05,0.7,0.3537,0.5385,0.505,0.0,0.1385,0.505,0.0,0.1385,0.7358,0.3268,0.5002,0.5055,-0.0211,0.1406,0.5086,0.0222,0.1391,0.0651,0.0575,0.0683,1.0,1.0,1.0,0.1903,0.4042,-0.0974,0.2391,-0.5256,-0.458,-0.5707,-0.0023,-0.0076,-0.0001,-0.0017,0.0053,0.0046,0.0057,2.0,3.0
0.05,0.7,0.3456,0.5385,0.505,0.0,0.1385,0.505,0.0,0.1385,0.7373,0.3197,0.4964,0.5053,-0.0232,0.1405,0.5102,0.0208,0.139,0.0689,0.0606,0.0638,1.0,0.0,1.0,0.1881,0.3966,-0.0975,0.2375,-0.5203,-0.4534,-0.565,-0.001,0.0345,-0.008,-0.0011,0.0052,0.0193,-0.0867,3.0,3.0
0.05,0.7,0.3369,0.5385,0.505,0.0,0.1385,0.505,0.0,0.1385,0.7246,0.345,0.4913,0.5056,0.0035,0.1395,0.5072,0.032,0.1387,0.0657,0.0247,0.0829,1.0,0.0,1.0,0.1871,0.431,-0.1055,0.2364,-0.5151,-0.4341,-0.5823,-0.0022,-0.0103,-0.0003,-0.0012,0.0052,-0.0008,-0.064,3.0,3.0
0.05,0.7,0.3274,0.5385,0.505,0.0,0.1385,0.505,0.0,0.1385,0.7267,0.3356,0.488,0.5056,-0.0021,0.1398,0.5114,0.0262,0.1386,0.071,0.0188,0.0709,1.0,0.0,1.0,0.1849,0.4207,-0.1058,0.2352,-0.51,-0.4349,-0.5823,-0.0025,-0.0106,0.001,-0.002,0.0051,0.0141,-0.052,3.0,3.0
0.05,0.7,0.3172,0.5385,0.505,0.0,0.1385,0.505,0.0,0.1385,0.7287,0.3262,0.4837,0.5057,-0.002,0.1396,0.5106,0.0208,0.1387,0.077,0.0151,0.0594,1.0,0.0,1.0,0.1824,0.4102,-0.1047,0.2332,-0.5049,-0.4208,-0.5823,-0.0024,-0.0115,0.0013,-0.002,0.005,0.015,-0.0391,3.0,3.0
0.05,0.7,0.3063,0.5385,0.505,0.0,0.1385,0.505,0.0,0.1385,0.7306,0.3162,0.4794,0.5056,-0.0019,0.1395,0.5097,0.015,0.1388,0.083,0.0116,0.0475,1.0,0.0,1.0,0.18,0.3987,-0.1034,0.2312,-0.4998,-0.4058,-0.5823,-0.0025,-0.0124,0.0016,-0.0021,0.005,0.0163,-0.0251,3.0,3.0
0.05,0.7,0.2947,0.5385,0.505,0.0,0.1385,0.505,0.0,0.1385,0.7325,0.3054,0.4749,0.5056,-0.0019,0.1394,0.5087,0.0087,0.139,0.0891,0.0084,0.036,1.0,0.0,1.0,0.1775,0.3863,-0.1018,0.2291,-0.4948,-0.3895,-0.5823,-0.0025,-0.0133,0.0019,-0.0021,0.0049,0.0175,-0.01,3.0,3.0
0.05,0.7,0.2824,0.5385,0.505,0.0,0.1385,0.505,0.0,0.1385,0.7345,0.2939,0.4704,0.5056,-0.0018,0.1393,0.5075,0.002,0.139,0.0953,0.0059,0.0268,1.0,0.0,1.0,0.175,0.3731,-0.1,0.227,-0.4899,-0.3721,-0.5823,-0.0026,-0.0142,0.0022,-0.0022,0.0049,0.0187,0.0062,3.0,3.0
0.05,0.7,0.2695,0.5385,0.505,0.0,0.1385,0.505,0.0,0.1385,0.7364,0.2818,0.4658,0.5055,-0.0018,0.1392,0.5067,-0.0023,0.1391,0.1017,0.0049,0.0235,1.0,0.0,1.0,0.1724,0.3589,-0.0978,0.2248,-0.485,-0.3534,-0.5761,-0.0026,-0.0151,0.0025,-0.0023,0.0048,0.0199,0.0173,3.0,3.0
0.05,0.7,0.256,0.5385,0.505,0.0,0.1385,0.505,0.0,0.1385,0.7384,0.2691,0.4611,0.5055,-0.0018,0.1391,0.5068,-0.0023,0.1389,0.1081,0.0059,0.0204,1.0,0.0,1.0,0.1697,0.3439,-0.0953,0.2225,-0.4801,-0.3334,-0.5587,-0.0027,-0.016,0.0028,-0.0023,0.0048,0.0212,0.0185,3.0,3.0
0.05,0.7,0.2419,0.5385,0.505,0.0,0.1385,0.505,0.0,0.1385,0.7404,0.2557,0.4563,0.5054,-0.0018,0.1389,0.5069,-0.0022,0.1388,0.1146,0.0081,0.0176,1.0,0.0,1.0,0.167,0.3279,-0.0925,0.2201,-0.4753,-0.3122,-0.5402,-0.0027,-0.0168,0.0032,-0.0024,0.0048,0.0224,0.0196,3.0,3.0
0.05,0.7,0.2271,0.5385,0.505,0.0,0.1385,0.505,0.0,0.1385,0.7423,0.2418,0.4515,0.5054,-0.0018,0.1388,0.507,-0.0022,0.1387,0.1211,0.0105,0.015,1.0,0.0,1.0,0.1643,0.3111,-0.0892,0.2178,-0.4706,-0.2898,-0.5206,-0.0027,-0.0177,0.0036,-0.0024,0.0047,0.0236,0.0208,3.0,3.0
0.05,0.7,0.2119,0.5385,0.505,0.0,0.1385,0.505,0.0,0.1385,0.7443,0.2272,0.4466,0.5053,-0.0018,0.1388,0.507,-0.0022,0.1386,0.1276,0.0129,0.0127,0.0,0.0,1.0,0.1616,0.2933,-0.0856,0.2153,-0.4659,-0.2662,-0.4998,0.0627,-0.0143,0.0228,0.0596,-0.1316,0.0206,0.0177,3.0,3.0
0.05,0.7,0.1961,0.5385,0.505,0.0,0.1385,0.505,0.0,0.1385,0.6914,0.2122,0.5368,0.4904,-0.004,0.1589,0.4918,-0.0046,0.1588,0.0237,0.0508,0.0604,1.0,0.0,1.0,0.2243,0.2791,-0.0628,0.2749,-0.5802,-0.2457,-0.4821,-0.0232,-0.0256,-0.0005,-0.0224,0.0058,0.031,0.0363,3.0,3.0
0.05,0.7,0.1798,0.5385,0.505,0.0,0.1385,0.505,0.0,0.1385,0.7206,0.1951,0.5064,0.5105,-0.0036,0.1361,0.5124,-0.0044,0.1359,0.0511,0.0176,0.0441,1.0,0.0,0.0,0.201,0.2535,-0.0633,0.2525,-0.5744,-0.2147,-0.4458,0.0006,-0.0193,0.0044,0.0007,0.0057,0.0277,0.0213,3.0,3.0
0.05,0.7,0.1631,0.5385,0.505,0.0,0.1385,0.505,0.0,0.1385,0.7175,0.179,0.5053,0.5045,-0.0029,0.1402,0.5061,-0.004,0.1401,0.0516,0.0131,0.0391,1.0,0.0,0.0,0.2017,0.2342,-0.0589,0.2533,-0.5686,-0.1869,-0.4245,-0.0035,-0.0214,0.0041,-0.0033,0.0057,0.0278,0.0258,3.0,3.0
0.05,0.7,0.146,0.5385,0.505,0.0,0.1385,0.505,0.0,0.1385,0.721,0.1622,0.4995,0.5054,-0.0029,0.1393,0.5073,-0.0039,0.1391,0.0591,0.0096,0.0353,1.0,0.0,0.0,0.1982,0.2128,-0.0547,0.2499,-0.5629,-0.1592,-0.3987,-0.0027,-0.0218,0.0046,-0.0026,0.0056,0.0289,0.0262,3.0,3.0
0.05,0.7,0.1286,0.5385,0.505,0.0,0.1385,0.505,0.0,0.1385,0.7231,0.1452,0.4947,0.5051,-0.0028,0.1393,0.5071,-0.0038,0.1391,0.0653,0.0074,0.0317,1.0,0.0,0.0,0.1954,0.191,-0.0501,0.2473,-0.5573,-0.1302,-0.3724,-0.0028,-0.0225,0.005,-0.0027,0.0056,0.0297,0.0273,3.0,3.0
0.05,0.7,0.1108,0.5385,0.505,0.0,0.1385,0.505,0.0,0.1385,0.7255,0.1277,0.4898,0.505,-0.0027,0.1392,0.5072,-0.0037,0.1389,0.0715,0.0068,0.0285,1.0,0.0,0.0,0.1926,0.1685,-0.0451,0.2446,-0.5517,-0.1005,-0.3452,-0.0028,-0.023,0.0054,-0.0027,0.0055,0.0304,0.0281,3.0,3.0
0.05,0.7,0.0928,0.5385,0.505,0.0,0.1385,0.505,0.0,0.1385,0.7276,0.11,0.4851,0.5049,-0.0026,0.1391,0.5072,-0.0036,0.1388,0.0775,0.0077,0.0256,1.0,0.0,0.0,0.1899,0.1455,-0.0398,0.242,-0.5462,-0.0701,-0.317,-0.0027,-0.0235,0.0057,-0.0026,0.0055,0.0311,0.029,3.0,3.0
0.05,0.7,0.0745,0.5385,0.505,0.0,0.1385,0.505,0.0,0.1385,0.7297,0.092,0.4806,0.5048,-0.0025,0.139,0.5071,-0.0036,0.1388,0.0833,0.0093,0.023,1.0,0.0,0.0,0.1872,0.122,-0.0341,0.2393,-0.5407,-0.039,-0.2881,-0.0026,-0.0239,0.006,-0.0026,0.0054,0.0316,0.0297,3.0,3.0
0.05,0.7,0.056,0.5385,0.505,0.0,0.1385,0.505,0.0,0.1385,0.7317,0.0738,0.4762,0.5047,-0.0024,0.139,0.5071,-0.0035,0.1387,0.0888,0.0111,0.0207,1.0,0.0,0.0,0.1845,0.098,-0.028,0.2368,-0.5353,-0.0074,-0.2583,-0.0025,-0.0243,0.0063,-0.0025,0.0054,0.032,0.0304,3.0,3.0
0.05,0.7,0.0374,0.5385,0.505,0.0,0.1385,0.505,0.0,0.1385,0.7335,0.0554,0.472,0.5045,-0.0023,0.139,0.5071,-0.0035,0.1387,0.094,0.0128,0.0188,1.0,0.0,0.0,0.182,0.0738,-0.0217,0.2343,-0.53,0.0246,-0.228,-0.0024,-0.0245,0.0066,-0.0024,0.0053,0.0323,0.0309,3.0,3.0
0.05,0.7,0.0187,0.5385,0.505,0.0,0.1385,0.505,0.0,0.1385,0.7352,0.0369,0.468,0.5044,-0.0023,0.1389,0.507,-0.0035,0.1386,0.0989,0.0142,0.0172,1.0,0.0,0.0,0.1795,0.0492,-0.0151,0.2319,-0.5247,0.0569,-0.1971,-0.0023,-0.0247,0.0068,-0.0023,0.0052,0.0325,0.0314,3.0,3.0
0.05,0.7,0.0,0.5385,0.505,0.0,0.1385,0.505,0.0,0.1385,0.7368,0.0182,0.4643,0.5043,-0.0022,0.1389,0.507,-0.0035,0.1386,0.1034,0.0154,0.0159,1.0,0.0,0.0,0.1772,0.0245,-0.0083,0.2296,-0.5194,0.0893,-0.1657,-0.0022,-0.0248,0.007,-0.0022,0.0052,0.0325,0.0317,3.0,3.0
0.05,0.7,-0.0187,0.5385,0.505,0.0,0.1385,0.505,0.0,0.1385,0.7383,-0.0005,0.4608,0.5042,-0.0021,0.1389,0.5069,-0.0035,0.1386,0.1076,0.0163,0.0149,1.0,0.0,0.0,0.175,-0.0003,-0.0013,0.2274,-0.5142,0.1218,-0.134,-0.0021,-0.0248,0.0071,-0.0021,0.0051,0.0324,0.032,3.0,3.0
0.05,0.7,-0.0374,0.5385,0.505,0.0,0.1385,0.505,0.0,0.1385,0.7396,-0.0192,0.4576,0.5041,-0.0021,0.1389,0.5068,-0.0034,0.1386,0.1114,0.0169,0.0142,1.0,0.0,0.0,0.1729,-0.0252,0.0058,0.2253,-0.5091,0.1542,-0.102,-0.002,-0.0248,0.0072,-0.002,0.0051,0.0322,0.0321,3.0,3.0
0.05,0.7,-0.056,0.5385,0.505,0.0,0.1385,0.505,0.0,0.1385,0.7408,-0.0379,0.4546,0.504,-0.002,0.1389,0.5067,-0.0034,0.1386,0.1149,0.0172,0.0136,1.0,0.0,0.0,0.1709,-0.0499,0.013,0.2233,-0.504,0.1864,-0.0699,-0.0019,-0.0246,0.0072,-0.0018,0.005,0.0318,0.0321,3.0,3.0
0.05,0.7,-0.0745,0.5385,0.505,0.0,0.1385,0.505,0.0,0.1385,0.7419,-0.0566,0.452,0.5039,-0.002,0.1389,0.5066,-0.0034,0.1386,0.118,0.0173,0.0133,1.0,0.0,0.0,0.169,-0.0745,0.0203,0.2215,-0.499,0.2183,-0.0379,-0.0017,-0.0243,0.0072,-0.0017,0.005,0.0314,0.0319,3.0,3.0
0.05,0.7,-0.0928,0.5385,0.505,0.0,0.1385,0.505,0.0,0.1385,0.7429,-0.0751,0.4495,0.5038,-0.0019,0.1389,0.5065,-0.0034,0.1387,0.1207,0.0172,0.0132,1.0,0.0,0.0,0.1673,-0.0988,0.0275,0.2198,-0.494,0.2496,-0.006,-0.0016,-0.024,0.0072,-0.0016,0.0049,0.0308,0.0316,3.0,3.0
0.05,0.7,-0.1108,0.5385,0.505,0.0,0.1385,0.505,0.0,0.1385,0.7438,-0.0934,0.4474,0.5037,-0.0018,0.139,0.5064,-0.0034,0.1387,0.1232,0.0169,0.0131,1.0,0.0,0.0,0.1656,-0.1229,0.0347,0.2182,-0.489,0.2804,0.0257,-0.0015,-0.0236,0.0071,-0.0015,0.0049,0.0301,0.0312,3.0,3.0
0.05,0.7,-0.1286,0.5385,0.505,0.0,0.1385,0.505,0.0,0.1385,0.7445,-0.1115,0.4454,0.5037,-0.0018,0.139,0.5063,-0.0034,0.1387,0.1253,0.0164,0.0132,1.0,0.0,0.0,0.1641,-0.1464,0.0417,0.2168,-0.4841,0.3105,0.0569,-0.0014,-0.0231,0.0069,-0.0014,0.0048,0.0293,0.0307,3.0,3.0
0.05,0.7,-0.146,0.5385,0.505,0.0,0.1385,0.505,0.0,0.1385,0.7452,-0.1294,0.4437,0.5036,-0.0017,0.1389,0.5062,-0.0033,0.1387,0.1272,0.0158,0.0134,1.0,0.0,0.0,0.1627,-0.1695,0.0486,0.2154,-0.4793,0.3398,0.0877,-0.0013,-0.0225,0.0067,-0.0013,0.0048,0.0284,0.0301,3.0,3.0
0.05,0.7,-0.1631,0.5385,0.505,0.0,0.1385,0.505,0.0,0.1385,0.7457,-0.1469,0.4422,0.5036,-0.0017,0.1389,0.5061,-0.0033,0.1387,0.1288,0.015,0.0136,1.0,0.0,0.0,0.1614,-0.1921,0.0554,0.2141,-0.4745,0.3683,0.1178,-0.0012,-0.0219,0.0065,-0.0012,0.0047,0.0275,0.0294,3.0,3.0
0.05,0.7,-0.1798,0.5385,0.505,0.0,0.1385,0.505,0.0,0.1385,0.7462,-0.1641,0.4409,0.5036,-0.0016,0.1389,0.506,-0.0032,0.1387,0.1302,0.0142,0.014,1.0,0.0,0.0,0.1602,-0.214,0.0619,0.213,-0.4698,0.3958,0.1472,-0.0011,-0.0212,0.0063,-0.0011,0.0047,0.0265,0.0286,3.0,3.0
0.05,0.7,-0.1961,0.5385,0.505,0.0,0.1385,0.505,0.0,0.1385,0.7466,-0.1809,0.4398,0.5036,-0.0016,0.1389,0.5059,-0.0032,0.1387,0.1314,0.0132,0.0143,0.0,0.0,0.0,0.1591,-0.2352,0.0682,0.2119,-0.4651,0.4222,0.1757,0.0658,-0.0241,-0.0096,0.0636,-0.1326,0.0288,0.0311,3.0,3.0
0.05,0.7,-0.2119,0.5385,0.505,0.0,0.1385,0.505,0.0,0.1385,0.691,-0.1965,0.5367,0.488,0.0006,0.16,0.4906,-0.0012,0.1597,0.0172,0.0585,0.0512,1.0,0.0,0.0,0.2249,-0.2593,0.0586,0.2755,-0.5802,0.4511,0.2068,-0.0239,-0.014,0.0083,-0.0233,0.0058,0.0112,0.0221,3.0,3.0
0.05,0.7,-0.2271,0.5385,0.505,0.0,0.1385,0.505,0.0,0.1385,0.7203,-0.2113,0.507,0.5095,0.0006,0.1357,0.5116,-0.0013,0.1354,0.0472,0.0474,0.019,1.0,1.0,0.0,0.201,-0.2733,0.0669,0.2522,-0.5744,0.4623,0.2289,0.0014,0.0104,-0.0022,0.0016,0.0057,-0.0046,-0.0064,3.0,3.0
0.05,0.7,-0.2419,0.5385,0.505,0.0,0.1385,0.505,0.0,0.1385,0.7217,-0.2034,0.51,0.5052,0.0033,0.1403,0.5046,0.0021,0.1404,0.0619,0.0429,0.0163,1.0,1.0,0.0,0.2025,-0.2629,0.0647,0.2537,-0.5686,0.4577,0.2225,-0.0031,0.0023,-0.0003,-0.0032,0.0057,-0.0046,-0.0056,3.0,3.0
0.05,0.7,-0.256,0.5385,0.505,0.0,0.1385,0.505,0.0,0.1385,0.7285,-0.2029,0.5072,0.5057,0.0023,0.1394,0.5059,0.0009,0.1394,0.0807,0.0415,0.0141,1.0,0.0,0.0,0.1993,-0.2607,0.0644,0.2506,-0.5629,0.4531,0.217,-0.0007,-0.0678,0.0143,-0.0013,0.0056,0.0696,0.0689,3.0,3.0
0.05,0.7,-0.2695,0.5385,0.505,0.0,0.1385,0.505,0.0,0.1385,0.7182,-0.256,0.504,0.4994,-0.0039,0.1399,0.5068,-0.0076,0.1389,0.0473,0.0494,0.0294,1.0,1.0,0.0,0.1986,-0.3284,0.0787,0.2493,-0.5573,0.5227,0.2859,-0.002,0.0169,-0.0017,-0.0013,0.0056,-0.0052,0.0038,3.0,3.0
0.05,0.7,-0.2824,0.5385,0.505,0.0,0.1385,0.505,0.0,0.1385,0.7271,-0.244,0.5041,0.5066,0.0039,0.1399,0.5054,0.003,0.14,0.0669,0.0442,0.0193,1.0,1.0,0.0,0.1966,-0.3115,0.077,0.2479,-0.5517,0.5175,0.2897,-0.0025,0.0023,-0.0004,-0.0025,0.0055,-0.0052,-0.0078,3.0,3.0
0.05,0.7,-0.2947,0.5385,0.505,0.0,0.1385,0.505,0.0,0.1385,0.733,-0.2436,0.5019,0.5055,0.0023,0.1397,0.5058,0.001,0.1396,0.0819,0.0424,0.0166,1.0,1.0,0.0,0.1941,-0.3092,0.0766,0.2454,-0.5462,0.5123,0.282,-0.0023,0.0049,-0.0006,-0.0022,0.0055,-0.0051,-0.0057,3.0,3.0
0.05,0.7,-0.3063,0.5385,0.505,0.0,0.1385,0.505,0.0,0.1385,0.7393,-0.241,0.5002,0.5057,0.0025,0.1396,0.5057,0.0012,0.1396,0.0989,0.0403,0.0147,1.0,1.0,0.0,0.1918,-0.3043,0.0759,0.2431,-0.5407,0.5072,0.2763,-0.0023,0.0044,-0.0006,-0.0023,0.0054,-0.0051,-0.006,3.0,3.0
0.05,0.7,-0.3172,0.5385,0.505,0.0,0.1385,0.505,0.0,0.1385,0.7454,-0.2388,0.4984,0.5057,0.0023,0.1396,0.5057,0.0011,0.1395,0.1151,0.0384,0.0128,1.0,1.0,0.0,0.1895,-0.2999,0.0754,0.2409,-0.5353,0.5021,0.2702,-0.0023,0.0044,-0.0005,-0.0022,0.0054,-0.005,-0.0059,3.0,3.0
0.05,0.7,-0.3274,0.5385,0.505,0.0,0.1385,0.505,0.0,0.1385,0.7514,-0.2364,0.4965,0.5057,0.0022,0.1395,0.5056,0.001,0.1395,0.1309,0.0364,0.0109,1.0,1.0,0.0,0.1872,-0.2955,0.0749,0.2387,-0.53,0.4971,0.2644,-0.0023,0.0044,-0.0005,-0.0022,0.0053,-0.005,-0.0058,3.0,3.0
0.05,0.7,-0.3369,0.5385,0.505,0.0,0.1385,0.505,0.0,0.1385,0.7572,-0.2341,0.4946,0.5057,0.0021,0.1394,0.5056,0.0009,0.1394,0.1459,0.0344,0.009,1.0,1.0,0.0,0.185,-0.2911,0.0744,0.2365,-0.5247,0.4921,0.2586,-0.0022,0.0043,-0.0004,-0.0021,0.0052,-0.0049,-0.0058,3.0,3.0
0.05,0.7,-0.3456,0.5385,0.505,0.0,0.1385,0.505,0.0,0.1385,0.7628,-0.2316,0.4926,0.5057,0.002,0.1393,0.5056,0.0008,0.1393,0.1601,0.0325,0.0072,1.0,1.0,0.0,0.1827,-0.2868,0.074,0.2343,-0.5194,0.4872,0.2528,-0.0022,0.0043,-0.0004,-0.0021,0.0052,-0.0049,-0.0057,3.0,3.0
0.05,0.7,-0.3537,0.5385,0.505,0.0,0.1385,0.505,0.0,0.1385,0.7683,-0.2292,0.4906,0.5057,0.0019,0.1393,0.5056,0.0007,0.1393,0.1735,0.0305,0.0053,1.0,1.0,0.0,0.1805,-0.2826,0.0736,0.2322,-0.5142,0.4823,0.2471,-0.0022,0.0042,-0.0003,-0.0021,0.0051,-0.0048,-0.0056,3.0,3.0
0.05,0.7,-0.361,0.5385,0.505,0.0,0.1385,0.505,0.0,0.1385,0.7735,-0.2266,0.4885,0.5057,0.0018,0.1392,0.5056,0.0006,0.1392,0.1862,0.0285,0.0037,1.0,1.0,0.0,0.1783,-0.2784,0.0733,0.2302,-0.5091,0.4775,0.2415,-0.0022,0.0042,-0.0003,-0.002,0.0051,-0.0048,-0.0056,3.0,3.0
0.05,0.7,-0.3676,0.5385,0.505,0.0,0.1385,0.505,0.0,0.1385,0.7785,-0.2241,0.4863,0.5057,0.0017,0.1391,0.5055,0.0005,0.1391,0.198,0.0265,0.0,1.0,1.0,0.0,0.1761,-0.2742,0.0731,0.2281,-0.504,0.4727,0.2359,-0.0017,0.0041,-0.0003,-0.0016,0.005,-0.0047,-0.0042,3.0,3.0
0.05,0.7,-0.3735,0.5385,0.505,0.0,0.1385,0.505,0.0,0.1385,0.7829,-0.2214,0.4847,0.5056,0.0015,0.1395,0.5055,0.001,0.1395,0.2087,0.0245,0.0038,1.0,1.0,0.0,0.1744,-0.2701,0.0727,0.2265,-0.499,0.468,0.2317,-0.0027,0.004,-0.0001,-0.0025,0.005,-0.0047,-0.0067,3.0,3.0
0.05,0.7,-0.3787,0.5385,0.505,0.0,0.1385,0.505,0.0,0.1385,0.7878,-0.2188,0.4815,0.5058,0.0014,0.1389,0.5056,0.0004,0.1389,0.2193,0.0226,0.0033,1.0,1.0,0.0,0.1717,-0.2661,0.0727,0.224,-0.494,0.4633,0.225,-0.002,0.0041,-0.0,-0.0018,0.0049,-0.0046,-0.0055,3.0,3.0
0.05,0.7,-0.3833,0.5385,0.505,0.0,0.1385,0.505,0.0,0.1385,0.7919,-0.2159,0.4792,0.5057,0.0014,0.139,0.5055,0.0003,0.139,0.2288,0.0205,0.0052,1.0,1.0,0.0,0.1697,-0.262,0.0726,0.2222,-0.489,0.4587,0.2196,-0.0021,0.0039,-0.0001,-0.0019,0.0049,-0.0046,-0.0053,3.0,3.0
0.05,0.7,-0.3872,0.5385,0.505,0.0,0.1385,0.505,0.0,0.1385,0.7959,-0.2131,0.4766,0.5057,0.0012,0.1389,0.5055,0.0002,0.1389,0.2377,0.0185,0.007,1.0,0.0,0.0,0.1675,-0.258,0.0726,0.2203,-0.4841,0.4541,0.2142,0.006,-0.2211,0.0388,0.0003,0.0048,0.2248,0.2241,3.0,3.0
0.05,0.7,-0.3904,0.5385,0.505,0.0,0.1385,0.505,0.0,0.1385,0.7309,-0.3912,0.4703,0.4904,-0.0666,0.1378,0.5062,-0.0279,0.137,0.0859,0.1483,0.0733,1.0,1.0,0.0,0.1735,-0.4791,0.1113,0.2206,-0.4793,0.5673,0.4383,-0.0055,0.15,-0.0176,0.0015,0.0048,-0.0057,-0.08,3.0,3.0
0.05,0.7,-0.3932,0.5385,0.505,0.0,0.1385,0.505,0.0,0.1385,0.7825,-0.2708,0.4768,0.5195,0.0142,0.139,0.5053,0.0197,0.1404,0.1773,0.0286,0.0497,1.0,1.0,0.0,0.168,-0.3291,0.0937,0.2221,-0.4745,0.5616,0.3583,-0.003,-0.0172,-0.0009,-0.0051,0.0047,-0.0056,-0.0328,3.0,3.0
0.05,0.7,-0.3953,0.5385,0.505,0.0,0.1385,0.505,0.0,0.1385,0.7812,-0.2864,0.4695,0.5042,-0.0009,0.1385,0.506,-0.0025,0.1384,0.1683,0.0212,0.0066,1.0,1.0,0.0,0.165,-0.3463,0.0928,0.217,-0.4698,0.556,0.3256,-0.0015,0.0092,-0.0,-0.0008,0.0047,-0.0056,-0.0033,3.0,3.0
0.05,0.7,-0.397,0.5385,0.505,0.0,0.1385,0.505,0.0,0.1385,0.7852,-0.2789,0.4683,0.506,0.0017,0.139,0.5053,0.001,0.1391,0.1787,0.0172,0.007,0.0,1.0,0.0,0.1635,-0.337,0.0928,0.2162,-0.4651,0.5504,0.3223,0.0527,-0.1557,0.0105,0.0448,-0.0964,0.1566,0.155,3.0,3.0
0.05,0.7,-0.3982,0.5385,0.505,0.0,0.1385,0.505,0.0,0.1385,0.6936,-0.3977,0.5351,0.4869,-0.0707,0.1484,0.4941,-0.0169,0.1506,0.0031,0.1651,0.0743,1.0,1.0,1.0,0.2162,-0.4928,0.1034,0.261,-0.5615,0.5673,0.4773,-0.0155,0.1048,-0.0169,-0.0157,0.0056,-0.0057,-0.0048,2.0,3.0
0.05,0.7,-0.3991,0.5385,0.505,0.0,0.1385,0.505,0.0,0.1385,0.748,-0.3211,0.5216,0.5226,-0.0137,0.1359,0.5077,0.0373,0.1397,0.1072,0.0721,0.0981,1.0,1.0,1.0,0.2006,-0.388,0.0865,0.2453,-0.5559,0.5616,0.4725,0.0007,-0.0161,0.0037,0.0009,0.0056,-0.0056,-0.0047,2.0,3.0
0.05,0.7,-0.3996,0.5385,0.505,0.0,0.1385,0.505,0.0,0.1385,0.7413,-0.3331,0.5212,0.5081,-0.0276,0.1396,0.5048,0.0263,0.1421,0.0916,0.0857,0.0749,1.0,1.0,0.0,0.2014,-0.404,0.0902,0.2462,-0.5503,0.556,0.4678,-0.0043,0.0709,-0.0138,-0.0041,0.0055,-0.0056,-0.1326,3.0,3.0
0.05,0.7,-0.3999,0.5385,0.505,0.0,0.1385,0.505,0.0,0.1385,0.7653,-0.277,0.519,0.5119,0.0088,0.1399,0.5055,0.0103,0.1407,0.1634,0.0527,0.0359,1.0,1.0,0.0,0.1971,-0.3331,0.0764,0.2422,-0.5448,0.5504,0.3352,-0.0024,-0.0047,0.0014,-0.0024,0.0054,-0.0055,-0.0175,3.0,3.0
0.05,0.7,-0.4,0.5385,0.505,0.0,0.1385,0.505,0.0,0.1385,0.7658,-0.2809,0.5148,0.5049,0.002,0.1401,0.5059,0.0005,0.14,0.1598,0.0496,0.0248,1.0,1.0,0.0,0.1948,-0.3378,0.0778,0.2398,-0.5393,0.5449,0.3177,-0.0023,0.0065,-0.0001,-0.002,0.0054,-0.0054,-0.005,3.0,3.0
0.05,0.7,-0.4,0.5385,0.505,0.0,0.1385,0.505,0.0,0.1385,0.7693,-0.2756,0.5116,0.5058,0.0029,0.14,0.5057,0.0018,0.14,0.1671,0.0466,0.022,1.0,1.0,0.0,0.1925,-0.3313,0.0777,0.2378,-0.534,0.5395,0.3127,-0.0023,0.0045,0.0001,-0.002,0.0053,-0.0054,-0.0066,3.0,3.0
0.05,0.7,-0.4,0.5385,0.505,0.0,0.1385,0.505,0.0,0.1385,0.7721,-0.2719,0.5083,0.5057,0.0026,0.1399,0.5057,0.0014,0.1398,0.1725,0.0438,0.0192,1.0,1.0,0.0,0.1902,-0.3268,0.0778,0.2358,-0.5286,0.5341,0.3061,-0.0023,0.0048,0.0001,-0.002,0.0053,-0.0053,-0.0062,3.0,3.0
0.05,0.7,-0.4,0.5384,0.505,0.0,0.1385,0.505,0.0,0.1385,0.775,-0.268,0.505,0.5057,0.0025,0.1397,0.5057,0.0013,0.1397,0.1782,0.0411,0.0165,1.0,1.0,0.0,0.1879,-0.322,0.0778,0.2338,-0.5233,0.5287,0.2999,-0.0023,0.0047,0.0,-0.002,0.0052,-0.0053,-0.0062,3.0,3.0
0.05,0.7,-0.4,0.5381,0.505,0.0,0.1385,0.505,0.0,0.1385,0.7778,-0.2641,0.5016,0.5057,0.0023,0.1396,0.5056,0.0012,0.1396,0.1838,0.0385,0.0139,1.0,1.0,0.0,0.1856,-0.3173,0.0779,0.2318,-0.5181,0.5234,0.2937,-0.0022,0.0046,-0.0,-0.002,0.0052,-0.0052,-0.0061,3.0,3.0
0.05,0.7,-0.4,0.5376,0.505,0.0,0.1385,0.505,0.0,0.1385,0.7804,-0.2603,0.4983,0.5057,0.0022,0.1395,0.5056,0.0011,0.1395,0.1893,0.036,0.0115,1.0,1.0,0.0,0.1834,-0.3127,0.0778,0.2298,-0.5129,0.5182,0.2875,-0.0022,0.0046,-0.0001,-0.002,0.0051,-0.0052,-0.0061,3.0,3.0
0.05,0.7,-0.4,0.5367,0.505,0.0,0.1385,0.505,0.0,0.1385,0.7829,-0.2565,0.4949,0.5057,0.002,0.1394,0.5056,0.0009,0.1394,0.1947,0.0336,0.0092,1.0,1.0,0.0,0.1812,-0.3081,0.0777,0.2278,-0.5078,0.513,0.2814,-0.0022,0.0045,-0.0002,-0.002,0.0051,-0.0051,-0.006,3.0,3.0
0.05,0.7,-0.4,0.5355,0.505,0.0,0.1385,0.505,0.0,0.1385,0.7852,-0.2528,0.4914,0.5057,0.0019,0.1393,0.5056,0.0008,0.1393,0.2,0.0314,0.0071,1.0,1.0,0.0,0.179,-0.3036,0.0775,0.2257,-0.5027,0.5079,0.2754,-0.0022,0.0044,-0.0004,-0.002,0.005,-0.0051,-0.0059,3.0,3.0
0.05,0.7,-0.4,0.5338,0.505,0.0,0.1385,0.505,0.0,0.1385,0.7873,-0.2491,0.4879,0.5057,0.0018,0.1393,0.5056,0.0007,0.1393,0.2051,0.0294,0.0053,1.0,1.0,0.0,0.1768,-0.2992,0.0771,0.2237,-0.4977,0.5028,0.2695,-0.0021,0.0044,-0.0005,-0.0021,0.005,-0.005,-0.0059,3.0,3.0
0.05,0.7,-0.4,0.5316,0.505,0.0,0.1385,0.505,0.0,0.1385,0.7892,-0.2454,0.4842,0.5057,0.0017,0.1392,0.5055,0.0006,0.1392,0.2101,0.0277,0.0037,1.0,1.0,0.0,0.1747,-0.2948,0.0766,0.2216,-0.4927,0.4978,0.2636,-0.0021,0.0043,-0.0007,-0.0021,0.0049,-0.005,-0.0058,3.0,3.0
0.05,0.7,-0.4,0.5289,0.505,0.0,0.1385,0.505,0.0,0.1385,0.7909,-0.2418,0.4805,0.5057,0.0016,0.1391,0.5055,0.0006,0.1391,0.2148,0.0261,0.0,1.0,1.0,0.0,0.1726,-0.2905,0.0758,0.2195,-0.4878,0.4928,0.2578,-0.0016,0.0042,-0.001,-0.0017,0.0049,-0.0049,-0.0044,3.0,3.0
0.05,0.7,-0.4,0.5256,0.505,0.0,0.1385,0.505,0.0,0.1385,0.7919,-0.2382,0.4774,0.5056,0.0015,0.1395,0.5055,0.001,0.1396,0.2191,0.0247,0.0038,1.0,1.0,0.0,0.1709,-0.2863,0.0748,0.2179,-0.4829,0.4879,0.2534,-0.0026,0.0041,-0.0011,-0.0027,0.0048,-0.0049,-0.007,3.0,3.0
0.05,0.7,-0.4,0.5217,0.505,0.0,0.1385,0.505,0.0,0.1385,0.7934,-0.2348,0.4727,0.5058,0.0014,0.1389,0.5056,0.0004,0.1389,0.2237,0.0238,0.0,1.0,1.0,0.0,0.1683,-0.2822,0.0737,0.2152,-0.4781,0.483,0.2464,-0.0016,0.0042,-0.0014,-0.0018,0.0048,-0.0048,-0.0044,3.0,3.0
0.05,0.7,-0.4,0.5172,0.505,0.0,0.1385,0.505,0.0,0.1385,0.7939,-0.2311,0.4693,0.5056,0.0014,0.1393,0.5054,0.0009,0.1394,0.2277,0.0228,0.0036,1.0,1.0,0.0,0.1667,-0.278,0.0724,0.2134,-0.4733,0.4782,0.242,-0.0024,0.004,-0.0016,-0.0026,0.0047,-0.0048,-0.0068,3.0,3.0
0.05,0.7,-0.4,0.512,0.505,0.0,0.1385,0.505,0.0,0.1385,0.7947,-0.2278,0.4646,0.5058,0.0013,0.1389,0.5055,0.0004,0.1389,0.2318,0.0225,0.0,1.0,1.0,0.0,0.1643,-0.274,0.0708,0.2108,-0.4686,0.4734,0.2352,-0.0016,0.004,-0.0018,-0.0019,0.0047,-0.0047,-0.0044,3.0,3.0
0.05,0.7,-0.4,0.5061,0.505,0.0,0.1385,0.505,0.0,0.1385,0.7947,-0.2242,0.461,0.5056,0.0013,0.1393,0.5054,0.0009,0.1393,0.2354,0.0221,0.0036,0.0,1.0,0.0,0.1627,-0.27,0.069,0.2089,-0.4639,0.4687,0.2308,0.0379,-0.227,0.0275,0.0311,-0.0634,0.2298,0.2279,3.0,3.0
0.05,0.7,-0.4,0.4995,0.505,0.0,0.1385,0.505,0.0,0.1385,0.6964,-0.4008,0.5013,0.4833,-0.0736,0.1451,0.4987,-0.0268,0.1462,0.0042,0.1708,0.0888,1.0,1.0,0.0,0.2006,-0.497,0.0965,0.24,-0.5273,0.5673,0.4588,-0.0122,0.1637,-0.0311,-0.0149,0.0053,-0.0057,-0.095,3.0,3.0
0.05,0.7,-0.4,0.4922,0.505,0.0,0.1385,0.505,0.0,0.1385,0.7607,-0.2766,0.4916,0.5224,0.0166,0.1371,0.5073,0.0226,0.139,0.1642,0.0643,0.0645,1.0,1.0,0.0,0.1884,-0.3333,0.0654,0.2251,-0.522,0.5616,0.3638,0.0007,-0.0154,0.0013,0.0002,0.0052,-0.0056,-0.0362,3.0,3.0
0.05,0.7,-0.4,0.4841,0.505,0.0,0.1385,0.505,0.0,0.1385,0.7523,-0.2878,0.4897,0.5032,0.0014,0.1412,0.5054,-0.0005,0.1409,0.1489,0.0592,0.0362,1.0,1.0,0.0,0.1891,-0.3487,0.0667,0.2253,-0.5168,0.556,0.3276,-0.0028,0.0074,-0.0038,-0.0038,0.0052,-0.0056,-0.0031,3.0,3.0
0.05,0.7,-0.4,0.4754,0.505,0.0,0.1385,0.505,0.0,0.1385,0.7541,-0.2819,0.4837,0.506,0.0034,0.1403,0.5058,0.0024,0.1403,0.1572,0.0602,0.037,1.0,1.0,0.0,0.1863,-0.3413,0.0629,0.2215,-0.5117,0.5504,0.3245,-0.0018,0.0043,-0.0034,-0.0028,0.0051,-0.0055,-0.007,3.0,3.0
0.05,0.7,-0.4,0.4659,0.505,0.0,0.1385,0.505,0.0,0.1385,0.7537,-0.2781,0.4788,0.5055,0.0031,0.1405,0.5056,0.002,0.1405,0.1625,0.0609,0.0378,1.0,1.0,0.0,0.1845,-0.337,0.0595,0.2187,-0.5065,0.5449,0.3175,-0.002,0.0045,-0.0038,-0.0032,0.0051,-0.0054,-0.0063,3.0,3.0
0.05,0.7,-0.4,0.4557,0.505,0.0,0.1385,0.505,0.0,0.1385,0.7533,-0.2742,0.4734,0.5056,0.0032,0.1405,0.5057,0.0021,0.1404,0.1684,0.0622,0.0392,1.0,1.0,0.0,0.1825,-0.3325,0.0557,0.2155,-0.5015,0.5395,0.3111,-0.0019,0.0045,-0.0041,-0.0031,0.005,-0.0054,-0.0063,3.0,3.0
0.05,0.7,-0.4,0.4448,0.505,0.0,0.1385,0.505,0.0,0.1385,0.7527,-0.2704,0.4682,0.5055,0.0032,0.1405,0.5057,0.0021,0.1405,0.1745,0.0638,0.041,1.0,1.0,0.0,0.1806,-0.328,0.0516,0.2124,-0.4965,0.5341,0.3048,-0.0019,0.0044,-0.0044,-0.0032,0.005,-0.0053,-0.0063,3.0,3.0
0.05,0.7,-0.4,0.4332,0.505,0.0,0.1385,0.505,0.0,0.1385,0.7519,-0.2666,0.4628,0.5055,0.0032,0.1406,0.5057,0.0022,0.1405,0.1809,0.0657,0.043,1.0,1.0,0.0,0.1788,-0.3236,0.0472,0.2091,-0.4915,0.5287,0.2985,-0.0018,0.0043,-0.0046,-0.0033,0.0049,-0.0053,-0.0062,3.0,3.0
0.05,0.7,-0.4,0.4209,0.505,0.0,0.1385,0.505,0.0,0.1385,0.7509,-0.263,0.4574,0.5055,0.0033,0.1407,0.5057,0.0022,0.1406,0.1878,0.068,0.0455,1.0,1.0,0.0,0.177,-0.3193,0.0426,0.2059,-0.4866,0.5234,0.2923,-0.0018,0.0042,-0.0049,-0.0033,0.0049,-0.0052,-0.0061,3.0,3.0
0.05,0.7,-0.4,0.408,0.505,0.0,0.1385,0.505,0.0,0.1385,0.7497,-0.2594,0.452,0.5055,0.0033,0.1407,0.5057,0.0023,0.1407,0.1951,0.0706,0.0483,1.0,1.0,0.0,0.1752,-0.3151,0.0377,0.2026,-0.4817,0.5182,0.2862,-0.0017,0.0041,-0.0052,-0.0033,0.0048,-0.0052,-0.0061,3.0,3.0
0.05,0.7,-0.4,0.3945,0.505,0.0,0.1385,0.505,0.0,0.1385,0.7484,-0.2559,0.4466,0.5055,0.0034,0.1408,0.5057,0.0024,0.1408,0.203,0.0735,0.0514,1.0,1.0,0.0,0.1735,-0.311,0.0325,0.1992,-0.4769,0.513,0.2801,-0.0017,0.0041,-0.0055,-0.0034,0.0048,-0.0051,-0.006,3.0,3.0
0.05,0.7,-0.4,0.3803,0.505,0.0,0.1385,0.505,0.0,0.1385,0.747,-0.2524,0.4413,0.5054,0.0035,0.1409,0.5057,0.0025,0.1408,0.2114,0.0768,0.0548,1.0,1.0,0.0,0.1718,-0.3069,0.027,0.1959,-0.4721,0.5079,0.2742,-0.0016,0.004,-0.0057,-0.0034,0.0047,-0.0051,-0.0059,3.0,3.0
0.05,0.7,-0.4,0.3656,0.505,0.0,0.1385,0.505,0.0,0.1385,0.7456,-0.2491,0.4359,0.5054,0.0036,0.141,0.5057,0.0026,0.141,0.2205,0.0803,0.0586,1.0,1.0,0.0,0.1702,-0.303,0.0212,0.1924,-0.4674,0.5028,0.2682,-0.0016,0.0039,-0.006,-0.0034,0.0047,-0.005,-0.0059,3.0,3.0
0.05,0.7,-0.4,0.3504,0.505,0.0,0.1385,0.505,0.0,0.1385,0.7442,-0.2459,0.4306,0.5054,0.0037,0.1412,0.5057,0.0027,0.1411,0.2302,0.0841,0.0627,0.0,1.0,0.0,0.1686,-0.2991,0.0152,0.189,-0.4627,0.4978,0.2624,-0.05,-0.2033,0.0427,-0.0422,0.0944,0.2103,0.2095,3.0,3.0
0.05,0.7,-0.4,0.3346,0.505,0.0,0.1385,0.505,0.0,0.1385,0.7073,-0.4003,0.3493,0.503,-0.0765,0.1247,0.5162,-0.0246,0.1262,0.0155,0.1879,0.0899,0.0,1.0,1.0,0.1187,-0.5024,0.058,0.1468,-0.3683,0.5673,0.4719,-0.0083,0.0708,-0.012,-0.0119,0.0518,0.1034,-0.0047,2.0,3.0
0.05,0.7,-0.4,0.3183,0.505,0.0,0.1385,0.505,0.0,0.1385,0.7293,-0.3451,0.3342,0.522,-0.0383,0.1357,0.5072,0.0104,0.1385,0.0781,0.1037,0.0441,0.0,1.0,0.0,0.1104,-0.4316,0.046,0.1349,-0.3166,0.5673,0.4672,-0.0066,-0.076,0.0046,-0.0086,0.0209,0.1704,0.052,3.0,3.0
0.05,0.7,-0.4,0.3016,0.505,0.0,0.1385,0.505,0.0,0.1385,0.7009,-0.4,0.3184,0.509,-0.0798,0.1352,0.5059,-0.0093,0.1382,0.0194,0.1858,0.0473,0.0,1.0,1.0,0.1038,-0.5076,0.0505,0.1262,-0.2957,0.5673,0.5192,-0.0092,0.0311,-0.0072,-0.0129,0.0255,0.1497,-0.0052,2.0,3.0
0.05,0.7,-0.4,0.2845,0.505,0.0,0.1385,0.505,0.0,0.1385,0.7138,-0.3769,0.3016,0.5207,-0.0629,0.1347,0.5071,0.0049,0.1379,0.0385,0.1518,0.0374,0.0,1.0,1.0,0.0946,-0.4765,0.0433,0.1133,-0.2702,0.5673,0.514,-0.0087,-0.0055,-0.0037,-0.0119,0.0262,0.152,-0.0051,2.0,3.0
0.05,0.7,-0.4,0.2671,0.505,0.0,0.1385,0.505,0.0,0.1385,0.712,-0.3801,0.2847,0.5166,-0.0664,0.1351,0.5066,-0.0002,0.1378,0.0352,0.1577,0.0327,0.0,1.0,1.0,0.0859,-0.4819,0.0396,0.1014,-0.244,0.5673,0.5088,-0.0093,0.007,-0.0049,-0.0128,0.027,0.1464,-0.0051,2.0,3.0
0.05,0.7,-0.4,0.2493,0.505,0.0,0.1385,0.505,0.0,0.1385,0.7151,-0.3743,0.2672,0.5179,-0.0629,0.1351,0.5068,0.0014,0.1375,0.0423,0.1499,0.0295,0.0,1.0,1.0,0.0766,-0.4749,0.0347,0.0886,-0.2169,0.5673,0.5038,-0.0095,0.0027,-0.0046,-0.0129,0.0279,0.1435,-0.005,2.0,3.0
0.05,0.7,-0.4,0.2313,0.505,0.0,0.1385,0.505,0.0,0.1385,0.7165,-0.3716,0.2494,0.5173,-0.0618,0.1352,0.5067,0.0007,0.1372,0.0458,0.147,0.0261,0.0,1.0,1.0,0.0672,-0.4723,0.0302,0.0758,-0.189,0.5673,0.4987,-0.0097,0.0041,-0.0047,-0.0132,0.0287,0.1398,-0.005,2.0,3.0
0.05,0.7,-0.4,0.213,0.505,0.0,0.1385,0.505,0.0,0.1385,0.7185,-0.3679,0.2313,0.5173,-0.0599,0.1353,0.5067,0.0008,0.137,0.0506,0.1425,0.0228,0.0,1.0,1.0,0.0574,-0.4681,0.0255,0.0626,-0.1604,0.5673,0.4937,-0.0099,0.0036,-0.0047,-0.0134,0.0293,0.1365,-0.0049,2.0,3.0
0.05,0.7,-0.4,0.1945,0.505,0.0,0.1385,0.505,0.0,0.1385,0.7202,-0.3647,0.2131,0.5171,-0.0583,0.1353,0.5067,0.0006,0.1367,0.055,0.1387,0.0195,0.0,1.0,1.0,0.0475,-0.4646,0.0208,0.0492,-0.131,0.5673,0.4888,-0.0101,0.0037,-0.0047,-0.0136,0.0299,0.1331,-0.0049,2.0,3.0
0.05,0.7,-0.4,0.1759,0.505,0.0,0.1385,0.505,0.0,0.1385,0.7219,-0.3613,0.1946,0.5169,-0.0567,0.1354,0.5067,0.0006,0.1365,0.0594,0.1348,0.0163,0.0,1.0,1.0,0.0374,-0.4609,0.016,0.0356,-0.1011,0.5673,0.4839,-0.0102,0.0036,-0.0047,-0.0137,0.0304,0.1297,-0.0048,2.0,3.0
0.05,0.7,-0.4,0.1572,0.505,0.0,0.1385,0.505,0.0,0.1385,0.7236,-0.3581,0.176,0.5167,-0.0551,0.1354,0.5066,0.0005,0.1363,0.0637,0.131,0.0133,0.0,1.0,1.0,0.0272,-0.4573,0.0113,0.0219,-0.0707,0.5673,0.4791,-0.0103,0.0036,-0.0047,-0.0138,0.0308,0.1265,-0.0048,2.0,3.0
0.05,0.7,-0.4,0.1385,0.505,0.0,0.1385,0.505,0.0,0.1385,0.7252,-0.3549,0.1573,0.5165,-0.0534,0.1355,0.5066,0.0005,0.136,0.068,0.1273,0.0106,0.0,1.0,1.0,0.0168,-0.4537,0.0066,0.0081,-0.0398,0.5673,0.4743,-0.0104,0.0035,-0.0046,-0.0138,0.0311,0.1232,-0.0047,2.0,3.0
0.05,0.7,-0.4,0.1197,0.505,0.0,0.1385,0.505,0.0,0.1385,0.7268,-0.3517,0.1385,0.5163,-0.0519,0.1355,0.5065,0.0005,0.1358,0.0722,0.1238,0.0087,0.0,1.0,1.0,0.0064,-0.4502,0.002,-0.0057,-0.0087,0.5673,0.4695,-0.0105,0.0035,-0.0046,-0.0138,0.0313,0.12,-0.0047,2.0,3.0
0.05,0.7,-0.4,0.1011,0.505,0.0,0.1385,0.505,0.0,0.1385,0.7284,-0.3486,0.1198,0.516,-0.0503,0.1355,0.5064,0.0005,0.1356,0.0764,0.1205,0.008,0.0,1.0,0.0,-0.004,-0.4467,-0.0026,-0.0196,0.0226,0.5673,0.4648,-0.0106,-0.0727,-0.0048,-0.0138,0.0314,0.1931,0.0715,3.0,3.0
0.05,0.7,-0.4,0.0825,0.505,0.0,0.1385,0.505,0.0,0.1385,0.7015,-0.4,0.1013,0.5106,-0.0877,0.1356,0.5056,-0.0098,0.1353,0.0235,0.2037,0.0283,0.0,1.0,1.0,-0.0146,-0.5195,-0.0074,-0.0334,0.054,0.5673,0.5364,-0.0101,0.0321,-0.0045,-0.0144,0.0323,0.1716,-0.0054,2.0,3.0
0.05,0.7,-0.4,0.064,0.505,0.0,0.1385,0.505,0.0,0.1385,0.7142,-0.3768,0.0823,0.5219,-0.0706,0.1359,0.5067,0.0044,0.1351,0.0407,0.1684,0.0171,0.0,1.0,1.0,-0.0247,-0.4874,-0.0119,-0.0478,0.0862,0.5673,0.531,-0.0101,-0.0063,-0.0049,-0.0139,0.0313,0.1745,-0.0053,2.0,3.0
0.05,0.7,-0.4,0.0457,0.505,0.0,0.1385,0.505,0.0,0.1385,0.7121,-0.3808,0.064,0.5175,-0.0742,0.136,0.5061,-0.0007,0.1349,0.0362,0.1765,0.0159,0.0,1.0,1.0,-0.0348,-0.4937,-0.0168,-0.0618,0.1175,0.5673,0.5257,-0.0099,0.0077,-0.0045,-0.0138,0.0311,0.1684,-0.0053,2.0,3.0
0.05,0.7,-0.4,0.0277,0.505,0.0,0.1385,0.505,0.0,0.1385,0.7152,-0.3749,0.0456,0.5187,-0.0702,0.1362,0.5062,0.0013,0.1347,0.0428,0.1688,0.0196,0.0,1.0,1.0,-0.0447,-0.486,-0.0213,-0.0756,0.1486,0.5673,0.5204,-0.0098,0.0025,-0.0045,-0.0135,0.0306,0.1657,-0.0052,2.0,3.0
0.05,0.7,-0.4,0.0099,0.505,0.0,0.1385,0.505,0.0,0.1385,0.7164,-0.3727,0.0276,0.5179,-0.069,0.1363,0.5061,0.0007,0.1346,0.0453,0.1672,0.023,0.0,1.0,1.0,-0.0545,-0.4835,-0.0258,-0.0891,0.1793,0.5673,0.5152,-0.0096,0.0043,-0.0043,-0.0132,0.0301,0.1617,-0.0052,2.0,3.0
0.05,0.7,-0.4,-0.0076,0.505,0.0,0.1385,0.505,0.0,0.1385,0.7182,-0.3693,0.0098,0.5178,-0.0667,0.1365,0.5061,0.0011,0.1344,0.0494,0.1636,0.0267,0.0,1.0,1.0,-0.0641,-0.4792,-0.0301,-0.1023,0.2094,0.5673,0.5101,-0.0094,0.0036,-0.0042,-0.0129,0.0295,0.1582,-0.0051,2.0,3.0
0.05,0.7,-0.4,-0.0247,0.505,0.0,0.1385,0.505,0.0,0.1385,0.7197,-0.3664,-0.0076,0.5174,-0.0649,0.1366,0.506,0.0011,0.1343,0.053,0.1609,0.0302,0.0,1.0,1.0,-0.0735,-0.4756,-0.0342,-0.1152,0.2389,0.5673,0.505,-0.0092,0.0038,-0.004,-0.0125,0.0288,0.1546,-0.005,2.0,3.0
0.05,0.7,-0.4,-0.0413,0.505,0.0,0.1385,0.505,0.0,0.1385,0.7227,-0.3641,-0.0164,0.5171,-0.0629,0.1417,0.506,0.0013,0.1388,0.0612,0.16,0.0363,0.0,1.0,1.0,-0.0827,-0.4718,-0.0382,-0.1173,0.2677,0.5673,0.4999,-0.0135,0.0043,-0.0061,-0.0184,0.0244,0.1513,-0.005,2.0,3.0
0.05,0.7,-0.4,-0.0576,0.505,0.0,0.1385,0.505,0.0,0.1385,0.7263,-0.3616,-0.0268,0.5172,-0.0609,0.1444,0.5063,0.0016,0.141,0.0693,0.1589,0.042,0.0,1.0,1.0,-0.0962,-0.4675,-0.0443,-0.1173,0.292,0.5673,0.4949,-0.0168,0.0042,-0.0075,-0.0228,0.0246,0.1483,-0.0049,2.0,3.0
0.05,0.7,-0.4,-0.0734,0.505,0.0,0.1385,0.505,0.0,0.1385,0.7295,-0.3588,-0.0397,0.5172,-0.059,0.1455,0.5065,0.0018,0.1419,0.0755,0.1578,0.0461,0.0,1.0,1.0,-0.113,-0.4633,-0.0519,-0.1173,0.3166,0.5673,0.49,-0.0185,0.0044,-0.0081,-0.025,0.0253,0.1455,-0.0049,2.0,3.0
0.05,0.7,-0.4,-0.0886,0.505,0.0,0.1385,0.505,0.0,0.1385,0.7322,-0.3557,-0.0538,0.517,-0.0572,0.1459,0.5066,0.002,0.1422,0.0806,0.1568,0.0495,0.0,1.0,1.0,-0.1316,-0.4589,-0.06,-0.1173,0.3419,0.5673,0.4851,-0.0192,0.0045,-0.0082,-0.0257,0.0254,0.1429,-0.0049,2.0,3.0
0.05,0.7,-0.4,-0.1034,0.505,0.0,0.1385,0.505,0.0,0.1385,0.7345,-0.3526,-0.0686,0.5168,-0.0554,0.146,0.5066,0.0022,0.1421,0.0849,0.1558,0.0524,0.0,1.0,1.0,-0.1508,-0.4545,-0.0682,-0.1173,0.3673,0.5673,0.4802,-0.0193,0.0045,-0.0081,-0.0256,0.0251,0.1404,-0.0048,2.0,3.0
0.05,0.7,-0.4,-0.1175,0.505,0.0,0.1385,0.505,0.0,0.1385,0.7366,-0.3493,-0.0835,0.5165,-0.0536,0.1459,0.5065,0.0024,0.1418,0.0887,0.1549,0.0551,0.0,1.0,1.0,-0.17,-0.45,-0.0763,-0.1173,0.3925,0.5673,0.4754,-0.0189,0.0046,-0.0077,-0.025,0.0246,0.1379,-0.0048,2.0,3.0
0.05,0.7,-0.4,-0.131,0.505,0.0,0.1385,0.505,0.0,0.1385,0.7385,-0.3461,-0.0982,0.5161,-0.0519,0.1456,0.5064,0.0026,0.1414,0.0924,0.1541,0.0576,0.0,1.0,1.0,-0.1889,-0.4454,-0.084,-0.1173,0.417,0.5673,0.4707,-0.0182,0.0046,-0.0073,-0.024,0.0238,0.1355,-0.0047,2.0,3.0
0.05,0.7,-0.4,-0.144,0.505,0.0,0.1385,0.505,0.0,0.1385,0.7401,-0.3429,-0.1126,0.5158,-0.0502,0.1452,0.5063,0.0029,0.141,0.0959,0.1534,0.0599,0.0,1.0,0.0,-0.2071,-0.4409,-0.0913,-0.1173,0.4408,0.5673,0.466,-0.0212,-0.0848,-0.0253,-0.0275,0.0289,0.2247,0.087,3.0,3.0
0.05,0.7,-0.4,-0.1562,0.505,0.0,0.1385,0.505,0.0,0.1385,0.7096,-0.4039,-0.1218,0.5092,-0.0921,0.1493,0.5059,-0.008,0.1422,0.0432,0.2508,0.0883,1.0,1.0,1.0,-0.2284,-0.5256,-0.1166,-0.1173,0.4696,0.5673,0.553,-0.0046,0.1398,0.0184,-0.011,-0.0047,-0.0057,-0.0055,2.0,3.0
0.05,0.7,-0.4,-0.1678,0.505,0.0,0.1385,0.505,0.0,0.1385,0.7578,-0.302,-0.137,0.5267,-0.0257,0.1416,0.5025,0.056,0.135,0.1472,0.102,0.1675,0.0,1.0,1.0,-0.233,-0.3858,-0.0981,-0.1173,0.4649,0.5616,0.5475,-0.0257,-0.1466,-0.0358,-0.0277,0.0411,0.2331,-0.0055,2.0,3.0
0.05,0.7,-0.4,-0.1787,0.505,0.0,0.1385,0.505,0.0,0.1385,0.708,-0.4099,-0.1443,0.5028,-0.0963,0.148,0.5064,-0.0159,0.1415,0.0439,0.2648,0.1037,1.0,1.0,1.0,-0.2587,-0.5324,-0.1339,-0.1173,0.5061,0.5673,0.542,-0.0017,0.1579,0.0265,-0.0076,-0.0051,-0.0057,-0.0054,2.0,3.0
0.05,0.7,-0.4,-0.1889,0.505,0.0,0.1385,0.505,0.0,0.1385,0.7612,-0.294,-0.1602,0.5276,-0.0211,0.1409,0.5024,0.0566,0.134,0.1573,0.0979,0.1704,1.0,1.0,1.0,-0.2604,-0.3745,-0.1074,-0.1173,0.501,0.5616,0.5366,-0.0008,-0.0349,-0.0162,-0.0035,-0.005,-0.0056,-0.0054,2.0,3.0
0.05,0.7,-0.4,-0.1984,0.505,0.0,0.1385,0.505,0.0,0.1385,0.7545,-0.3209,-0.1593,0.5094,-0.0443,0.1394,0.504,0.037,0.1352,0.1261,0.1339,0.1159,1.0,1.0,1.0,-0.2613,-0.4094,-0.1236,-0.1173,0.496,0.556,0.5312,0.0011,0.0159,-0.0027,-0.002,-0.005,-0.0056,-0.0053,2.0,3.0
0.05,0.7,-0.4,-0.2071,0.505,0.0,0.1385,0.505,0.0,0.1385,0.7627,-0.3097,-0.1611,0.5141,-0.0391,0.1392,0.5031,0.042,0.1351,0.1436,0.1186,0.1265,1.0,1.0,1.0,-0.2602,-0.3934,-0.1263,-0.1173,0.491,0.5504,0.5259,0.0015,0.0017,-0.0048,-0.0006,-0.0049,-0.0055,-0.0053,2.0,3.0
0.05,0.7,-0.4,-0.2152,0.505,0.0,0.1385,0.505,0.0,0.1385,0.7668,-0.3093,-0.1613,0.5129,-0.0413,0.1388,0.5033,0.0404,0.1355,0.1489,0.1197,0.1203,1.0,1.0,1.0,-0.2587,-0.3918,-0.1311,-0.1173,0.4861,0.5449,0.5206,0.002,0.0054,-0.0034,0.0,-0.0049,-0.0054,-0.0052,2.0,3.0
0.05,0.7,-0.4,-0.2225,0.505,0.0,0.1385,0.505,0.0,0.1385,0.7718,-0.306,-0.1614,0.5132,-0.0414,0.1387,0.5033,0.0406,0.136,0.1576,0.117,0.1197,1.0,1.0,1.0,-0.2567,-0.3864,-0.1345,-0.1172,0.4813,0.5395,0.5154,0.0021,0.0042,-0.0031,0.0005,-0.0048,-0.0054,-0.0052,2.0,3.0
0.05,0.7,-0.4,-0.2291,0.505,0.0,0.1385,0.505,0.0,0.1385,0.7765,-0.3036,-0.1608,0.5131,-0.0421,0.1389,0.5033,0.0404,0.1366,0.1655,0.1161,0.1182,1.0,1.0,1.0,-0.2546,-0.3822,-0.1376,-0.1167,0.4764,0.5341,0.5103,0.002,0.0044,-0.0027,0.0005,-0.0048,-0.0053,-0.0051,2.0,3.0
0.05,0.7,-0.4,-0.235,0.505,0.0,0.1385,0.505,0.0,0.1385,0.781,-0.3011,-0.1601,0.5132,-0.0425,0.1389,0.5033,0.0403,0.137,0.1734,0.1153,0.1176,1.0,1.0,1.0,-0.2526,-0.3778,-0.1402,-0.1162,0.4717,0.5287,0.5052,0.002,0.0042,-0.0023,0.0007,-0.0047,-0.0053,-0.0051,2.0,3.0
0.05,0.7,-0.4,-0.2402,0.505,0.0,0.1385,0.505,0.0,0.1385,0.7852,-0.2986,-0.1592,0.5132,-0.043,0.1389,0.5033,0.0402,0.1375,0.181,0.1149,0.1172,0.0,1.0,1.0,-0.2505,-0.3736,-0.1425,-0.1155,0.467,0.5234,0.5001,-0.0626,-0.1095,-0.0095,-0.0547,0.118,0.2267,-0.005,2.0,3.0
0.05,0.7,-0.4,-0.2448,0.505,0.0,0.1385,0.505,0.0,0.1385,0.7401,-0.3842,-0.1988,0.5082,-0.0747,0.1462,0.5087,-0.0102,0.1405,0.0745,0.2258,0.0969,1.0,1.0,1.0,-0.3131,-0.4831,-0.1521,-0.1173,0.5802,0.5673,0.4951,0.0002,0.1297,0.019,-0.0096,-0.0058,-0.0057,-0.005,2.0,3.0
0.05,0.7,-0.4,-0.2487,0.505,0.0,0.1385,0.505,0.0,0.1385,0.7759,-0.282,-0.2099,0.5224,-0.0154,0.141,0.5029,0.0473,0.1353,0.1781,0.0907,0.1445,1.0,1.0,1.0,-0.3129,-0.3534,-0.133,-0.1173,0.5744,0.5616,0.4902,-0.0016,-0.0295,-0.0128,-0.0025,-0.0057,-0.0056,-0.0049,2.0,3.0
0.05,0.7,-0.4,-0.252,0.505,0.0,0.1385,0.505,0.0,0.1385,0.7693,-0.3049,-0.2091,0.5088,-0.035,0.1385,0.5052,0.031,0.1351,0.1505,0.1189,0.0998,1.0,1.0,1.0,-0.3145,-0.3829,-0.1459,-0.1173,0.5686,0.556,0.4853,0.0022,0.0138,0.0004,0.0005,-0.0057,-0.0056,-0.0049,2.0,3.0
0.05,0.7,-0.4,-0.2547,0.505,0.0,0.1385,0.505,0.0,0.1385,0.7749,-0.2945,-0.2088,0.5126,-0.0306,0.1383,0.5042,0.0353,0.1348,0.1644,0.1062,0.109,1.0,1.0,1.0,-0.3124,-0.3691,-0.1454,-0.1168,0.5629,0.5504,0.4804,0.0024,0.0013,-0.0015,0.0018,-0.0056,-0.0055,-0.0048,2.0,3.0
0.05,0.7,-0.4,-0.2568,0.505,0.0,0.1385,0.505,0.0,0.1385,0.7776,-0.2941,-0.2063,0.5115,-0.0327,0.1386,0.5044,0.034,0.1354,0.1675,0.1077,0.1042,1.0,1.0,1.0,-0.31,-0.3678,-0.1469,-0.115,0.5573,0.5449,0.4756,0.0021,0.0048,-0.0004,0.0014,-0.0056,-0.0054,-0.0048,2.0,3.0
0.05,0.7,-0.4,-0.2585,0.505,0.0,0.1385,0.505,0.0,0.1385,0.7809,-0.2908,-0.2044,0.5119,-0.0328,0.1386,0.5043,0.0344,0.1356,0.1735,0.1054,0.1042,1.0,1.0,1.0,-0.3078,-0.3629,-0.1474,-0.1136,0.5517,0.5395,0.4708,0.0022,0.0037,-0.0004,0.0016,-0.0055,-0.0054,-0.0047,2.0,3.0
0.05,0.7,-0.4,-0.2597,0.505,0.0,0.1385,0.505,0.0,0.1385,0.7838,-0.2883,-0.2021,0.5118,-0.0334,0.1387,0.5043,0.0343,0.136,0.1785,0.1046,0.1031,1.0,1.0,0.0,-0.3056,-0.3592,-0.1478,-0.112,0.5462,0.5341,0.4661,0.0075,0.0962,0.0296,0.0048,-0.0055,-0.0053,-0.1994,3.0,3.0
0.05,0.7,-0.4,-0.2606,0.505,0.0,0.1385,0.505,0.0,0.1385,0.8095,-0.2129,-0.1999,0.5123,0.0116,0.1386,0.5031,0.0129,0.1372,0.2719,0.0457,0.0376,1.0,1.0,0.0,-0.2981,-0.263,-0.1182,-0.1072,0.5407,0.5287,0.2667,0.0009,-0.0141,-0.0019,0.0021,-0.0054,-0.0053,-0.0238,3.0,3.0
0.05,0.7,-0.4,-0.2611,0.505,0.0,0.1385,0.505,0.0,0.1385,0.8086,-0.225,-0.1971,0.5037,0.0008,0.1371,0.5055,-0.0019,0.1374,0.2597,0.0418,0.0066,1.0,1.0,0.0,-0.2972,-0.2771,-0.1201,-0.1051,0.5353,0.5234,0.2429,0.0023,0.0084,0.0008,0.0016,-0.0054,-0.0052,-0.0028,3.0,3.0
0.05,0.7,-0.4,-0.2614,0.505,0.0,0.1385,0.505,0.0,0.1385,0.8116,-0.2184,-0.1946,0.5053,0.0029,0.1374,0.505,0.0009,0.1374,0.2685,0.038,0.0051,1.0,1.0,0.0,-0.2949,-0.2688,-0.1193,-0.1035,0.53,0.5182,0.2401,0.0021,0.0032,0.0002,0.0019,-0.0053,-0.0052,-0.0064,3.0,3.0
0.05,0.7,-0.4,-0.2615,0.505,0.0,0.1385,0.505,0.0,0.1385,0.8136,-0.2162,-0.1917,0.5049,0.0022,0.1375,0.505,0.0001,0.1376,0.2725,0.0353,0.0059,1.0,1.0,0.0,-0.2927,-0.2656,-0.1191,-0.1016,0.5247,0.513,0.2337,0.0021,0.0043,0.0004,0.0017,-0.0052,-0.0051,-0.0055,3.0,3.0
0.05,0.7,-0.4,-0.2615,0.505,0.0,0.1385,0.505,0.0,0.1385,0.8157,-0.2129,-0.189,0.505,0.0022,0.1376,0.505,0.0001,0.1376,0.2775,0.0324,0.0082,1.0,1.0,0.0,-0.2907,-0.2613,-0.1187,-0.0999,0.5194,0.5079,0.2282,0.0021,0.004,0.0004,0.0018,-0.0052,-0.0051,-0.0056,3.0,3.0
0.05,0.7,-0.4,-0.2615,0.505,0.0,0.1385,0.505,0.0,0.1385,0.8176,-0.2099,-0.1862,0.505,0.002,0.1377,0.505,-0.0,0.1377,0.2822,0.0298,0.0104,1.0,1.0,0.0,-0.2886,-0.2574,-0.1183,-0.0981,0.5142,0.5028,0.2225,0.0021,0.004,0.0004,0.0017,-0.0051,-0.005,-0.0055,3.0,3.0
0.05,0.7,-0.3999,-0.2615,0.505,0.0,0.1385,0.505,0.0,0.1385,0.8195,-0.2069,-0.1834,0.5051,0.0018,0.1378,0.505,-0.0001,0.1378,0.2869,0.0272,0.0127,1.0,1.0,0.0,-0.2865,-0.2534,-0.1179,-0.0963,0.5091,0.4978,0.217,0.002,0.0039,0.0004,0.0017,-0.0051,-0.005,-0.0055,3.0,3.0
0.05,0.7,-0.3996,-0.2615,0.505,0.0,0.1385,0.505,0.0,0.1385,0.8213,-0.2039,-0.1806,0.5051,0.0017,0.1379,0.5049,-0.0002,0.1378,0.2913,0.0246,0.0149,1.0,1.0,0.0,-0.2845,-0.2495,-0.1175,-0.0946,0.504,0.4928,0.2115,0.002,0.0039,0.0004,0.0017,-0.005,-0.0049,-0.0054,3.0,3.0
0.05,0.7,-0.3991,-0.2615,0.505,0.0,0.1385,0.505,0.0,0.1385,0.8231,-0.2009,-0.1779,0.5051,0.0015,0.1379,0.5049,-0.0003,0.1379,0.2955,0.0221,0.0172,1.0,1.0,0.0,-0.2824,-0.2456,-0.1171,-0.0929,0.499,0.4879,0.2061,0.002,0.0038,0.0004,0.0017,-0.005,-0.0049,-0.0053,3.0,3.0
0.05,0.7,-0.3982,-0.2615,0.505,0.0,0.1385,0.505,0.0,0.1385,0.8246,-0.1979,-0.175,0.5051,0.0014,0.138,0.5049,-0.0004,0.138,0.2993,0.0196,0.0194,1.0,1.0,0.0,-0.2804,-0.2418,-0.1167,-0.0912,0.494,0.483,0.2008,0.002,0.0038,0.0004,0.0017,-0.0049,-0.0048,-0.0053,3.0,3.0
0.05,0.7,-0.397,-0.2615,0.505,0.0,0.1385,0.505,0.0,0.1385,0.826,-0.1949,-0.1722,0.5051,0.0013,0.1381,0.5049,-0.0005,0.138,0.3027,0.0171,0.0215,1.0,1.0,0.0,-0.2785,-0.238,-0.1164,-0.0895,0.489,0.4782,0.1955,0.002,0.0037,0.0003,0.0017,-0.0049,-0.0048,-0.0052,3.0,3.0
0.05,0.7,-0.3953,-0.2615,0.505,0.0,0.1385,0.505,0.0,0.1385,0.8272,-0.1919,-0.1693,0.5051,0.0011,0.1381,0.5049,-0.0006,0.1381,0.3058,0.0147,0.0237,1.0,1.0,0.0,-0.2765,-0.2343,-0.1161,-0.0878,0.4841,0.4734,0.1903,0.002,0.0037,0.0003,0.0016,-0.0048,-0.0047,-0.0052,3.0,3.0
0.05,0.7,-0.3932,-0.2615,0.505,0.0,0.1385,0.505,0.0,0.1385,0.8282,-0.1889,-0.1663,0.5051,0.001,0.1382,0.5048,-0.0007,0.1381,0.3083,0.0123,0.0258,1.0,1.0,0.0,-0.2745,-0.2306,-0.1157,-0.0862,0.4793,0.4687,0.1851,0.0019,0.0037,0.0003,0.0016,-0.0048,-0.0047,-0.0051,3.0,3.0
0.05,0.7,-0.3904,-0.2615,0.505,0.0,0.1385,0.505,0.0,0.1385,0.8289,-0.1858,-0.1633,0.5052,0.0009,0.1383,0.5048,-0.0008,0.1382,0.3103,0.01,0.0278,1.0,1.0,0.0,-0.2726,-0.2269,-0.1154,-0.0846,0.4745,0.464,0.18,0.0019,0.0036,0.0003,0.0016,-0.0047,-0.0046,-0.005,3.0,3.0
0.05,0.7,-0.3872,-0.2615,0.505,0.0,0.1385,0.505,0.0,0.1385,0.8294,-0.1828,-0.1603,0.5052,0.0008,0.1383,0.5048,-0.0009,0.1382,0.3118,0.0077,0.0299,1.0,1.0,0.0,-0.2707,-0.2233,-0.1151,-0.083,0.4698,0.4593,0.175,0.0019,0.0036,0.0003,0.0016,-0.0047,-0.0046,-0.005,3.0,3.0
0.05,0.7,-0.3833,-0.2615,0.505,0.0,0.1385,0.505,0.0,0.1385,0.8296,-0.1797,-0.1572,0.5052,0.0006,0.1384,0.5048,-0.001,0.1383,0.3127,0.0055,0.0318,0.0,0.0,0.0,-0.2688,-0.2197,-0.1149,-0.0814,0.4651,0.4547,0.17,-0.0874,-0.2762,-0.0603,-0.0707,0.1395,0.2872,0.2868,3.0,3.0
0.05,0.7,-0.3787,-0.2615,0.505,0.0,0.1385,0.505,0.0,0.1385,0.7271,-0.3918,-0.2287,0.4943,-0.0844,0.1257,0.514,-0.0322,0.1243,0.0499,0.2388,0.1328,1.0,1.0,0.0,-0.3562,-0.4959,-0.1751,-0.1173,0.5802,0.5673,0.4568,0.0325,0.2284,0.0516,0.0241,-0.0058,-0.0057,-0.1266,3.0,3.0
0.05,0.7,-0.3735,-0.2615,0.505,0.0,0.1385,0.505,0.0,0.1385,0.7947,-0.2141,-0.2032,0.5223,0.0244,0.1448,0.5021,0.0315,0.1412,0.2386,0.0739,0.0938,1.0,1.0,0.0,-0.3237,-0.2675,-0.1235,-0.0932,0.5744,0.5616,0.3302,-0.0073,-0.0343,-0.0088,-0.0057,-0.0057,-0.0056,-0.0565,3.0,3.0
0.05,0.7,-0.3676,-0.2615,0.505,0.0,0.1385,0.505,0.0,0.1385,0.7857,-0.2412,-0.2116,0.5022,0.0001,0.1343,0.5064,-0.0038,0.1351,0.1969,0.0576,0.0217,1.0,1.0,0.0,-0.331,-0.3019,-0.1323,-0.0988,0.5686,0.556,0.2737,0.0055,0.0124,0.0019,0.0046,-0.0057,-0.0056,0.0008,3.0,3.0
0.05,0.7,-0.361,-0.2615,0.505,0.0,0.1385,0.505,0.0,0.1385,0.788,-0.2309,-0.2032,0.5053,0.0043,0.1377,0.5049,0.0021,0.1376,0.2048,0.054,0.012,1.0,1.0,0.0,-0.3255,-0.2895,-0.1304,-0.0942,0.5629,0.5504,0.2744,0.0011,0.0029,-0.0001,0.0007,-0.0056,-0.0055,-0.0076,3.0,3.0
0.05,0.7,-0.3537,-0.2615,0.505,0.0,0.1385,0.505,0.0,0.1385,0.7871,-0.228,-0.2011,0.5048,0.0032,0.1367,0.5052,0.0007,0.1368,0.2009,0.0501,0.009,1.0,1.0,0.0,-0.3244,-0.2866,-0.1305,-0.0935,0.5573,0.5449,0.2668,0.0026,0.0046,0.0004,0.0022,-0.0056,-0.0054,-0.0058,3.0,3.0
0.05,0.7,-0.3456,-0.2615,0.505,0.0,0.1385,0.505,0.0,0.1385,0.7867,-0.2238,-0.1965,0.5049,0.0032,0.1372,0.5051,0.0008,0.1373,0.1991,0.047,0.0059,1.0,1.0,0.0,-0.3218,-0.2819,-0.1301,-0.0912,0.5517,0.5395,0.261,0.0021,0.0043,0.0003,0.0017,-0.0055,-0.0054,-0.0061,3.0,3.0
0.05,0.7,-0.3369,-0.2615,0.505,0.0,0.1385,0.505,0.0,0.1385,0.7858,-0.2198,-0.1927,0.5049,0.0029,0.1372,0.5051,0.0006,0.1372,0.1961,0.0436,0.0042,1.0,1.0,0.0,-0.3197,-0.2777,-0.1298,-0.0896,0.5462,0.5341,0.255,0.0022,0.0042,0.0004,0.0019,-0.0055,-0.0053,-0.0059,3.0,3.0
0.05,0.7,-0.3274,-0.2615,0.505,0.0,0.1385,0.505,0.0,0.1385,0.7848,-0.2158,-0.1885,0.505,0.0027,0.1373,0.5051,0.0004,0.1374,0.1928,0.0405,0.0039,1.0,1.0,0.0,-0.3175,-0.2734,-0.1294,-0.0877,0.5407,0.5287,0.249,0.0021,0.0042,0.0004,0.0018,-0.0054,-0.0053,-0.0059,3.0,3.0
0.05,0.7,-0.3172,-0.2615,0.505,0.0,0.1385,0.505,0.0,0.1385,0.7834,-0.2117,-0.1844,0.505,0.0025,0.1374,0.505,0.0003,0.1375,0.1892,0.0375,0.0056,1.0,1.0,0.0,-0.3153,-0.2692,-0.129,-0.0859,0.5353,0.5234,0.2432,0.0022,0.0041,0.0005,0.0018,-0.0054,-0.0052,-0.0058,3.0,3.0
0.05,0.7,-0.3063,-0.2615,0.505,0.0,0.1385,0.505,0.0,0.1385,0.7819,-0.2078,-0.1802,0.505,0.0023,0.1375,0.505,0.0001,0.1375,0.1853,0.0346,0.0077,1.0,1.0,0.0,-0.3132,-0.2651,-0.1285,-0.0841,0.53,0.5182,0.2374,0.0021,0.0041,0.0006,0.0018,-0.0053,-0.0052,-0.0057,3.0,3.0
0.05,0.7,-0.2947,-0.2615,0.505,0.0,0.1385,0.505,0.0,0.1385,0.7801,-0.2038,-0.1759,0.505,0.0022,0.1376,0.505,0.0,0.1376,0.1814,0.0319,0.01,1.0,1.0,0.0,-0.311,-0.261,-0.128,-0.0823,0.5247,0.513,0.2316,0.0021,0.004,0.0007,0.0018,-0.0052,-0.0051,-0.0057,3.0,3.0
0.05,0.7,-0.2824,-0.2615,0.505,0.0,0.1385,0.505,0.0,0.1385,0.7782,-0.1999,-0.1717,0.505,0.002,0.1377,0.505,-0.0001,0.1377,0.1775,0.0293,0.0122,1.0,1.0,0.0,-0.3089,-0.2571,-0.1273,-0.0804,0.5194,0.5079,0.2259,0.0021,0.0039,0.0008,0.0018,-0.0052,-0.0051,-0.0056,3.0,3.0
0.05,0.7,-0.2695,-0.2615,0.505,0.0,0.1385,0.505,0.0,0.1385,0.7762,-0.1961,-0.1674,0.5051,0.0018,0.1378,0.5049,-0.0002,0.1378,0.174,0.0269,0.0142,1.0,1.0,0.0,-0.3068,-0.2531,-0.1265,-0.0786,0.5142,0.5028,0.2203,0.0021,0.0038,0.0009,0.0019,-0.0051,-0.005,-0.0055,3.0,3.0
0.05,0.7,-0.256,-0.2615,0.505,0.0,0.1385,0.505,0.0,0.1385,0.774,-0.1924,-0.1631,0.5051,0.0017,0.1379,0.5049,-0.0003,0.1378,0.1711,0.0248,0.0161,1.0,1.0,0.0,-0.3048,-0.2493,-0.1256,-0.0767,0.5091,0.4978,0.2148,0.002,0.0038,0.0011,0.0019,-0.0051,-0.005,-0.0055,3.0,3.0
0.05,0.7,-0.2419,-0.2615,0.505,0.0,0.1385,0.505,0.0,0.1385,0.7718,-0.1887,-0.1589,0.5051,0.0016,0.1379,0.5049,-0.0004,0.1379,0.169,0.0228,0.0177,1.0,1.0,0.0,-0.3028,-0.2455,-0.1245,-0.0749,0.504,0.4928,0.2093,0.002,0.0037,0.0013,0.0019,-0.005,-0.0049,-0.0054,3.0,3.0
0.05,0.7,-0.2271,-0.2615,0.505,0.0,0.1385,0.505,0.0,0.1385,0.7696,-0.1852,-0.1546,0.5051,0.0015,0.138,0.5049,-0.0005,0.1379,0.1681,0.0211,0.0191,1.0,1.0,0.0,-0.3008,-0.2418,-0.1232,-0.0729,0.499,0.4879,0.2039,0.002,0.0036,0.0015,0.0019,-0.005,-0.0049,-0.0054,3.0,3.0
0.05,0.7,-0.2119,-0.2615,0.505,0.0,0.1385,0.505,0.0,0.1385,0.7673,-0.1817,-0.1504,0.5051,0.0014,0.138,0.5049,-0.0005,0.138,0.1686,0.0197,0.0202,1.0,1.0,0.0,-0.2988,-0.2382,-0.1217,-0.071,0.494,0.483,0.1986,0.0019,0.0035,0.0017,0.002,-0.0049,-0.0048,-0.0053,3.0,3.0
0.05,0.7,-0.1961,-0.2615,0.505,0.0,0.1385,0.505,0.0,0.1385,0.7651,-0.1784,-0.1463,0.5051,0.0013,0.1381,0.5049,-0.0006,0.138,0.1708,0.0185,0.0211,1.0,1.0,0.0,-0.2968,-0.2347,-0.1201,-0.069,0.489,0.4782,0.1933,0.0019,0.0034,0.0019,0.002,-0.0049,-0.0048,-0.0052,3.0,3.0
0.05,0.7,-0.1798,-0.2615,0.505,0.0,0.1385,0.505,0.0,0.1385,0.763,-0.1752,-0.1422,0.5051,0.0012,0.1381,0.5049,-0.0006,0.138,0.175,0.0176,0.0217,1.0,1.0,0.0,-0.2949,-0.2313,-0.1181,-0.067,0.4841,0.4734,0.188,0.0019,0.0034,0.0021,0.002,-0.0048,-0.0047,-0.0052,3.0,3.0
0.05,0.7,-0.1631,-0.2615,0.505,0.0,0.1385,0.505,0.0,0.1385,0.7611,-0.1722,-0.1381,0.5051,0.0012,0.1381,0.5049,-0.0006,0.138,0.1812,0.017,0.022,1.0,1.0,0.0,-0.293,-0.2279,-0.116,-0.065,0.4793,0.4687,0.1828,0.0019,0.0033,0.0024,0.0021,-0.0048,-0.0047,-0.0051,3.0,3.0
0.05,0.7,-0.146,-0.2615,0.505,0.0,0.1385,0.505,0.0,0.1385,0.7592,-0.1692,-0.1342,0.5051,0.0011,0.1381,0.5048,-0.0006,0.138,0.1894,0.0167,0.0219,1.0,1.0,0.0,-0.2912,-0.2246,-0.1136,-0.0629,0.4745,0.464,0.1777,0.0018,0.0032,0.0026,0.0021,-0.0047,-0.0046,-0.0051,3.0,3.0
0.05,0.7,-0.1286,-0.2615,0.505,0.0,0.1385,0.505,0.0,0.1385,0.7576,-0.1665,-0.1304,0.5051,0.0011,0.1381,0.5048,-0.0006,0.138,0.1996,0.0167,0.0216,1.0,1.0,0.0,-0.2893,-0.2215,-0.111,-0.0608,0.4698,0.4593,0.1727,0.0018,0.0031,0.0029,0.0021,-0.0047,-0.0046,-0.005,3.0,3.0
0.05,0.7,-0.1108,-0.2615,0.505,0.0,0.1385,0.505,0.0,0.1385,0.7562,-0.1638,-0.1267,0.5051,0.0011,0.1381,0.5048,-0.0006,0.138,0.2117,0.017,0.0209,0.0,0.0,0.0,-0.2875,-0.2183,-0.1081,-0.0587,0.4651,0.4547,0.1677,-0.0957,0.0632,0.0458,-0.0942,0.2024,-0.0699,-0.0703,3.0,3.0
0.05,0.7,-0.0928,-0.2615,0.505,0.0,0.1385,0.505,0.0,0.1385,0.7261,-0.1137,-0.2413,0.5162,0.0106,0.0983,0.5092,0.0103,0.0977,0.0484,0.1179,0.1231,1.0,0.0,0.0,-0.3833,-0.1552,-0.0623,-0.1173,0.5802,0.3848,0.0973,0.0592,0.0311,-0.0046,0.0572,-0.0058,-0.0449,-0.0576,3.0,3.0
0.05,0.7,-0.0745,-0.2615,0.505,0.0,0.1385,0.505,0.0,0.1385,0.7455,-0.0911,-0.1525,0.5051,0.0052,0.1527,0.503,0.0027,0.1523,0.1594,0.0564,0.0449,1.0,0.0,0.0,-0.324,-0.1241,-0.0669,-0.0601,0.5744,0.3399,0.0397,-0.0182,0.0239,0.0153,-0.018,-0.0057,-0.0357,-0.0391,3.0,3.0
0.05,0.7,-0.056,-0.2615,0.505,0.0,0.1385,0.505,0.0,0.1385,0.7445,-0.0735,-0.1818,0.5072,0.0046,0.1323,0.5045,0.0022,0.1319,0.1239,0.036,0.0253,1.0,0.0,0.0,-0.3423,-0.1002,-0.0516,-0.0781,0.5686,0.3042,0.0007,0.0107,0.0252,0.0111,0.0105,-0.0057,-0.0344,-0.0364,3.0,3.0
0.05,0.7,-0.0374,-0.2615,0.505,0.0,0.1385,0.505,0.0,0.1385,0.7473,-0.0551,-0.1654,0.5062,0.0045,0.1402,0.5036,0.002,0.1397,0.1443,0.0314,0.0219,1.0,0.0,0.0,-0.3316,-0.075,-0.0405,-0.0676,0.5629,0.2698,-0.0357,-0.0007,0.0251,0.0129,-0.0007,-0.0056,-0.0356,-0.0371,3.0,3.0
0.05,0.7,-0.0187,-0.2615,0.505,0.0,0.1385,0.505,0.0,0.1385,0.7483,-0.0366,-0.1668,0.5066,0.0045,0.1372,0.5038,0.0019,0.1367,0.1427,0.0281,0.0232,1.0,0.0,0.0,-0.3323,-0.0499,-0.0276,-0.0683,0.5573,0.2343,-0.0728,0.0035,0.0253,0.0127,0.0034,-0.0056,-0.036,-0.037,3.0,3.0
0.05,0.7,-0.0,-0.2615,0.505,0.0,0.1385,0.505,0.0,0.1385,0.7497,-0.018,-0.1618,0.5064,0.0044,0.1384,0.5035,0.0018,0.1379,0.1491,0.0261,0.0248,1.0,0.0,0.0,-0.3288,-0.0245,-0.0149,-0.0649,0.5517,0.1983,-0.1098,0.0016,0.0254,0.013,0.0016,-0.0055,-0.0364,-0.037,3.0,3.0
0.05,0.7,0.0187,-0.2615,0.505,0.0,0.1385,0.505,0.0,0.1385,0.7509,0.0007,-0.1596,0.5065,0.0043,0.1379,0.5035,0.0017,0.1375,0.1518,0.0244,0.0261,1.0,0.0,0.0,-0.3271,0.0008,-0.0019,-0.0633,0.5462,0.1619,-0.1467,0.0021,0.0253,0.0131,0.002,-0.0055,-0.0366,-0.0367,3.0,3.0
0.05,0.7,0.0374,-0.2615,0.505,0.0,0.1385,0.505,0.0,0.1385,0.752,0.0194,-0.1566,0.5064,0.0043,0.1381,0.5034,0.0016,0.1376,0.1554,0.023,0.0271,1.0,0.0,0.0,-0.325,0.0262,0.0111,-0.0612,0.5407,0.1253,-0.1834,0.0017,0.0252,0.0131,0.0016,-0.0054,-0.0367,-0.0363,3.0,3.0
0.05,0.7,0.056,-0.2615,0.505,0.0,0.1385,0.505,0.0,0.1385,0.753,0.0381,-0.1544,0.5063,0.0042,0.138,0.5033,0.0015,0.1375,0.1581,0.0219,0.0278,1.0,0.0,0.0,-0.3234,0.0514,0.0243,-0.0596,0.5353,0.0886,-0.2198,0.0016,0.025,0.0131,0.0015,-0.0054,-0.0367,-0.0358,3.0,3.0
0.05,0.7,0.0745,-0.2615,0.505,0.0,0.1385,0.505,0.0,0.1385,0.7538,0.0568,-0.1522,0.5063,0.0042,0.138,0.5032,0.0014,0.1375,0.1606,0.021,0.0281,1.0,0.0,0.0,-0.3218,0.0764,0.0373,-0.0581,0.53,0.0519,-0.2556,0.0014,0.0247,0.013,0.0013,-0.0053,-0.0365,-0.0351,3.0,3.0
0.05,0.7,0.0928,-0.2615,0.505,0.0,0.1385,0.505,0.0,0.1385,0.7545,0.0753,-0.1504,0.5062,0.0041,0.138,0.5032,0.0014,0.1375,0.1626,0.0203,0.0282,1.0,0.0,0.0,-0.3204,0.1011,0.0503,-0.0568,0.5247,0.0154,-0.2907,0.0012,0.0244,0.0128,0.0011,-0.0052,-0.0361,-0.0344,3.0,3.0
0.05,0.7,0.1108,-0.2615,0.505,0.0,0.1385,0.505,0.0,0.1385,0.7552,0.0936,-0.1488,0.5061,0.004,0.138,0.5031,0.0013,0.1375,0.1644,0.0198,0.0281,1.0,0.0,0.0,-0.3192,0.1255,0.0631,-0.0557,0.5194,-0.0207,-0.3251,0.001,0.0239,0.0125,0.001,-0.0052,-0.0357,-0.0335,3.0,3.0
0.05,0.7,0.1286,-0.2615,0.505,0.0,0.1385,0.505,0.0,0.1385,0.7557,0.1118,-0.1474,0.5061,0.004,0.1379,0.5031,0.0012,0.1375,0.1658,0.0194,0.0278,1.0,0.0,0.0,-0.3181,0.1494,0.0756,-0.0547,0.5142,-0.0563,-0.3585,0.0009,0.0234,0.0122,0.0008,-0.0051,-0.035,-0.0325,3.0,3.0
0.05,0.7,0.146,-0.2615,0.505,0.0,0.1385,0.505,0.0,0.1385,0.7561,0.1296,-0.1463,0.506,0.0039,0.1379,0.5031,0.0011,0.1375,0.167,0.0191,0.0273,1.0,0.0,0.0,-0.3172,0.1728,0.0878,-0.0538,0.5091,-0.0914,-0.391,0.0008,0.0228,0.0119,0.0007,-0.0051,-0.0343,-0.0314,3.0,3.0
0.05,0.7,0.1631,-0.2615,0.505,0.0,0.1385,0.505,0.0,0.1385,0.7564,0.1472,-0.1453,0.5059,0.0038,0.1379,0.5031,0.0011,0.1375,0.1679,0.0188,0.0266,1.0,0.0,0.0,-0.3165,0.1956,0.0997,-0.0531,0.504,-0.1256,-0.4224,0.0006,0.0221,0.0114,0.0006,-0.005,-0.0334,-0.0302,3.0,3.0
0.05,0.7,0.1798,-0.2615,0.505,0.0,0.1385,0.505,0.0,0.1385,0.7567,0.1644,-0.1446,0.5058,0.0038,0.1379,0.5031,0.001,0.1375,0.1686,0.0187,0.0259,1.0,0.0,0.0,-0.3159,0.2177,0.1111,-0.0526,0.499,-0.1591,-0.4526,0.0005,0.0214,0.011,0.0005,-0.005,-0.0324,-0.029,3.0,3.0
0.05,0.7,0.1961,-0.2615,0.505,0.0,0.1385,0.505,0.0,0.1385,0.7569,0.1812,-0.144,0.5057,0.0037,0.1379,0.5031,0.0009,0.1375,0.1691,0.0186,0.025,1.0,0.0,1.0,-0.3154,0.2392,0.1221,-0.0521,0.494,-0.1915,-0.4816,0.0004,0.0207,0.0105,0.0004,-0.0049,-0.0313,-0.0277,3.0,3.0
0.05,0.7,0.2119,-0.2615,0.505,0.0,0.1385,0.505,0.0,0.1385,0.757,0.1976,-0.1435,0.5057,0.0036,0.1379,0.5031,0.0009,0.1376,0.1695,0.0185,0.0241,1.0,0.0,1.0,-0.3149,0.2598,0.1327,-0.0517,0.489,-0.2228,-0.5093,0.0003,0.0199,0.01,0.0003,-0.0049,-0.0302,-0.0264,3.0,3.0
0.05,0.7,0.2271,-0.2615,0.505,0.0,0.1385,0.505,0.0,0.1385,0.7571,0.2135,-0.1432,0.5056,0.0035,0.1379,0.5032,0.0008,0.1376,0.1698,0.0185,0.0231,1.0,0.0,1.0,-0.3146,0.2797,0.1427,-0.0513,0.4841,-0.253,-0.5357,0.0003,0.019,0.0095,0.0003,-0.0048,-0.0289,-0.0251,3.0,3.0
0.05,0.7,0.2419,-0.2615,0.505,0.0,0.1385,0.505,0.0,0.1385,0.7571,0.2289,-0.1429,0.5055,0.0034,0.1379,0.5032,0.0007,0.1376,0.17,0.0185,0.0221,1.0,0.0,1.0,-0.3143,0.2987,0.1522,-0.0511,0.4793,-0.2819,-0.5608,0.0002,0.0182,0.009,0.0002,-0.0048,-0.0276,-0.0237,3.0,3.0
0.05,0.7,0.256,-0.2615,0.505,0.0,0.1385,0.505,0.0,0.1385,0.7572,0.2437,-0.1427,0.5055,0.0033,0.138,0.5034,0.0015,0.1377,0.1702,0.0186,0.0212,1.0,0.0,1.0,-0.3141,0.3169,0.1613,-0.0508,0.4745,-0.3095,-0.5823,0.0002,0.0173,0.0085,0.0002,-0.0047,-0.0263,-0.0245,3.0,3.0
0.05,0.7,0.2695,-0.2615,0.505,0.0,0.1385,0.505,0.0,0.1385,0.7571,0.258,-0.1425,0.5054,0.0031,0.138,0.5054,0.0098,0.1379,0.1704,0.0187,0.032,1.0,0.0,1.0,-0.3139,0.3341,0.1698,-0.0506,0.4698,-0.3358,-0.5823,0.0002,0.0163,0.008,0.0003,-0.0047,-0.0249,-0.0456,3.0,3.0
0.05,0.7,0.2824,-0.2615,0.505,0.0,0.1385,0.505,0.0,0.1385,0.7571,0.2716,-0.1423,0.5053,0.003,0.1381,0.5071,0.0177,0.1381,0.1707,0.0189,0.0497,0.0,0.0,1.0,-0.3136,0.3505,0.1778,-0.0503,0.4651,-0.3607,-0.5823,-0.0885,0.0273,-0.0221,-0.08,0.1824,-0.0332,-0.0749,3.0,3.0
0.05,0.7,0.2947,-0.2615,0.505,0.0,0.1385,0.505,0.0,0.1385,0.7157,0.2853,-0.2565,0.5108,-0.001,0.0966,0.5141,0.0245,0.0978,0.024,0.1306,0.1378,1.0,0.0,1.0,-0.4022,0.3778,0.1557,-0.1173,0.5802,-0.3939,-0.5823,0.0586,0.0053,0.0314,0.0508,-0.0058,-0.0177,-0.091,3.0,3.0
0.05,0.7,0.3063,-0.2615,0.505,0.0,0.1385,0.505,0.0,0.1385,0.7377,0.2926,-0.1729,0.5046,0.0008,0.1511,0.5082,0.0321,0.1528,0.1248,0.0475,0.1182,1.0,0.0,1.0,-0.3436,0.3831,0.1871,-0.0665,0.5744,-0.4116,-0.5823,-0.0195,0.0137,-0.0024,-0.0172,-0.0057,-0.0188,-0.1072,3.0,3.0
0.05,0.7,0.3172,-0.2615,0.505,0.0,0.1385,0.505,0.0,0.1385,0.7353,0.3046,-0.2033,0.5061,-0.0002,0.1315,0.512,0.0372,0.1336,0.0877,0.0364,0.1191,1.0,0.0,1.0,-0.3631,0.3968,0.1847,-0.0836,0.5686,-0.4304,-0.5823,0.0085,0.0123,0.0089,0.0077,-0.0057,-0.0186,-0.1226,3.0,3.0
0.05,0.7,0.3274,-0.2615,0.505,0.0,0.1385,0.505,0.0,0.1385,0.7372,0.3153,-0.1906,0.5053,0.0003,0.1387,0.5116,0.0439,0.1411,0.1034,0.0302,0.1336,1.0,0.0,1.0,-0.3546,0.4091,0.1936,-0.076,0.5629,-0.4489,-0.5823,-0.0017,0.0115,0.0042,-0.0014,-0.0056,-0.0179,-0.137,3.0,3.0
0.05,0.7,0.3369,-0.2615,0.505,0.0,0.1385,0.505,0.0,0.1385,0.7374,0.3255,-0.1936,0.5055,-0.0001,0.1361,0.513,0.0494,0.1388,0.1,0.0311,0.1447,1.0,1.0,1.0,-0.3563,0.4206,0.1978,-0.0774,0.5573,-0.4668,-0.5823,0.0083,-0.0721,-0.026,0.0062,-0.0056,0.0047,0.0058,2.0,3.0
0.05,0.7,0.3456,-0.2615,0.505,0.0,0.1385,0.505,0.0,0.1385,0.7634,0.2737,-0.1915,0.5033,-0.033,0.1368,0.5162,0.0161,0.1397,0.1424,0.0998,0.0705,1.0,1.0,1.0,-0.3479,0.3485,0.1718,-0.0712,0.5517,-0.4621,-0.5765,-0.0002,0.016,0.0026,0.0016,-0.0055,0.0046,0.0058,2.0,3.0
0.05,0.7,0.3537,-0.2615,0.505,0.0,0.1385,0.505,0.0,0.1385,0.7636,0.2879,-0.1907,0.5052,-0.0243,0.1362,0.5092,0.0271,0.1379,0.1381,0.0748,0.0908,1.0,1.0,1.0,-0.3482,0.3645,0.1744,-0.0696,0.5462,-0.4575,-0.5707,0.0028,-0.0097,-0.0022,0.0021,-0.0055,0.0046,0.0057,2.0,3.0
0.05,0.7,0.361,-0.2615,0.505,0.0,0.1385,0.505,0.0,0.1385,0.7701,0.2819,-0.1892,0.5046,-0.0271,0.1366,0.5112,0.0246,0.1384,0.1525,0.0823,0.0837,1.0,0.0,1.0,-0.3454,0.3549,0.1721,-0.0675,0.5407,-0.4529,-0.565,-0.0059,0.1048,0.0384,-0.0023,-0.0054,-0.0325,-0.1854,3.0,3.0
0.05,0.7,0.3676,-0.2615,0.505,0.0,0.1385,0.505,0.0,0.1385,0.7405,0.362,-0.1851,0.5063,0.0127,0.1377,0.5052,0.069,0.1394,0.1092,0.0519,0.188,1.0,1.0,1.0,-0.3513,0.4597,0.2105,-0.0698,0.5353,-0.4854,-0.5823,0.0105,-0.114,-0.0359,0.005,-0.0054,0.0049,0.0058,2.0,3.0
0.05,0.7,0.3735,-0.2615,0.505,0.0,0.1385,0.505,0.0,0.1385,0.779,0.2768,-0.1865,0.5025,-0.0397,0.137,0.5204,0.0148,0.1401,0.1724,0.1192,0.0618,1.0,1.0,1.0,-0.3408,0.3457,0.1746,-0.0648,0.53,-0.4806,-0.5765,-0.0008,0.0281,0.0051,0.0022,-0.0053,0.0048,0.0058,2.0,3.0
