stevenjj/dreamer_head_plots/data/fixed_point_nice_square.csv
dt,head_des_x,head_des_y,head_des_z,reye_des_x,reye_des_y,reye_des_z,leye_des_x,leye_des_y,leye_des_z,head_cur_x,head_cur_y,head_cur_z,reye_cur_x,reye_cur_y,reye_cur_z,leye_cur_x,leye_cur_y,leye_cur_z,head_ori_error,reye_orientation_error,leye_orientation_error,h1,h2,h3,q0,q1,q2,q3,q4,q5,q6,dq0,dq1,dq2,dq3,dq4,dq5,dq6,rank_t1,rank_t2
0.05,0.7,0.0,0.1385,0.5,0.0,0.1385,0.5,0.0,0.1385,0.7,0.0,0.1385,0.5001,-0.0005,0.1385,0.5001,0.0005,0.1385,0.0,0.0,0.0,0.0,0.0,0.0,0.0,0.0,0.0,-0.0,0.0,0.1392,-0.1392,0.0,0.0,0.0,0.0,0.0,0.0,0.0,3.0,3.0
0.05,0.7,0.0001,0.1385,0.5,0.0,0.1385,0.5,0.0,0.1385,0.7,0.0,0.1385,0.5001,-0.0005,0.1385,0.5001,0.0005,0.1385,0.0,0.0,0.0,0.0,0.0,0.0,0.0,0.0,0.0,-0.0,0.0,0.1392,-0.1392,0.0,0.0,0.0,0.0,0.0,0.0,0.0,3.0,3.0
0.05,0.7,0.0002,0.1385,0.5,0.0,0.1385,0.5,0.0,0.1385,0.7,0.0,0.1385,0.5001,-0.0005,0.1385,0.5001,0.0005,0.1385,0.0,0.0,0.0,0.0,0.0,0.0,0.0,0.0,0.0,-0.0,0.0,0.1392,-0.1392,0.0,0.0,0.0,0.0,0.0,0.0,0.0,3.0,3.0
0.05,0.7,0.0005,0.1385,0.5,0.0,0.1385,0.5,0.0,0.1385,0.7,0.0,0.1385,0.5001,-0.0005,0.1385,0.5001,0.0005,0.1385,0.0,0.0,0.0,0.0,0.0,0.0,0.0,0.0,0.0,-0.0,0.0,0.1392,-0.1392,0.0,0.0,0.0,0.0,0.0,0.0,0.0,3.0,3.0
0.05,0.7,0.0009,0.1385,0.5,0.0,0.1385,0.5,0.0,0.1385,0.7,0.0,0.1385,0.5001,-0.0005,0.1385,0.5001,0.0005,0.1385,0.0,0.0,0.0,0.0,0.0,0.0,0.0,0.0,0.0,-0.0,0.0,0.1392,-0.1392,0.0,0.0,0.0,0.0,0.0,0.0,0.0,3.0,3.0
0.05,0.7,0.0015,0.1385,0.5,0.0,0.1385,0.5,0.0,0.1385,0.7,0.0,0.1385,0.5001,-0.0005,0.1385,0.5001,0.0005,0.1385,0.0,0.0,0.0,0.0,0.0,0.0,0.0,0.0,0.0,-0.0,0.0,0.1392,-0.1392,0.0,0.0,0.0,0.0,0.0,0.0,0.0,3.0,3.0
0.05,0.7,0.0023,0.1385,0.5001,0.0,0.1385,0.5001,0.0,0.1385,0.7,0.0,0.1385,0.5001,-0.0005,0.1385,0.5001,0.0005,0.1385,0.0033,0.0,0.0,0.0,0.0,0.0,0.0,0.0,0.0,-0.0,0.0,0.1392,-0.1392,0.0,0.0033,0.0,0.0,0.0,-0.0033,-0.0033,3.0,3.0
0.05,0.7,0.0034,0.1385,0.5001,0.0,0.1385,0.5001,0.0,0.1385,0.7,0.0023,0.1385,0.5003,-0.0,0.1385,0.5,0.0009,0.1385,0.0,0.0,0.0,0.0,0.0,0.0,0.0,0.0033,0.0,-0.0,0.0,0.1359,-0.1426,0.0,0.0,0.0,0.0,0.0,0.0,0.0,3.0,3.0
0.05,0.7,0.0048,0.1385,0.5001,0.0,0.1385,0.5001,0.0,0.1385,0.7,0.0023,0.1385,0.5001,-0.0001,0.1385,0.5002,0.0008,0.1385,0.0035,0.0,0.0,0.0,0.0,0.0,0.0,0.0033,0.0,-0.0,0.0,0.1359,-0.1426,0.0,0.0035,0.0,0.0,0.0,-0.0035,-0.0035,3.0,3.0
0.05,0.7,0.0064,0.1385,0.5002,0.0,0.1385,0.5002,0.0,0.1385,0.7,0.0048,0.1385,0.5003,0.0004,0.1385,0.5001,0.0013,0.1385,0.0,0.0,0.0032,0.0,0.0,0.0,0.0,0.0068,0.0,-0.0,0.0,0.1324,-0.146,0.0,0.0,0.0,0.0,0.0,-0.0,-0.0032,3.0,3.0
0.05,0.7,0.0084,0.1385,0.5002,0.0,0.1385,0.5002,0.0,0.1385,0.7,0.0048,0.1385,0.5001,0.0004,0.1385,0.5002,0.0,0.1385,0.0051,0.0,0.0,0.0,0.0,0.0,0.0,0.0068,0.0,-0.0,0.0,0.1324,-0.1493,0.0,0.0051,0.0,0.0,0.0,-0.0051,-0.0051,3.0,3.0
0.05,0.7,0.0106,0.1385,0.5003,0.0,0.1385,0.5003,0.0,0.1385,0.7,0.0084,0.1385,0.5004,0.001,0.1385,0.5,0.0006,0.1385,0.0032,0.0,0.0,0.0,0.0,0.0,0.0,0.012,0.0,-0.0,0.0,0.1273,-0.1544,0.0,0.0032,0.0,0.0,0.0,-0.0032,-0.0032,3.0,3.0
0.05,0.7,0.0133,0.1385,0.5004,0.0,0.1385,0.5004,0.0,0.1385,0.7,0.0106,0.1385,0.5003,0.0014,0.1385,0.5002,0.001,0.1385,0.0037,0.0036,0.0,0.0,0.0,0.0,0.0,0.0152,0.0,-0.0,0.0,0.124,-0.1577,0.0,0.0037,0.0,0.0,0.0,-0.0073,-0.0037,3.0,3.0
0.05,0.7,0.0162,0.1385,0.5004,0.0,0.1385,0.5004,0.0,0.1385,0.7,0.0133,0.1385,0.5005,0.0005,0.1385,0.5003,0.0014,0.1385,0.0042,0.0,0.0036,0.0,0.0,0.0,0.0,0.0189,0.0,-0.0,0.0,0.1167,-0.1614,0.0,0.0042,0.0,0.0,0.0,-0.0042,-0.0078,3.0,3.0
0.05,0.7,0.0195,0.1385,0.5005,0.0,0.1385,0.5005,0.0,0.1385,0.7,0.0162,0.1385,0.5006,0.001,0.1385,0.5002,0.0005,0.1385,0.0047,0.0,0.0,0.0,0.0,0.0,0.0,0.0231,0.0,-0.0,0.0,0.1125,-0.1692,0.0,0.0047,0.0,0.0,0.0,-0.0047,-0.0047,3.0,3.0
0.05,0.7,0.0232,0.1385,0.5006,0.0,0.1385,0.5006,0.0,0.1385,0.7,0.0195,0.1385,0.5006,0.0015,0.1385,0.5003,0.001,0.1385,0.0052,0.0041,0.0,0.0,0.0,0.0,0.0,0.0279,0.0,-0.0,0.0,0.1077,-0.1739,0.0,0.0052,0.0,0.0,0.0,-0.0093,-0.0052,3.0,3.0
0.05,0.7,0.0272,0.1385,0.5007,0.0,0.1385,0.5007,0.0,0.1385,0.7,0.0232,0.1385,0.5009,0.0007,0.1385,0.5005,0.0016,0.1385,0.0057,0.0,0.0041,0.0,0.0,0.0,0.0,0.0331,0.0,-0.0,0.0,0.0985,-0.1791,0.0,0.0057,0.0,0.0,0.0,-0.0057,-0.0099,3.0,3.0
0.05,0.7,0.0316,0.1385,0.5008,0.0,0.1385,0.5008,0.0,0.1385,0.7,0.0272,0.1385,0.5009,0.0014,0.1385,0.5004,0.0007,0.1385,0.0062,0.0035,0.0,0.0,0.0,0.0,0.0,0.0388,0.0,-0.0,0.0,0.0927,-0.189,0.0,0.0062,0.0,0.0,0.0,-0.0098,-0.0062,3.0,3.0
0.05,0.7,0.0363,0.1385,0.5009,0.0,0.1385,0.5009,0.0,0.1385,0.7,0.0316,0.1385,0.5011,0.0008,0.1385,0.5005,0.0014,0.1385,0.0068,0.0,0.0034,0.0,0.0,0.0,0.0,0.0451,0.0,-0.0,0.0,0.0829,-0.1952,0.0,0.0068,0.0,0.0,0.0,-0.0068,-0.0102,3.0,3.0
0.05,0.7,0.0414,0.1385,0.501,0.0,0.1385,0.501,0.0,0.1385,0.7,0.0363,0.1385,0.5011,0.0016,0.1385,0.5005,0.0008,0.1385,0.0073,0.0042,0.0,0.0,0.0,0.0,0.0,0.0518,0.0,-0.0,0.0,0.0762,-0.2054,0.0,0.0073,0.0,0.0,0.0,-0.0115,-0.0073,3.0,3.0
0.05,0.7,0.0469,0.1385,0.5012,0.0,0.1385,0.5012,0.0,0.1385,0.7,0.0414,0.1385,0.5014,0.0009,0.1385,0.5007,0.0016,0.1385,0.0078,0.0,0.004,0.0,0.0,0.0,0.0,0.0591,0.0,-0.0,0.0,0.0647,-0.2127,0.0,0.0078,0.0,0.0,0.0,-0.0078,-0.0117,3.0,3.0
0.05,0.7,0.0526,0.1385,0.5013,0.0,0.1385,0.5013,0.0,0.1385,0.7,0.0469,0.1385,0.5014,0.0019,0.1385,0.5007,0.0009,0.1385,0.0082,0.0049,0.0,0.0,0.0,0.0,0.0,0.0668,0.0,-0.0,0.0,0.0569,-0.2244,0.0,0.0082,0.0,0.0,0.0,-0.0132,-0.0082,3.0,3.0
0.05,0.7,0.0588,0.1385,0.5014,0.0,0.1385,0.5014,0.0,0.1385,0.7,0.0526,0.1385,0.5017,0.0011,0.1385,0.5009,0.0018,0.1385,0.0087,0.0,0.0045,0.0,0.0,0.0,0.0,0.0751,0.0,-0.0,0.0,0.0438,-0.2327,0.0,0.0087,0.0,0.0,0.0,-0.0087,-0.0132,3.0,3.0
0.05,0.7,0.0652,0.1385,0.5016,0.0,0.1385,0.5016,0.0,0.1385,0.7,0.0588,0.1385,0.5017,0.0021,0.1385,0.5009,0.001,0.1385,0.0092,0.0056,0.0,0.0,0.0,0.0,0.0,0.0838,0.0,-0.0,0.0,0.0351,-0.2458,0.0,0.0092,0.0,0.0,0.0,-0.0148,-0.0092,3.0,3.0
0.05,0.7,0.072,0.1385,0.5017,0.0,0.1385,0.5017,0.0,0.1385,0.7,0.0652,0.1385,0.502,0.0012,0.1385,0.5012,0.002,0.1385,0.0096,0.0031,0.0049,0.0,0.0,0.0,0.0,0.0929,0.0,-0.0,0.0,0.0203,-0.255,0.0,0.0096,0.0,0.0,0.0,-0.0126,-0.0145,3.0,3.0
0.05,0.7,0.0791,0.1385,0.5019,0.0,0.1385,0.5019,0.0,0.1385,0.7,0.072,0.1385,0.5021,0.0012,0.1385,0.5011,0.0011,0.1385,0.01,0.0032,0.0,0.0,0.0,0.0,0.0,0.1025,0.0,-0.0,0.0,0.0076,-0.2694,-0.0,0.01,0.0,0.0,0.0,-0.0132,-0.01,3.0,3.0
0.05,0.7,0.0864,0.1385,0.502,0.0,0.1385,0.502,0.0,0.1385,0.7,0.0791,0.1385,0.5023,0.0013,0.1385,0.5014,0.0022,0.1385,0.0104,0.0034,0.0052,0.0,0.0,0.0,0.0,0.1125,0.0,-0.0,0.0,-0.0056,-0.2794,0.0,0.0104,0.0,0.0,0.0,-0.0138,-0.0156,3.0,3.0
0.05,0.7,0.0941,0.1385,0.5022,0.0,0.1385,0.5022,0.0,0.1385,0.7,0.0864,0.1385,0.5024,0.0014,0.1385,0.5013,0.0012,0.1385,0.0107,0.0035,0.0,0.0,0.0,0.0,0.0,0.1229,0.0,-0.0,0.0,-0.0193,-0.295,0.0,0.0107,0.0,0.0,0.0,-0.0143,-0.0107,3.0,3.0
0.05,0.7,0.102,0.1385,0.5023,0.0,0.1385,0.5023,0.0,0.1385,0.7,0.0941,0.1385,0.5026,0.0014,0.1385,0.5016,0.0023,0.1385,0.0111,0.0037,0.0055,0.0,0.0,0.0,0.0,0.1336,0.0,-0.0,0.0,-0.0336,-0.3057,0.0,0.0111,0.0,0.0,0.0,-0.0147,-0.0165,3.0,3.0
0.05,0.7,0.1101,0.1385,0.5025,0.0,0.1385,0.5025,0.0,0.1385,0.7,0.102,0.1385,0.5027,0.0015,0.1385,0.5016,0.0013,0.1385,0.0113,0.0038,0.0,0.0,0.0,0.0,0.0,0.1446,0.0,-0.0,0.0,-0.0483,-0.3222,0.0,0.0113,0.0,0.0,0.0,-0.0152,-0.0113,3.0,3.0
0.05,0.7,0.1184,0.1385,0.5027,0.0,0.1385,0.5027,0.0,0.1385,0.7,0.1101,0.1385,0.5029,0.0015,0.1385,0.5019,0.0024,0.1385,0.0116,0.0039,0.0057,0.0,0.0,0.0,0.0,0.156,0.0,-0.0,0.0,-0.0635,-0.3336,-0.0,0.0116,0.0,0.0,0.0,-0.0156,-0.0173,3.0,3.0
0.05,0.7,0.127,0.1385,0.5028,0.0,0.1385,0.5028,0.0,0.1385,0.7,0.1184,0.1385,0.503,0.0015,0.1385,0.5018,0.0013,0.1385,0.0118,0.0041,0.0029,0.0,0.0,0.0,-0.0,0.1676,0.0,0.0,0.0,-0.079,-0.3509,0.0,0.0118,-0.0,-0.0,0.0,-0.0159,-0.0147,3.0,3.0
0.05,0.7,0.1357,0.1385,0.503,0.0,0.1385,0.503,0.0,0.1385,0.7,0.127,0.1385,0.5032,0.0016,0.1385,0.5019,0.0014,0.1385,0.012,0.0042,0.0029,0.0,0.0,0.0,0.0,0.1794,0.0,-0.0,0.0,-0.0949,-0.3656,0.0,0.012,0.0,0.0,0.0,-0.0162,-0.0149,3.0,3.0
0.05,0.7,0.1446,0.1385,0.5031,0.0,0.1385,0.5031,0.0,0.1385,0.7,0.1357,0.1385,0.5033,0.0016,0.1385,0.5021,0.0014,0.1385,0.0122,0.0042,0.0029,0.0,0.0,0.0,0.0,0.1915,0.0,-0.0,0.0,-0.1111,-0.3805,0.0,0.0122,0.0,0.0,0.0,-0.0165,-0.0151,3.0,3.0
0.05,0.7,0.1536,0.1385,0.5033,0.0,0.1385,0.5033,0.0,0.1385,0.7,0.1446,0.1385,0.5035,0.0016,0.1385,0.5022,0.0014,0.1385,0.0123,0.0043,0.0029,0.0,0.0,0.0,0.0,0.2037,0.0,-0.0,0.0,-0.1276,-0.3955,0.0,0.0123,0.0,0.0,0.0,-0.0167,-0.0152,3.0,3.0
0.05,0.7,0.1627,0.1385,0.5034,0.0,0.1385,0.5034,0.0,0.1385,0.7,0.1536,0.1385,0.5036,0.0016,0.1385,0.5023,0.0014,0.1385,0.0124,0.0044,0.0,0.0,0.0,0.0,0.0,0.216,0.0,-0.0,0.0,-0.1443,-0.4107,0.0,0.0124,0.0,0.0,0.0,-0.0168,-0.0124,3.0,3.0
0.05,0.7,0.172,0.1385,0.5036,0.0,0.1385,0.5036,0.0,0.1385,0.7,0.1627,0.1385,0.5037,0.0017,0.1385,0.5026,0.0025,0.1385,0.0125,0.0044,0.0056,0.0,0.0,0.0,0.0,0.2284,0.0,-0.0,0.0,-0.1611,-0.4232,-0.0,0.0125,0.0,0.0,0.0,-0.0169,-0.0181,3.0,3.0
0.05,0.7,0.1813,0.1385,0.5037,0.0,0.1385,0.5037,0.0,0.1385,0.7,0.172,0.1385,0.5038,0.0017,0.1385,0.5025,0.0014,0.1385,0.0125,0.0045,0.0,0.0,0.0,0.0,-0.0,0.2409,0.0,0.0,0.0,-0.178,-0.4412,0.0,0.0125,0.0,0.0,0.0,-0.017,-0.0125,3.0,3.0
0.05,0.7,0.1906,0.1385,0.5038,0.0,0.1385,0.5038,0.0,0.1385,0.7,0.1813,0.1385,0.504,0.0017,0.1385,0.5029,0.0024,0.1385,0.0125,0.0045,0.0054,0.0,0.0,0.0,-0.0,0.2534,0.0,0.0,0.0,-0.195,-0.4537,0.0,0.0125,0.0,0.0,0.0,-0.017,-0.0179,3.0,3.0
0.05,0.7,0.2,0.1385,0.504,0.0,0.1385,0.504,0.0,0.1385,0.7,0.1906,0.1385,0.5041,0.0017,0.1385,0.5028,0.0013,0.1385,0.0124,0.0045,0.0,0.0,0.0,0.0069,-0.0,0.2659,0.0,0.0,0.0,-0.2119,-0.4717,0.0,0.0123,0.0,0.0,0.0,-0.0168,-0.0123,3.0,3.0
0.05,0.7,0.2094,0.1385,0.5041,0.0,0.1385,0.5041,0.0,0.1385,0.7,0.1999,0.1385,0.5042,0.0017,0.1385,0.5031,0.0024,0.1385,0.0124,0.0045,0.0052,0.0,0.0,0.193,-0.0,0.2782,0.0,0.0,0.0,-0.2288,-0.484,0.0,0.0081,0.0,0.0,0.0,-0.0126,-0.0133,3.0,3.0
0.05,0.7,0.2187,0.1385,0.5042,0.0,0.1385,0.5042,0.0,0.1385,0.7009,0.2063,0.1385,0.5042,0.0011,0.1385,0.5034,0.0009,0.1385,0.0165,0.0029,0.0,0.0,0.0,0.5695,-0.0,0.2863,0.0,0.0,0.0,-0.2413,-0.4973,0.0,0.0043,0.0,0.0,0.0,-0.0072,-0.0043,3.0,3.0
0.05,0.7,0.228,0.1385,0.5043,0.0,0.1385,0.5043,0.0,0.1385,0.7026,0.2101,0.1385,0.5042,0.0006,0.1385,0.504,0.0011,0.1385,0.0243,0.0,0.0,0.0,0.0,0.6939,-0.0,0.2906,0.0,0.0,0.0,-0.2486,-0.5016,-0.0,0.004,0.0,0.0,0.0,-0.004,-0.004,3.0,3.0
0.05,0.7,0.2373,0.1385,0.5044,0.0,0.1385,0.5044,0.0,0.1385,0.7045,0.2137,0.1385,0.5043,0.0011,0.1385,0.5042,0.0014,0.1385,0.0322,0.003,0.0032,0.0,0.0,0.7974,-0.0,0.2946,0.0,0.0,0.0,-0.2525,-0.5055,0.0,-0.0001,0.0,0.0,0.0,-0.003,-0.0031,3.0,3.0
0.05,0.7,0.2464,0.1385,0.5045,0.0,0.1385,0.5045,0.0,0.1385,0.7073,0.2145,0.1385,0.5044,-0.0,0.1385,0.5044,-0.0,0.1385,0.044,0.0,0.0,0.0,0.0,0.8679,-0.0,0.2945,0.0,0.0,0.0,-0.2555,-0.5087,0.0,0.0014,0.0,0.0,0.0,-0.0014,-0.0014,3.0,3.0
0.05,0.7,0.2554,0.1385,0.5046,0.0,0.1385,0.5046,0.0,0.1385,0.7099,0.2164,0.1385,0.5045,0.0002,0.1385,0.5044,0.0001,0.1385,0.054,0.0,0.0,0.0,0.0,0.895,-0.0,0.2959,0.0,0.0,0.0,-0.2569,-0.5101,0.0,0.0011,0.0,0.0,0.0,-0.0011,-0.0011,3.0,3.0
0.05,0.7,0.2643,0.1385,0.5046,0.0,0.1385,0.5046,0.0,0.1385,0.7125,0.2181,0.1385,0.5046,0.0003,0.1385,0.5045,0.0002,0.1385,0.064,0.0,0.0,0.0,0.0,0.9145,-0.0,0.297,0.0,0.0,0.0,-0.258,-0.5112,0.0,0.0008,0.0,0.0,0.0,-0.0008,-0.0008,3.0,3.0
0.05,0.7,0.273,0.1385,0.5047,0.0,0.1385,0.5047,0.0,0.1385,0.7153,0.2195,0.1385,0.5046,0.0004,0.1385,0.5046,0.0002,0.1385,0.0741,0.0,0.0,0.0,0.0,0.9275,-0.0,0.2978,0.0,0.0,0.0,-0.2588,-0.512,0.0,0.0006,-0.0,-0.0,0.0,-0.0006,-0.0006,3.0,3.0
0.05,0.7,0.2816,0.1385,0.5048,0.0,0.1385,0.5048,0.0,0.1385,0.7182,0.2209,0.1385,0.5047,0.0005,0.1385,0.5047,0.0003,0.1385,0.084,0.0,0.0,0.0,0.0,0.9369,-0.0,0.2984,0.0,0.0,0.0,-0.2594,-0.5126,0.0,0.0005,0.0,0.0,0.0,-0.0005,-0.0005,3.0,3.0
0.05,0.7,0.2899,0.1385,0.5048,0.0,0.1385,0.5048,0.0,0.1385,0.7211,0.2222,0.1385,0.5048,0.0006,0.1385,0.5048,0.0003,0.1385,0.0938,0.0,0.0,0.0,0.0,0.944,-0.0,0.2989,0.0,0.0,0.0,-0.2599,-0.5131,0.0,0.0004,0.0,0.0,0.0,-0.0004,-0.0004,3.0,3.0
0.05,0.7,0.298,0.1385,0.5049,0.0,0.1385,0.5049,0.0,0.1385,0.724,0.2234,0.1385,0.5048,0.0007,0.1385,0.5048,0.0003,0.1385,0.1032,0.0,0.0,0.0,0.0,0.9495,-0.0,0.2993,0.0,0.0,0.0,-0.2603,-0.5135,-0.0,0.0003,0.0,0.0,0.0,-0.0003,-0.0003,3.0,3.0
0.05,0.7,0.3059,0.1385,0.5049,0.0,0.1385,0.5049,0.0,0.1385,0.7269,0.2246,0.1385,0.5048,0.0007,0.1385,0.5049,0.0003,0.1385,0.1124,0.0,0.0,0.0,0.0,0.9539,-0.0,0.2996,0.0,0.0,0.0,-0.2607,-0.5138,0.0,0.0003,0.0,0.0,0.0,-0.0003,-0.0003,3.0,3.0
0.05,0.7,0.3136,0.1385,0.5049,0.0,0.1385,0.5049,0.0,0.1385,0.7298,0.2257,0.1385,0.5049,0.0007,0.1385,0.5049,0.0003,0.1385,0.1212,0.0,0.0,0.0,0.0,0.9574,-0.0,0.2999,0.0,0.0,0.0,-0.2609,-0.5141,0.0,0.0002,0.0,0.0,0.0,-0.0002,-0.0002,3.0,3.0
0.05,0.7,0.3209,0.1385,0.505,0.0,0.1385,0.505,0.0,0.1385,0.7327,0.2268,0.1385,0.5049,0.0008,0.1385,0.505,0.0003,0.1385,0.1297,0.0,0.0,0.0,0.0,0.9603,-0.0,0.3002,0.0,0.0,0.0,-0.2612,-0.5144,0.0,0.0002,0.0,0.0,0.0,-0.0002,-0.0002,3.0,3.0
0.05,0.7,0.328,0.1385,0.505,0.0,0.1385,0.505,0.0,0.1385,0.7356,0.2278,0.1385,0.5049,0.0008,0.1385,0.505,0.0004,0.1385,0.1378,0.0,0.0,0.0,0.0,0.9627,-0.0,0.3004,0.0,0.0,0.0,-0.2614,-0.5146,0.0,0.0002,0.0,0.0,0.0,-0.0002,-0.0002,3.0,3.0
0.05,0.7,0.3348,0.1385,0.505,0.0,0.1385,0.505,0.0,0.1385,0.7384,0.2289,0.1385,0.5049,0.0008,0.1385,0.505,0.0004,0.1385,0.1455,0.0,0.0,0.0,0.0,0.9648,-0.0,0.3006,0.0,0.0,0.0,-0.2616,-0.5148,0.0,0.0002,0.0,0.0,0.0,-0.0002,-0.0002,3.0,3.0
0.05,0.7,0.3412,0.1385,0.505,0.0,0.1385,0.505,0.0,0.1385,0.7411,0.2298,0.1385,0.505,0.0009,0.1385,0.5051,0.0004,0.1385,0.1528,0.0,0.0,0.0,0.0,0.9665,-0.0,0.3007,0.0,0.0,0.0,-0.2617,-0.5149,0.0,0.0001,0.0,0.0,0.0,-0.0001,-0.0001,3.0,3.0
0.05,0.7,0.3474,0.1385,0.505,0.0,0.1385,0.505,0.0,0.1385,0.7438,0.2308,0.1385,0.505,0.0009,0.1385,0.5051,0.0004,0.1385,0.1598,0.0,0.0,0.0,0.0,0.968,-0.0,0.3009,0.0,0.0,0.0,-0.2619,-0.5151,0.0,0.0001,0.0,0.0,0.0,-0.0001,-0.0001,3.0,3.0
0.05,0.7,0.3531,0.1385,0.505,0.0,0.1385,0.505,0.0,0.1385,0.7463,0.2317,0.1385,0.505,0.0009,0.1385,0.5051,0.0004,0.1385,0.1663,0.0,0.0,0.0,0.0,0.9693,-0.0,0.301,0.0,0.0,0.0,-0.262,-0.5152,-0.0,0.0001,0.0,0.0,0.0,-0.0001,-0.0001,3.0,3.0
0.05,0.7,0.3586,0.1385,0.505,0.0,0.1385,0.505,0.0,0.1385,0.7488,0.2325,0.1385,0.505,0.0009,0.1385,0.5051,0.0004,0.1385,0.1723,0.0,0.0,0.0,0.0,0.9704,-0.0,0.3011,0.0,0.0,0.0,-0.2621,-0.5153,0.0,0.0001,0.0,0.0,0.0,-0.0001,-0.0001,3.0,3.0
0.05,0.7,0.3637,0.1385,0.505,0.0,0.1385,0.505,0.0,0.1385,0.7511,0.2333,0.1385,0.505,0.0009,0.1385,0.5051,0.0004,0.1385,0.178,0.0,0.0,0.0,0.0,0.9714,-0.0,0.3012,0.0,0.0,0.0,-0.2622,-0.5154,-0.0,0.0001,0.0,0.0,0.0,-0.0001,-0.0001,3.0,3.0
0.05,0.7,0.3684,0.1385,0.505,0.0,0.1385,0.505,0.0,0.1385,0.7533,0.2341,0.1385,0.505,0.0009,0.1385,0.5051,0.0004,0.1385,0.1832,0.0,0.0,0.0,0.0,0.9722,-0.0,0.3013,0.0,0.0,0.0,-0.2623,-0.5155,0.0,0.0001,0.0,0.0,0.0,-0.0001,-0.0001,3.0,3.0
0.05,0.7,0.3728,0.1385,0.505,0.0,0.1385,0.505,0.0,0.1385,0.7554,0.2348,0.1385,0.505,0.0009,0.1385,0.5051,0.0004,0.1385,0.188,0.0,0.0,0.0,0.0,0.973,-0.0,0.3013,0.0,0.0,0.0,-0.2624,-0.5155,0.0,0.0001,0.0,0.0,0.0,-0.0001,-0.0001,3.0,3.0
0.05,0.7,0.3768,0.1385,0.505,0.0,0.1385,0.505,0.0,0.1385,0.7573,0.2354,0.1385,0.505,0.0009,0.1385,0.5051,0.0004,0.1385,0.1924,0.0,0.0,0.0,0.0,0.9736,-0.0,0.3014,0.0,0.0,0.0,-0.2624,-0.5156,0.0,0.0001,-0.0,-0.0,0.0,-0.0001,-0.0001,3.0,3.0
0.05,0.7,0.3805,0.1385,0.505,0.0,0.1385,0.505,0.0,0.1385,0.7591,0.2361,0.1385,0.505,0.001,0.1385,0.5051,0.0004,0.1385,0.1964,0.0,0.0,0.0,0.0,0.9742,-0.0,0.3015,0.0,0.0,0.0,-0.2625,-0.5157,0.0,0.0001,0.0,0.0,0.0,-0.0001,-0.0001,3.0,3.0
0.05,0.7,0.3838,0.1385,0.505,0.0,0.1385,0.505,0.0,0.1385,0.7608,0.2366,0.1385,0.505,0.001,0.1385,0.5051,0.0004,0.1385,0.2,0.0,0.0,0.0,0.0,0.9746,-0.0,0.3015,0.0,0.0,0.0,-0.2625,-0.5157,0.0,0.0,0.0,0.0,0.0,-0.0,-0.0,3.0,3.0
0.05,0.7,0.3867,0.1385,0.505,0.0,0.1385,0.505,0.0,0.1385,0.7623,0.2371,0.1385,0.505,0.001,0.1385,0.5051,0.0004,0.1385,0.2032,0.0,0.0,0.0,0.0,0.9751,-0.0,0.3016,0.0,0.0,0.0,-0.2626,-0.5158,0.0,0.0,0.0,0.0,0.0,-0.0,-0.0,3.0,3.0
0.05,0.7,0.3894,0.1385,0.505,0.0,0.1385,0.505,0.0,0.1385,0.7636,0.2376,0.1385,0.505,0.001,0.1385,0.5051,0.0004,0.1385,0.206,0.0,0.0,0.0,0.0,0.9754,-0.0,0.3016,0.0,0.0,0.0,-0.2626,-0.5158,0.0,0.0,0.0,0.0,0.0,-0.0,-0.0,3.0,3.0
0.05,0.7,0.3916,0.1385,0.505,0.0,0.1385,0.505,0.0,0.1385,0.7648,0.238,0.1385,0.505,0.001,0.1385,0.5051,0.0004,0.1385,0.2084,0.0,0.0,0.0,0.0,0.9757,-0.0,0.3016,0.0,0.0,0.0,-0.2626,-0.5158,0.0,0.0,0.0,0.0,0.0,-0.0,-0.0,3.0,3.0
0.05,0.7,0.3936,0.1385,0.505,0.0,0.1385,0.505,0.0,0.1385,0.7659,0.2383,0.1385,0.505,0.001,0.1385,0.5051,0.0005,0.1385,0.2105,0.0,0.0,0.0,0.0,0.976,-0.0,0.3017,0.0,0.0,0.0,-0.2627,-0.5159,0.0,0.0,0.0,0.0,0.0,-0.0,-0.0,3.0,3.0
0.05,0.7,0.3952,0.1385,0.505,0.0,0.1385,0.505,0.0,0.1385,0.7668,0.2386,0.1385,0.505,0.001,0.1385,0.5051,0.0005,0.1385,0.2123,0.0,0.0,0.0,0.0,0.9762,-0.0,0.3017,0.0,0.0,0.0,-0.2627,-0.5159,0.0,0.0,0.0,0.0,0.0,-0.0,-0.0,3.0,3.0
0.05,0.7,0.3966,0.1385,0.505,0.0,0.1385,0.505,0.0,0.1385,0.7676,0.2389,0.1385,0.505,0.001,0.1385,0.5051,0.0005,0.1385,0.2137,0.0,0.0,0.0,0.0,0.9764,-0.0,0.3017,0.0,0.0,0.0,-0.2627,-0.5159,0.0,0.0,0.0,0.0,0.0,-0.0,-0.0,3.0,3.0
0.05,0.7,0.3977,0.1385,0.505,0.0,0.1385,0.505,0.0,0.1385,0.7682,0.2391,0.1385,0.505,0.001,0.1385,0.5051,0.0005,0.1385,0.2149,0.0,0.0,0.0,0.0,0.9765,-0.0,0.3017,0.0,0.0,0.0,-0.2627,-0.5159,-0.0,0.0,0.0,0.0,0.0,-0.0,-0.0,3.0,3.0
0.05,0.7,0.3985,0.1385,0.505,0.0,0.1385,0.505,0.0,0.1385,0.7687,0.2392,0.1385,0.505,0.001,0.1385,0.5051,0.0005,0.1385,0.2158,0.0,0.0,0.0,0.0,0.9766,-0.0,0.3017,0.0,0.0,0.0,-0.2627,-0.5159,0.0,0.0,0.0,0.0,0.0,-0.0,-0.0,3.0,3.0
0.05,0.7,0.3991,0.1385,0.505,0.0,0.1385,0.505,0.0,0.1385,0.7691,0.2394,0.1385,0.505,0.001,0.1385,0.5051,0.0005,0.1385,0.2165,0.0,0.0,0.0,0.0,0.9767,-0.0,0.3017,0.0,0.0,0.0,-0.2628,-0.5159,0.0,0.0,0.0,0.0,0.0,-0.0,-0.0,3.0,3.0
0.05,0.7,0.3995,0.1385,0.505,0.0,0.1385,0.505,0.0,0.1385,0.7694,0.2395,0.1385,0.505,0.001,0.1385,0.5051,0.0005,0.1385,0.2169,0.0,0.0,0.0,0.0,0.9767,-0.0,0.3017,0.0,0.0,0.0,-0.2628,-0.5159,0.0,0.0,0.0,0.0,0.0,-0.0,-0.0,3.0,3.0
0.05,0.7,0.3998,0.1385,0.505,0.0,0.1385,0.505,0.0,0.1385,0.7696,0.2395,0.1385,0.505,0.001,0.1385,0.5051,0.0005,0.1385,0.2172,0.0,0.0,0.0,0.0,0.9768,-0.0,0.3018,0.0,0.0,0.0,-0.2628,-0.5159,-0.0,0.0,0.0,0.0,0.0,-0.0,-0.0,3.0,3.0
0.05,0.7,0.3999,0.1385,0.505,0.0,0.1385,0.505,0.0,0.1385,0.7697,0.2396,0.1385,0.505,0.001,0.1385,0.5051,0.0005,0.1385,0.2173,0.0,0.0,0.0,0.0,0.9768,-0.0,0.3018,0.0,0.0,0.0,-0.2628,-0.5159,0.0,0.0,0.0,0.0,0.0,-0.0,-0.0,3.0,3.0
0.05,0.7,0.4,0.1385,0.505,0.0,0.1385,0.505,0.0,0.1385,0.7698,0.2396,0.1385,0.505,0.001,0.1385,0.5051,0.0005,0.1385,0.2174,0.0,0.0,0.0,0.0,0.9768,-0.0,0.3018,0.0,0.0,0.0,-0.2628,-0.5159,0.0,0.0,0.0,0.0,0.0,-0.0,-0.0,3.0,3.0
0.05,0.7,0.4,0.1385,0.505,0.0,0.1385,0.505,0.0,0.1385,0.7698,0.2396,0.1385,0.505,0.001,0.1385,0.5051,0.0005,0.1385,0.2174,0.0,0.0,0.0,0.0,0.9768,-0.0,0.3018,0.0,0.0,0.0,-0.2628,-0.5159,0.0,-0.0,0.0,0.0,0.0,0.0,0.0,3.0,3.0
0.05,0.7,0.4,0.1385,0.505,0.0,0.1385,0.505,0.0,0.1385,0.7698,0.2396,0.1385,0.505,0.001,0.1385,0.5051,0.0005,0.1385,0.2174,0.0,0.0,0.0,0.0,0.9768,-0.0,0.3018,0.0,0.0,0.0,-0.2628,-0.5159,0.0,0.0,-0.0,0.0,-0.0,-0.0,-0.0,3.0,3.0
0.05,0.7,0.4,0.1386,0.505,0.0,0.1385,0.505,0.0,0.1385,0.7698,0.2396,0.1385,0.505,0.001,0.1385,0.5051,0.0005,0.1385,0.2174,0.0,0.0,0.0,0.0,0.9768,0.0,0.3018,-0.0,0.0,-0.0,-0.2628,-0.5159,0.0,-0.0,-0.0,0.0,-0.0001,0.0,0.0,3.0,3.0
0.05,0.7,0.4,0.1387,0.505,0.0,0.1385,0.505,0.0,0.1385,0.7698,0.2396,0.1385,0.505,0.001,0.1385,0.5051,0.0005,0.1385,0.2174,0.0,0.0,0.0,0.0,0.9768,0.0,0.3018,-0.0,0.0,-0.0001,-0.2628,-0.5159,0.0001,0.0,-0.0,0.0001,-0.0002,-0.0,-0.0,3.0,3.0
0.05,0.7,0.4,0.139,0.505,0.0,0.1385,0.505,0.0,0.1385,0.7698,0.2396,0.1387,0.505,0.001,0.1385,0.5051,0.0005,0.1385,0.2174,0.0,0.0,0.0,0.0,0.9768,0.0001,0.3018,-0.0001,0.0001,-0.0002,-0.2628,-0.5159,0.0002,-0.0,-0.0001,0.0002,-0.0003,0.0,0.0,3.0,3.0
0.05,0.7,0.4,0.1394,0.505,0.0,0.1385,0.505,0.0,0.1385,0.7698,0.2396,0.139,0.5049,0.001,0.1386,0.5051,0.0005,0.1386,0.2174,0.0,0.0,0.0,0.0,0.9768,0.0003,0.3018,-0.0001,0.0003,-0.0006,-0.2628,-0.5159,0.0002,-0.0,-0.0001,0.0003,-0.0005,0.0,0.0,3.0,3.0
0.05,0.7,0.4,0.14,0.505,0.0,0.1385,0.505,0.0,0.1385,0.7698,0.2396,0.1394,0.5049,0.001,0.1386,0.5051,0.0004,0.1386,0.2174,0.0,0.0,0.0,0.0,0.9768,0.0005,0.3018,-0.0002,0.0006,-0.0011,-0.2628,-0.5159,0.0004,-0.0,-0.0001,0.0004,-0.0008,0.0,0.0,3.0,3.0
0.05,0.7,0.4,0.1408,0.505,0.0,0.1385,0.505,0.0,0.1385,0.7697,0.2396,0.14,0.5049,0.001,0.1387,0.505,0.0004,0.1387,0.2173,0.0,0.0,0.0,0.0,0.9768,0.0009,0.3018,-0.0003,0.001,-0.0018,-0.2628,-0.5159,0.0005,-0.0,-0.0002,0.0006,-0.001,0.0,0.0,3.0,3.0
0.05,0.7,0.4,0.1419,0.505,0.0,0.1385,0.505,0.0,0.1385,0.7697,0.2396,0.1408,0.5049,0.001,0.1388,0.505,0.0004,0.1388,0.2173,0.0029,0.0,0.0,0.0,0.9768,0.0014,0.3018,-0.0005,0.0016,-0.0029,-0.2628,-0.5159,0.0006,-0.0,-0.0002,0.0007,-0.0018,-0.0027,0.0,3.0,3.0
0.05,0.7,0.4,0.1433,0.505,0.0,0.1385,0.505,0.0,0.1385,0.7697,0.2397,0.1419,0.5049,-0.0,0.1388,0.505,0.0004,0.1388,0.2172,0.0,0.0,0.0,0.0,0.9768,0.002,0.3018,-0.0007,0.0023,-0.0047,-0.2655,-0.5159,0.0008,-0.0,-0.0003,0.0009,-0.0017,0.0,0.0,3.0,3.0
0.05,0.7,0.4,0.1449,0.505,0.0,0.1385,0.505,0.0,0.1385,0.7696,0.2397,0.1432,0.5049,0.0,0.139,0.505,0.0004,0.139,0.2172,0.0,0.0,0.0,0.0,0.9768,0.0028,0.3018,-0.001,0.0032,-0.0063,-0.2655,-0.5159,0.001,-0.0,-0.0003,0.0011,-0.002,0.0,0.0,3.0,3.0
0.05,0.7,0.4,0.1469,0.505,0.0,0.1385,0.505,0.0,0.1385,0.7696,0.2397,0.1449,0.5049,0.0,0.1393,0.5049,0.0004,0.1393,0.2171,0.0,0.0,0.0,0.0,0.9768,0.0038,0.3017,-0.0014,0.0044,-0.0084,-0.2655,-0.5159,0.0011,-0.0,-0.0004,0.0013,-0.0024,0.0,0.0,3.0,3.0
0.05,0.7,0.4,0.1491,0.505,0.0,0.1385,0.505,0.0,0.1385,0.7696,0.2397,0.1468,0.5048,0.0,0.1396,0.5049,0.0003,0.1396,0.217,0.003,0.0,0.0,0.0,0.9768,0.0049,0.3017,-0.0017,0.0057,-0.0108,-0.2655,-0.5159,0.0013,-0.0,-0.0004,0.0015,-0.0043,-0.0,0.0,3.0,3.0
0.05,0.7,0.4,0.1517,0.505,0.0,0.1385,0.505,0.0,0.1385,0.7695,0.2398,0.1491,0.5048,-0.0,0.1394,0.5049,0.0003,0.1394,0.2169,0.0,0.0,0.0,0.0,0.9768,0.0062,0.3017,-0.0022,0.0072,-0.0151,-0.2655,-0.5159,0.0015,-0.0,-0.0005,0.0018,-0.0032,0.0,0.0,3.0,3.0
0.05,0.7,0.4,0.1547,0.505,0.0,0.1385,0.505,0.0,0.1385,0.7694,0.2398,0.1517,0.5048,0.0,0.1398,0.5048,0.0003,0.1398,0.2168,0.0035,0.0033,0.0,0.0,0.9768,0.0078,0.3017,-0.0027,0.009,-0.0183,-0.2655,-0.5159,0.0017,-0.0006,-0.0006,0.002,-0.007,0.0005,-0.0,3.0,3.0
0.05,0.7,0.4,0.158,0.505,0.0,0.1385,0.505,0.0,0.1385,0.7695,0.2394,0.1546,0.5047,-0.0001,0.139,0.5048,-0.0001,0.139,0.2172,0.0,0.0,0.0,0.0,0.9769,0.0095,0.3012,-0.0032,0.011,-0.0253,-0.265,-0.516,0.0019,-0.0,-0.0006,0.0022,-0.0041,0.0,0.0,3.0,3.0
0.05,0.7,0.4,0.1617,0.505,0.0,0.1385,0.505,0.0,0.1385,0.7694,0.2395,0.1579,0.5047,-0.0001,0.1395,0.5047,-0.0001,0.1395,0.217,0.003,0.0034,0.0,0.0,0.9767,0.0114,0.3012,-0.0039,0.0132,-0.0294,-0.265,-0.5159,0.0022,0.0004,-0.0007,0.0025,-0.007,-0.0002,-0.0,3.0,3.0
0.05,0.7,0.4,0.1657,0.505,0.0,0.1385,0.505,0.0,0.1385,0.7693,0.2399,0.1616,0.5047,0.0,0.1392,0.5047,0.0,0.1392,0.2165,0.0,0.0038,0.0,0.0,0.9767,0.0136,0.3015,-0.0046,0.0156,-0.0364,-0.2652,-0.5159,0.0024,0.0001,-0.0008,0.0027,-0.0054,-0.0001,0.0,3.0,3.0
0.05,0.7,0.4,0.1701,0.505,0.0,0.1385,0.505,0.0,0.1385,0.7692,0.24,0.1656,0.5047,0.0001,0.1396,0.5046,-0.0,0.1396,0.2162,0.0034,0.0045,0.0,0.0,0.9767,0.0159,0.3016,-0.0053,0.0184,-0.0418,-0.2653,-0.5159,0.0026,0.0002,-0.0008,0.0029,-0.008,-0.0004,-0.0,3.0,3.0
0.05,0.7,0.4,0.1748,0.505,0.0,0.1385,0.505,0.0,0.1385,0.7691,0.2402,0.17,0.5046,0.0,0.1393,0.5046,-0.0,0.1393,0.2158,0.0032,0.0052,0.0,0.0,0.9767,0.0185,0.3018,-0.0061,0.0213,-0.0498,-0.2657,-0.5159,0.0028,0.0001,-0.0009,0.0032,-0.0076,-0.0002,0.0,3.0,3.0
0.05,0.7,0.4,0.1799,0.505,0.0,0.1385,0.505,0.0,0.1385,0.7689,0.2404,0.1747,0.5046,0.0,0.1394,0.5046,-0.0,0.1394,0.2154,0.0036,0.0061,0.0,0.0,0.9766,0.0213,0.3019,-0.007,0.0245,-0.0574,-0.2659,-0.5159,0.003,0.0002,-0.0009,0.0034,-0.0081,-0.0003,-0.0,3.0,3.0
0.05,0.7,0.4,0.1853,0.505,0.0,0.1385,0.505,0.0,0.1385,0.7688,0.2407,0.1798,0.5046,0.0,0.1395,0.5045,-0.0,0.1395,0.215,0.0041,0.007,0.0,0.0,0.9766,0.0243,0.3021,-0.008,0.0279,-0.0656,-0.2662,-0.5159,0.0032,0.0002,-0.001,0.0037,-0.0087,-0.0003,0.0,3.0,3.0
0.05,0.7,0.4,0.1911,0.505,0.0,0.1385,0.505,0.0,0.1385,0.7686,0.2409,0.1852,0.5045,-0.0,0.1396,0.5045,-0.0,0.1396,0.2146,0.0046,0.0079,0.0,0.0,0.9765,0.0275,0.3022,-0.009,0.0316,-0.0743,-0.2664,-0.5159,0.0034,0.0002,-0.0011,0.0039,-0.0092,-0.0003,-0.0,3.0,3.0
0.05,0.7,0.4,0.1973,0.505,0.0,0.1385,0.505,0.0,0.1385,0.7685,0.2412,0.191,0.5045,-0.0,0.1397,0.5045,-0.0001,0.1397,0.2141,0.0052,0.0089,0.0,0.0,0.9765,0.0309,0.3024,-0.01,0.0354,-0.0835,-0.2668,-0.5159,0.0036,0.0002,-0.0011,0.0041,-0.0098,-0.0003,0.0,3.0,3.0
0.05,0.7,0.4,0.2037,0.505,0.0,0.1385,0.505,0.0,0.1385,0.7683,0.2415,0.1972,0.5045,-0.0,0.1398,0.5044,-0.0001,0.1398,0.2135,0.0058,0.01,0.0,0.0,0.9764,0.0344,0.3026,-0.0111,0.0395,-0.0933,-0.2671,-0.5159,0.0038,0.0002,-0.0012,0.0043,-0.0103,-0.0004,-0.0,3.0,3.0
0.05,0.7,0.4,0.2105,0.505,0.0,0.1385,0.505,0.0,0.1385,0.7682,0.2418,0.2036,0.5044,-0.0,0.1399,0.5044,-0.0001,0.1399,0.213,0.0064,0.0112,0.0,0.0,0.9764,0.0382,0.3028,-0.0123,0.0438,-0.1036,-0.2674,-0.5159,0.0039,0.0002,-0.0012,0.0045,-0.0107,-0.0004,0.0,3.0,3.0
0.05,0.7,0.4,0.2176,0.505,0.0,0.1385,0.505,0.0,0.1385,0.768,0.2421,0.2104,0.5044,-0.0,0.14,0.5043,-0.0001,0.14,0.2124,0.007,0.0124,0.0,0.0,0.9762,0.0421,0.3031,-0.0135,0.0483,-0.1143,-0.2678,-0.5159,0.0041,0.0002,-0.0013,0.0047,-0.0112,-0.0004,0.0,3.0,3.0
0.05,0.7,0.4,0.2249,0.505,0.0,0.1385,0.505,0.0,0.1385,0.7678,0.2425,0.2174,0.5044,-0.0001,0.14,0.5043,-0.0001,0.14,0.2118,0.0077,0.0136,0.0,0.0,0.9762,0.0462,0.3033,-0.0148,0.053,-0.1255,-0.2682,-0.5159,0.0043,0.0002,-0.0013,0.0049,-0.0116,-0.0004,0.0,3.0,3.0
0.05,0.7,0.4,0.2326,0.505,0.0,0.1385,0.505,0.0,0.1385,0.7676,0.2429,0.2248,0.5043,-0.0001,0.1401,0.5043,-0.0002,0.1401,0.2111,0.0084,0.0149,0.0,0.0,0.9761,0.0505,0.3035,-0.0161,0.0579,-0.1371,-0.2686,-0.5159,0.0044,0.0003,-0.0014,0.005,-0.012,-0.0004,0.0,3.0,3.0
0.05,0.7,0.4,0.2404,0.505,0.0,0.1385,0.505,0.0,0.1385,0.7674,0.2433,0.2324,0.5043,-0.0001,0.1402,0.5042,-0.0002,0.1402,0.2104,0.0091,0.0163,0.0,0.0,0.9761,0.0549,0.3038,-0.0175,0.063,-0.1491,-0.269,-0.5159,0.0045,0.0003,-0.0014,0.0052,-0.0124,-0.0004,0.0,3.0,3.0
0.05,0.7,0.4,0.2486,0.505,0.0,0.1385,0.505,0.0,0.1385,0.7672,0.2437,0.2403,0.5043,-0.0001,0.1403,0.5042,-0.0002,0.1403,0.2097,0.0099,0.0176,0.0,0.0,0.976,0.0595,0.304,-0.0189,0.0682,-0.1615,-0.2695,-0.5159,0.0047,0.0003,-0.0014,0.0053,-0.0127,-0.0005,0.0,3.0,3.0
0.05,0.7,0.4,0.2569,0.505,0.0,0.1385,0.505,0.0,0.1385,0.767,0.2441,0.2484,0.5042,-0.0001,0.1404,0.5041,-0.0003,0.1404,0.209,0.0106,0.019,0.0,0.0,0.9759,0.0641,0.3043,-0.0204,0.0735,-0.1742,-0.2699,-0.5158,0.0048,0.0003,-0.0015,0.0055,-0.013,-0.0005,0.0,3.0,3.0
0.05,0.7,0.4,0.2655,0.505,0.0,0.1385,0.505,0.0,0.1385,0.7668,0.2446,0.2568,0.5042,-0.0002,0.1405,0.5041,-0.0003,0.1405,0.2083,0.0114,0.0205,0.0,0.0,0.9758,0.0689,0.3046,-0.0218,0.079,-0.1872,-0.2704,-0.5158,0.0049,0.0003,-0.0015,0.0056,-0.0132,-0.0005,0.0,3.0,3.0
0.05,0.7,0.4,0.2742,0.505,0.0,0.1385,0.505,0.0,0.1385,0.7666,0.245,0.2653,0.5042,-0.0002,0.1405,0.5041,-0.0004,0.1405,0.2075,0.0122,0.022,0.0,0.0,0.9758,0.0738,0.3049,-0.0233,0.0845,-0.2004,-0.2709,-0.5158,0.005,0.0003,-0.0015,0.0057,-0.0134,-0.0005,0.0,3.0,3.0
0.05,0.7,0.4,0.2831,0.505,0.0,0.1385,0.505,0.0,0.1385,0.7664,0.2455,0.274,0.5042,-0.0002,0.1406,0.504,-0.0004,0.1406,0.2067,0.013,0.0234,0.0,0.0,0.9756,0.0787,0.3052,-0.0249,0.0902,-0.2138,-0.2714,-0.5158,0.005,0.0003,-0.0016,0.0057,-0.0136,-0.0005,0.0,3.0,3.0
0.05,0.7,0.4,0.2921,0.505,0.0,0.1385,0.505,0.0,0.1385,0.7662,0.246,0.2829,0.5042,-0.0002,0.1407,0.504,-0.0005,0.1407,0.2058,0.0139,0.0249,0.0,0.0,0.9756,0.0837,0.3055,-0.0264,0.0959,-0.2274,-0.2719,-0.5158,0.0051,0.0003,-0.0016,0.0058,-0.0137,-0.0005,0.0,3.0,3.0
0.05,0.7,0.4,0.3012,0.505,0.0,0.1385,0.505,0.0,0.1385,0.7659,0.2465,0.2919,0.5041,-0.0003,0.1407,0.504,-0.0006,0.1407,0.205,0.0147,0.0264,0.0,0.0,0.9754,0.0888,0.3058,-0.028,0.1017,-0.2411,-0.2724,-0.5158,0.0051,0.0003,-0.0016,0.0058,-0.0138,-0.0005,0.0,3.0,3.0
0.05,0.7,0.4,0.3105,0.505,0.0,0.1385,0.505,0.0,0.1385,0.7657,0.247,0.301,0.5041,-0.0003,0.1408,0.5039,-0.0006,0.1408,0.2041,0.0155,0.0279,0.0,0.0,0.9754,0.0939,0.3061,-0.0296,0.1076,-0.2549,-0.2729,-0.5158,0.0051,0.0003,-0.0016,0.0059,-0.0138,-0.0005,0.0,3.0,3.0
0.05,0.7,0.4,0.3198,0.505,0.0,0.1385,0.505,0.0,0.1385,0.7655,0.2476,0.3103,0.5041,-0.0003,0.1408,0.5039,-0.0007,0.1409,0.2032,0.0164,0.0295,0.0,0.0,0.9752,0.0991,0.3064,-0.0312,0.1135,-0.2687,-0.2735,-0.5158,0.0051,0.0003,-0.0016,0.0059,-0.0138,-0.0005,0.0,3.0,3.0
0.05,0.7,0.4,0.3291,0.505,0.0,0.1385,0.505,0.0,0.1385,0.7652,0.2481,0.3196,0.5041,-0.0004,0.1409,0.5039,-0.0008,0.1409,0.2023,0.0172,0.031,0.0,0.0,0.9752,0.1042,0.3067,-0.0328,0.1194,-0.2826,-0.274,-0.5158,0.0051,0.0003,-0.0016,0.0059,-0.0138,-0.0005,0.0,3.0,3.0
0.05,0.7,0.4,0.3385,0.505,0.0,0.1385,0.505,0.0,0.1385,0.765,0.2487,0.3289,0.5041,-0.0004,0.1409,0.5039,-0.0009,0.141,0.2014,0.0181,0.0324,0.0,0.0,0.975,0.1094,0.307,-0.0344,0.1252,-0.2964,-0.2746,-0.5158,0.0051,0.0003,-0.0016,0.0059,-0.0137,-0.0006,0.0,3.0,3.0
0.05,0.7,0.4,0.3479,0.505,0.0,0.1385,0.505,0.0,0.1385,0.7648,0.2492,0.3383,0.5041,-0.0005,0.141,0.5038,-0.001,0.141,0.2005,0.0189,0.0339,0.0,0.0,0.975,0.1145,0.3073,-0.0359,0.1311,-0.3101,-0.2751,-0.5157,0.0051,0.0003,-0.0016,0.0058,-0.0136,-0.0005,0.0,3.0,3.0
0.05,0.7,0.4,0.3572,0.505,0.0,0.1385,0.505,0.0,0.1385,0.7645,0.2498,0.3477,0.5041,-0.0005,0.141,0.5038,-0.001,0.1411,0.1996,0.0197,0.0354,0.0,0.0,0.9748,0.1196,0.3076,-0.0375,0.1369,-0.3237,-0.2757,-0.5157,0.005,0.0003,-0.0016,0.0058,-0.0135,-0.0006,0.0,3.0,3.0
0.05,0.7,0.4,0.3665,0.505,0.0,0.1385,0.505,0.0,0.1385,0.7643,0.2504,0.357,0.5041,-0.0006,0.1411,0.5038,-0.0011,0.1411,0.1987,0.0206,0.0368,0.0,0.0,0.9748,0.1246,0.3079,-0.0391,0.1427,-0.3372,-0.2762,-0.5157,0.005,0.0003,-0.0016,0.0057,-0.0133,-0.0005,0.0,3.0,3.0
0.05,0.7,0.4,0.3757,0.505,0.0,0.1385,0.505,0.0,0.1385,0.7641,0.2509,0.3663,0.5041,-0.0006,0.1411,0.5038,-0.0012,0.1411,0.1978,0.0214,0.0382,0.0,0.0,0.9746,0.1296,0.3082,-0.0407,0.1484,-0.3505,-0.2767,-0.5157,0.0049,0.0003,-0.0015,0.0056,-0.0131,-0.0005,0.0,3.0,3.0
0.05,0.7,0.4,0.3849,0.505,0.0,0.1385,0.505,0.0,0.1385,0.7638,0.2515,0.3755,0.5041,-0.0007,0.1411,0.5038,-0.0013,0.1412,0.1969,0.0222,0.0396,0.0,0.0,0.9745,0.1345,0.3085,-0.0422,0.1541,-0.3636,-0.2773,-0.5157,0.0048,0.0003,-0.0015,0.0055,-0.0128,-0.0005,0.0,3.0,3.0
0.05,0.7,0.4,0.3939,0.505,0.0,0.1385,0.505,0.0,0.1385,0.7636,0.2521,0.3847,0.5042,-0.0007,0.1411,0.5038,-0.0014,0.1412,0.196,0.0229,0.0409,0.0,0.0,0.9744,0.1394,0.3088,-0.0437,0.1596,-0.3764,-0.2778,-0.5157,0.0047,0.0003,-0.0015,0.0054,-0.0126,-0.0005,0.0,3.0,3.0
0.05,0.7,0.4,0.4028,0.505,0.0,0.1385,0.505,0.0,0.1385,0.7634,0.2526,0.3937,0.5042,-0.0008,0.1412,0.5038,-0.0015,0.1412,0.1951,0.0237,0.0422,0.0,0.0,0.9743,0.1441,0.3091,-0.0452,0.165,-0.389,-0.2784,-0.5157,0.0046,0.0003,-0.0015,0.0053,-0.0123,-0.0005,0.0,3.0,3.0
0.05,0.7,0.4,0.4115,0.505,0.0,0.1385,0.505,0.0,0.1385,0.7632,0.2532,0.4026,0.5042,-0.0008,0.1412,0.5038,-0.0016,0.1412,0.1942,0.0244,0.0435,0.0,0.0,0.9742,0.1487,0.3094,-0.0466,0.1704,-0.4012,-0.2789,-0.5157,0.0045,0.0003,-0.0014,0.0052,-0.0119,-0.0005,0.0,3.0,3.0
0.05,0.7,0.4,0.4201,0.505,0.0,0.1385,0.505,0.0,0.1385,0.763,0.2538,0.4113,0.5042,-0.0009,0.1412,0.5038,-0.0017,0.1413,0.1933,0.0252,0.0447,0.0,0.0,0.9741,0.1533,0.3097,-0.0481,0.1755,-0.4132,-0.2794,-0.5157,0.0044,0.0003,-0.0014,0.005,-0.0116,-0.0005,0.0,3.0,3.0
0.05,0.7,0.4,0.4284,0.505,0.0,0.1385,0.505,0.0,0.1385,0.7628,0.2543,0.4199,0.5042,-0.0009,0.1412,0.5038,-0.0018,0.1413,0.1925,0.0259,0.0459,0.0,0.0,0.974,0.1577,0.31,-0.0494,0.1806,-0.4248,-0.2799,-0.5156,0.0043,0.0003,-0.0013,0.0049,-0.0112,-0.0005,0.0,3.0,3.0
0.05,0.7,0.4,0.4365,0.505,0.0,0.1385,0.505,0.0,0.1385,0.7625,0.2548,0.4282,0.5043,-0.0009,0.1412,0.5038,-0.0019,0.1413,0.1916,0.0266,0.047,0.0,0.0,0.9739,0.1619,0.3103,-0.0508,0.1855,-0.436,-0.2804,-0.5156,0.0041,0.0003,-0.0013,0.0047,-0.0108,-0.0005,0.0,3.0,3.0
0.05,0.7,0.4,0.4444,0.505,0.0,0.1385,0.505,0.0,0.1385,0.7623,0.2554,0.4363,0.5043,-0.001,0.1412,0.5038,-0.002,0.1413,0.1908,0.0272,0.0481,0.0,0.0,0.9738,0.1661,0.3106,-0.0521,0.1902,-0.4468,-0.2809,-0.5156,0.004,0.0003,-0.0013,0.0046,-0.0104,-0.0005,0.0,3.0,3.0
0.05,0.7,0.4,0.4521,0.505,0.0,0.1385,0.505,0.0,0.1385,0.7622,0.2559,0.4442,0.5043,-0.001,0.1412,0.5038,-0.0021,0.1413,0.19,0.0278,0.0492,0.0,0.0,0.9737,0.17,0.3108,-0.0533,0.1947,-0.4572,-0.2814,-0.5156,0.0038,0.0003,-0.0012,0.0044,-0.01,-0.0004,0.0,3.0,3.0
0.05,0.7,0.4,0.4594,0.505,0.0,0.1385,0.505,0.0,0.1385,0.762,0.2564,0.4519,0.5044,-0.0011,0.1412,0.5039,-0.0021,0.1413,0.1893,0.0285,0.0502,0.0,0.0,0.9736,0.1739,0.3111,-0.0545,0.1991,-0.4672,-0.2818,-0.5156,0.0037,0.0002,-0.0012,0.0042,-0.0096,-0.0004,0.0,3.0,3.0
0.05,0.7,0.4,0.4665,0.505,0.0,0.1385,0.505,0.0,0.1385,0.7618,0.2569,0.4592,0.5044,-0.0011,0.1412,0.5039,-0.0022,0.1413,0.1885,0.029,0.0511,0.0818,0.0,0.9735,0.1775,0.3113,-0.0557,0.2033,-0.4768,-0.2822,-0.5156,0.003,0.0002,-0.0013,0.0035,-0.008,-0.0004,0.0,3.0,3.0
0.05,0.7,0.4,0.4733,0.505,0.0,0.1385,0.505,0.0,0.1385,0.762,0.2574,0.4655,0.5046,-0.0012,0.1411,0.504,-0.0023,0.1412,0.1879,0.0292,0.0517,0.2567,0.0,0.9734,0.1805,0.3115,-0.057,0.2068,-0.4847,-0.2827,-0.5156,0.0021,0.0001,-0.0015,0.0027,-0.0058,-0.0003,0.0,3.0,3.0
0.05,0.7,0.4,0.4797,0.505,0.0,0.1385,0.505,0.0,0.1385,0.7628,0.2577,0.4703,0.5048,-0.0012,0.1409,0.5042,-0.0023,0.141,0.1875,0.0287,0.0515,0.4222,0.0,0.9733,0.1825,0.3116,-0.0585,0.2095,-0.4906,-0.283,-0.5156,0.0016,0.0,-0.0017,0.0022,-0.0044,-0.0002,0.0,3.0,3.0
0.05,0.7,0.4,0.4858,0.505,0.0,0.1385,0.505,0.0,0.1385,0.7639,0.258,0.4744,0.5049,-0.0012,0.1408,0.5043,-0.0023,0.1409,0.1872,0.0277,0.0508,0.5552,0.0,0.9732,0.1841,0.3116,-0.0602,0.2117,-0.495,-0.2832,-0.5156,0.0012,-0.0,-0.0018,0.0018,-0.0034,-0.0002,0.0,3.0,3.0
0.05,0.7,0.4,0.4916,0.505,0.0,0.1385,0.505,0.0,0.1385,0.7651,0.2582,0.4778,0.505,-0.0011,0.1406,0.5044,-0.0023,0.1407,0.187,0.0265,0.0498,0.6541,0.0,0.9732,0.1853,0.3116,-0.0619,0.2135,-0.4983,-0.2834,-0.5156,0.0009,-0.0001,-0.0018,0.0015,-0.0025,-0.0001,0.0,3.0,3.0
0.05,0.7,0.4,0.4971,0.505,0.0,0.1385,0.505,0.0,0.1385,0.7664,0.2584,0.4806,0.505,-0.0011,0.1405,0.5045,-0.0023,0.1406,0.187,0.0252,0.0486,0.7243,0.0,0.9731,0.1862,0.3116,-0.0637,0.215,-0.5008,-0.2836,-0.5155,0.0006,-0.0001,-0.0018,0.0012,-0.0019,-0.0001,0.0,3.0,3.0
0.05,0.7,0.4,0.5022,0.505,0.0,0.1385,0.505,0.0,0.1385,0.7678,0.2585,0.483,0.5051,-0.001,0.1404,0.5046,-0.0022,0.1405,0.1871,0.0237,0.0472,0.7734,0.0,0.973,0.1868,0.3115,-0.0655,0.2162,-0.5027,-0.2837,-0.5155,0.0005,-0.0001,-0.0017,0.001,-0.0014,-0.0001,0.0,3.0,3.0
0.05,0.7,0.4,0.5069,0.505,0.0,0.1385,0.505,0.0,0.1385,0.7692,0.2586,0.485,0.5051,-0.001,0.1404,0.5046,-0.0022,0.1404,0.1873,0.0221,0.0458,0.8081,0.0,0.973,0.1873,0.3114,-0.0672,0.2173,-0.5041,-0.2838,-0.5155,0.0003,-0.0001,-0.0016,0.0009,-0.0011,-0.0001,0.0,3.0,3.0
0.05,0.7,0.4,0.5113,0.505,0.0,0.1385,0.505,0.0,0.1385,0.7706,0.2586,0.4868,0.5051,-0.0009,0.1403,0.5047,-0.0021,0.1404,0.1876,0.0206,0.0444,0.8329,0.0,0.9729,0.1876,0.3113,-0.0688,0.2181,-0.5052,-0.2838,-0.5155,0.0003,-0.0001,-0.0015,0.0008,-0.0008,-0.0,0.0,3.0,3.0
0.05,0.7,0.4,0.5153,0.505,0.0,0.1385,0.505,0.0,0.1385,0.772,0.2587,0.4883,0.5052,-0.0008,0.1402,0.5047,-0.0021,0.1403,0.1879,0.0192,0.043,0.8512,0.0,0.9729,0.1879,0.3112,-0.0704,0.2189,-0.506,-0.2839,-0.5155,0.0002,-0.0001,-0.0014,0.0007,-0.0006,-0.0,0.0,3.0,3.0
0.05,0.7,0.4,0.519,0.505,0.0,0.1385,0.505,0.0,0.1385,0.7733,0.2588,0.4897,0.5052,-0.0008,0.1401,0.5047,-0.002,0.1402,0.1883,0.0178,0.0417,0.8649,0.0,0.9729,0.1881,0.3111,-0.0718,0.2196,-0.5066,-0.2839,-0.5155,0.0001,-0.0001,-0.0013,0.0006,-0.0005,-0.0,0.0,3.0,3.0
0.05,0.7,0.4,0.5223,0.505,0.0,0.1385,0.505,0.0,0.1385,0.7745,0.2588,0.4909,0.5052,-0.0007,0.1401,0.5047,-0.0019,0.1402,0.1886,0.0166,0.0405,0.8754,0.0,0.9728,0.1882,0.3111,-0.0731,0.2202,-0.5072,-0.2839,-0.5155,0.0001,-0.0001,-0.0012,0.0005,-0.0004,-0.0,0.0,3.0,3.0
0.05,0.7,0.4,0.5252,0.505,0.0,0.1385,0.505,0.0,0.1385,0.7756,0.2589,0.492,0.5052,-0.0007,0.14,0.5048,-0.0019,0.1401,0.189,0.0154,0.0394,0.8836,0.0,0.9728,0.1883,0.311,-0.0743,0.2207,-0.5076,-0.284,-0.5155,0.0001,-0.0001,-0.0011,0.0004,-0.0003,-0.0,0.0,3.0,3.0
0.05,0.7,0.4,0.5278,0.505,0.0,0.1385,0.505,0.0,0.1385,0.7766,0.2589,0.4929,0.5052,-0.0006,0.14,0.5048,-0.0018,0.1401,0.1894,0.0144,0.0384,0.8901,0.0,0.9728,0.1884,0.3109,-0.0754,0.2211,-0.5079,-0.284,-0.5155,0.0001,-0.0001,-0.001,0.0004,-0.0003,-0.0,0.0,3.0,3.0
0.05,0.7,0.4,0.5301,0.505,0.0,0.1385,0.505,0.0,0.1385,0.7775,0.2589,0.4937,0.5052,-0.0006,0.14,0.5048,-0.0018,0.14,0.1897,0.0134,0.0375,0.8952,0.0,0.9728,0.1885,0.3109,-0.0763,0.2215,-0.5082,-0.284,-0.5155,0.0001,-0.0001,-0.0008,0.0003,-0.0002,-0.0,0.0,3.0,3.0
0.05,0.7,0.4,0.5321,0.505,0.0,0.1385,0.505,0.0,0.1385,0.7783,0.259,0.4944,0.5052,-0.0005,0.1399,0.5048,-0.0018,0.14,0.19,0.0126,0.0367,0.8993,0.0,0.9727,0.1885,0.3108,-0.0772,0.2218,-0.5084,-0.284,-0.5155,0.0,-0.0,-0.0007,0.0003,-0.0002,-0.0,0.0,3.0,3.0
0.05,0.7,0.4,0.5337,0.505,0.0,0.1385,0.505,0.0,0.1385,0.779,0.259,0.495,0.5052,-0.0005,0.1399,0.5048,-0.0017,0.14,0.1903,0.0119,0.036,0.9025,0.0,0.9727,0.1886,0.3108,-0.0779,0.2221,-0.5086,-0.284,-0.5155,0.0,-0.0,-0.0006,0.0002,-0.0001,-0.0,0.0,3.0,3.0
0.05,0.7,0.4,0.5351,0.505,0.0,0.1385,0.505,0.0,0.1385,0.7796,0.259,0.4955,0.5052,-0.0005,0.1399,0.5048,-0.0017,0.1399,0.1905,0.0113,0.0355,0.9051,0.0,0.9727,0.1886,0.3107,-0.0785,0.2223,-0.5087,-0.284,-0.5155,0.0,-0.0,-0.0005,0.0002,-0.0001,-0.0,0.0,3.0,3.0
0.05,0.7,0.4,0.5361,0.505,0.0,0.1385,0.505,0.0,0.1385,0.78,0.2591,0.4959,0.5052,-0.0005,0.1398,0.5048,-0.0017,0.1399,0.1907,0.0109,0.035,0.9071,0.0,0.9727,0.1886,0.3107,-0.079,0.2225,-0.5089,-0.284,-0.5155,0.0,-0.0,-0.0004,0.0001,-0.0001,-0.0,0.0,3.0,3.0
0.05,0.7,0.4,0.537,0.505,0.0,0.1385,0.505,0.0,0.1385,0.7804,0.2591,0.4962,0.5052,-0.0004,0.1398,0.5048,-0.0017,0.1399,0.1908,0.0105,0.0346,0.9086,0.0,0.9727,0.1886,0.3107,-0.0794,0.2226,-0.5089,-0.284,-0.5155,0.0,-0.0,-0.0003,0.0001,-0.0001,-0.0,0.0,3.0,3.0
0.05,0.7,0.4,0.5376,0.505,0.0,0.1385,0.505,0.0,0.1385,0.7807,0.2591,0.4965,0.5052,-0.0004,0.1398,0.5048,-0.0016,0.1399,0.1909,0.0102,0.0343,0.9098,0.0,0.9727,0.1886,0.3107,-0.0797,0.2228,-0.509,-0.2841,-0.5155,0.0,-0.0,-0.0002,0.0001,-0.0,-0.0,0.0,3.0,3.0
0.05,0.7,0.4,0.538,0.505,0.0,0.1385,0.505,0.0,0.1385,0.7809,0.2591,0.4966,0.5052,-0.0004,0.1398,0.5048,-0.0016,0.1399,0.191,0.0099,0.0341,0.9106,0.0,0.9727,0.1886,0.3106,-0.0799,0.2228,-0.5091,-0.2841,-0.5155,0.0,-0.0,-0.0002,0.0001,-0.0,-0.0,0.0,3.0,3.0
0.05,0.7,0.4,0.5383,0.505,0.0,0.1385,0.505,0.0,0.1385,0.7811,0.2591,0.4968,0.5052,-0.0004,0.1398,0.5048,-0.0016,0.1399,0.191,0.0098,0.0339,0.9111,0.0,0.9727,0.1887,0.3106,-0.0801,0.2229,-0.5091,-0.2841,-0.5155,0.0,-0.0,-0.0001,0.0,-0.0,-0.0,0.0,3.0,3.0
0.05,0.7,0.4,0.5384,0.505,0.0,0.1385,0.505,0.0,0.1385,0.7812,0.2591,0.4968,0.5052,-0.0004,0.1398,0.5048,-0.0016,0.1398,0.191,0.0097,0.0338,0.9115,0.0,0.9727,0.1887,0.3106,-0.0802,0.2229,-0.5091,-0.2841,-0.5155,0.0,-0.0,-0.0001,0.0,-0.0,-0.0,-0.0,3.0,3.0
0.05,0.7,0.4,0.5385,0.505,0.0,0.1385,0.505,0.0,0.1385,0.7812,0.2591,0.4969,0.5052,-0.0004,0.1398,0.5048,-0.0016,0.1398,0.191,0.0096,0.0338,0.9116,0.0,0.9727,0.1887,0.3106,-0.0802,0.2229,-0.5091,-0.2841,-0.5155,-0.0,0.0,-0.0,0.0,-0.0,-0.0,0.0,3.0,3.0
0.05,0.7,0.4,0.5385,0.505,0.0,0.1385,0.505,0.0,0.1385,0.7813,0.2591,0.4969,0.5052,-0.0004,0.1398,0.5048,-0.0016,0.1398,0.191,0.0096,0.0338,0.9117,0.0,0.9727,0.1887,0.3106,-0.0803,0.2229,-0.5091,-0.2841,-0.5155,-0.0,0.0,-0.0,0.0,-0.0,-0.0,-0.0,3.0,3.0
0.05,0.7,0.4,0.5385,0.505,0.0,0.1385,0.505,0.0,0.1385,0.7813,0.2591,0.4969,0.5052,-0.0004,0.1398,0.5048,-0.0016,0.1398,0.191,0.0096,0.0338,0.9117,0.0,0.9727,0.1887,0.3106,-0.0803,0.2229,-0.5091,-0.2841,-0.5155,0.0,-0.0,-0.0,0.0,-0.0,0.0,0.0,3.0,3.0
0.05,0.7,0.3999,0.5385,0.505,0.0,0.1385,0.505,0.0,0.1385,0.7813,0.2591,0.4969,0.5052,-0.0004,0.1398,0.5048,-0.0016,0.1398,0.1909,0.0096,0.0338,0.9117,0.0,0.9727,0.1887,0.3106,-0.0803,0.2229,-0.5091,-0.2841,-0.5155,0.0,-0.0,-0.0,0.0,-0.0,0.0,0.0,3.0,3.0
0.05,0.7,0.3996,0.5385,0.505,0.0,0.1385,0.505,0.0,0.1385,0.7812,0.2591,0.4969,0.5052,-0.0004,0.1398,0.5048,-0.0016,0.1398,0.1906,0.0096,0.0338,0.9118,0.0,0.9727,0.1887,0.3106,-0.0803,0.223,-0.5091,-0.2841,-0.5155,0.0,-0.0,-0.0,0.0,-0.0,0.0,0.0,3.0,3.0
0.05,0.7,0.3991,0.5385,0.505,0.0,0.1385,0.505,0.0,0.1385,0.7811,0.2591,0.4968,0.5052,-0.0004,0.1398,0.5048,-0.0016,0.1398,0.1901,0.0096,0.0337,0.9119,0.0,0.9726,0.1887,0.3106,-0.0803,0.223,-0.5091,-0.2841,-0.5155,0.0,-0.0,-0.0,0.0,-0.0,0.0,0.0,3.0,3.0
0.05,0.7,0.3982,0.5385,0.505,0.0,0.1385,0.505,0.0,0.1385,0.7809,0.259,0.4968,0.5052,-0.0004,0.1398,0.5048,-0.0016,0.1398,0.1893,0.0096,0.0337,0.912,0.0,0.9725,0.1887,0.3106,-0.0803,0.223,-0.5091,-0.284,-0.5155,0.0,-0.0,-0.0,0.0,-0.0,0.0,0.0,3.0,3.0
0.05,0.7,0.397,0.5385,0.505,0.0,0.1385,0.505,0.0,0.1385,0.7806,0.2588,0.4966,0.5052,-0.0004,0.1398,0.5048,-0.0016,0.1398,0.1882,0.0095,0.0337,0.9123,0.0,0.9723,0.1887,0.3106,-0.0804,0.223,-0.5092,-0.284,-0.5155,0.0,-0.0,-0.0001,0.0,-0.0,0.0,0.0,3.0,3.0
0.05,0.7,0.3953,0.5385,0.505,0.0,0.1385,0.505,0.0,0.1385,0.7801,0.2587,0.4965,0.5052,-0.0004,0.1398,0.5048,-0.0016,0.1398,0.1866,0.0094,0.0336,0.9128,0.0,0.9721,0.1887,0.3106,-0.0804,0.223,-0.5092,-0.284,-0.5155,0.0,-0.0,-0.0001,0.0,-0.0,0.0,0.0,3.0,3.0
0.05,0.7,0.3932,0.5385,0.505,0.0,0.1385,0.505,0.0,0.1385,0.7795,0.2584,0.4962,0.5052,-0.0004,0.1398,0.5048,-0.0016,0.1398,0.1845,0.0094,0.0335,0.9133,0.0,0.9718,0.1887,0.3105,-0.0805,0.2231,-0.5092,-0.284,-0.5154,0.0,-0.0,-0.0001,0.0001,-0.0,0.0,0.0,3.0,3.0
0.05,0.7,0.3904,0.5385,0.505,0.0,0.1385,0.505,0.0,0.1385,0.7787,0.2581,0.4959,0.5052,-0.0004,0.1398,0.5048,-0.0016,0.1398,0.1819,0.0092,0.0334,0.9141,0.0,0.9714,0.1887,0.3105,-0.0806,0.2231,-0.5093,-0.2839,-0.5154,0.0,-0.0001,-0.0001,0.0001,-0.0001,0.0001,0.0001,3.0,3.0
0.05,0.7,0.3872,0.5385,0.505,0.0,0.1385,0.505,0.0,0.1385,0.7777,0.2577,0.4955,0.5052,-0.0004,0.1398,0.5048,-0.0016,0.1398,0.1788,0.0091,0.0333,0.915,0.0,0.9709,0.1887,0.3104,-0.0808,0.2232,-0.5093,-0.2839,-0.5153,0.0,-0.0001,-0.0002,0.0001,-0.0001,0.0001,0.0001,3.0,3.0
0.05,0.7,0.3833,0.5385,0.505,0.0,0.1385,0.505,0.0,0.1385,0.7764,0.2572,0.4951,0.5051,-0.0004,0.1398,0.5048,-0.0016,0.1398,0.1751,0.0089,0.0331,0.916,0.0,0.9703,0.1887,0.3104,-0.0809,0.2233,-0.5094,-0.2838,-0.5153,0.0,-0.0001,-0.0002,0.0001,-0.0001,0.0001,0.0001,3.0,3.0
0.05,0.7,0.3787,0.5385,0.505,0.0,0.1385,0.505,0.0,0.1385,0.775,0.2566,0.4945,0.5051,-0.0004,0.1398,0.5048,-0.0016,0.1398,0.1708,0.0087,0.0329,0.9173,0.0,0.9695,0.1887,0.3103,-0.0811,0.2234,-0.5094,-0.2837,-0.5152,0.0,-0.0001,-0.0002,0.0001,-0.0001,0.0001,0.0001,3.0,3.0
0.05,0.7,0.3735,0.5385,0.505,0.0,0.1385,0.505,0.0,0.1385,0.7733,0.2559,0.4939,0.5051,-0.0004,0.1398,0.5048,-0.0016,0.1398,0.1659,0.0085,0.0327,0.9186,0.0,0.9685,0.1888,0.3102,-0.0813,0.2235,-0.5095,-0.2836,-0.5151,0.0,-0.0001,-0.0002,0.0001,-0.0001,0.0001,0.0001,3.0,3.0
0.05,0.7,0.3676,0.5385,0.505,0.0,0.1385,0.505,0.0,0.1385,0.7714,0.2552,0.4932,0.5051,-0.0003,0.1398,0.5048,-0.0016,0.1398,0.1604,0.0082,0.0324,0.9202,0.0,0.9674,0.1888,0.3101,-0.0816,0.2236,-0.5096,-0.2835,-0.515,0.0,-0.0001,-0.0003,0.0001,-0.0001,0.0001,0.0001,3.0,3.0
0.05,0.7,0.361,0.5385,0.505,0.0,0.1385,0.505,0.0,0.1385,0.7693,0.2543,0.4924,0.5051,-0.0003,0.1397,0.5048,-0.0015,0.1398,0.1543,0.008,0.0321,0.9218,0.0,0.9659,0.1888,0.3099,-0.0818,0.2237,-0.5097,-0.2834,-0.5149,0.0,-0.0002,-0.0003,0.0001,-0.0001,0.0002,0.0002,3.0,3.0
0.05,0.7,0.3537,0.5385,0.505,0.0,0.1385,0.505,0.0,0.1385,0.767,0.2534,0.4914,0.5051,-0.0003,0.1397,0.5048,-0.0015,0.1398,0.1475,0.0077,0.0318,0.9236,0.0,0.9642,0.1889,0.3098,-0.0821,0.2238,-0.5098,-0.2832,-0.5147,0.0,-0.0002,-0.0003,0.0001,-0.0001,0.0002,0.0002,3.0,3.0
0.05,0.7,0.3456,0.5385,0.505,0.0,0.1385,0.505,0.0,0.1385,0.7645,0.2523,0.4905,0.5051,-0.0003,0.1397,0.5048,-0.0015,0.1398,0.1403,0.0074,0.0315,0.9255,0.0,0.962,0.1889,0.3096,-0.0824,0.224,-0.51,-0.283,-0.5145,0.0,-0.0002,-0.0003,0.0001,-0.0001,0.0002,0.0002,3.0,3.0
0.05,0.7,0.3369,0.5385,0.505,0.0,0.1385,0.505,0.0,0.1385,0.7617,0.2512,0.4894,0.5051,-0.0003,0.1397,0.5048,-0.0015,0.1398,0.1325,0.0071,0.0312,0.9275,0.0,0.9594,0.1889,0.3094,-0.0827,0.2241,-0.5101,-0.2828,-0.5143,0.0,-0.0003,-0.0003,0.0001,-0.0001,0.0003,0.0003,3.0,3.0
0.05,0.7,0.3274,0.5385,0.505,0.0,0.1385,0.505,0.0,0.1385,0.7588,0.25,0.4882,0.5051,-0.0003,0.1397,0.5049,-0.0015,0.1398,0.1244,0.0067,0.0309,0.9295,0.0,0.956,0.1889,0.3091,-0.083,0.2242,-0.5102,-0.2825,-0.514,0.0,-0.0003,-0.0003,0.0001,-0.0001,0.0004,0.0003,3.0,3.0
0.05,0.7,0.3172,0.5385,0.505,0.0,0.1385,0.505,0.0,0.1385,0.7558,0.2487,0.487,0.5051,-0.0003,0.1397,0.5049,-0.0015,0.1397,0.1161,0.0064,0.0305,0.9315,0.0,0.9517,0.189,0.3088,-0.0832,0.2244,-0.5103,-0.2821,-0.5137,0.0,-0.0004,-0.0002,0.0001,-0.0001,0.0005,0.0004,3.0,3.0
0.05,0.7,0.3063,0.5385,0.505,0.0,0.1385,0.505,0.0,0.1385,0.7526,0.2473,0.4857,0.5051,-0.0003,0.1397,0.5049,-0.0015,0.1397,0.1078,0.0061,0.0302,0.9335,0.0,0.946,0.189,0.3084,-0.0835,0.2245,-0.5105,-0.2816,-0.5132,0.0,-0.0005,-0.0002,0.0001,-0.0001,0.0006,0.0005,3.0,3.0
0.05,0.7,0.2947,0.5385,0.505,0.0,0.1385,0.505,0.0,0.1385,0.7493,0.2457,0.4843,0.5051,-0.0003,0.1397,0.5049,-0.0015,0.1397,0.0999,0.0058,0.0299,0.9356,0.0,0.9383,0.189,0.3079,-0.0836,0.2246,-0.5106,-0.281,-0.5127,0.0,-0.0006,-0.0001,0.0001,-0.0001,0.0008,0.0007,3.0,3.0
0.05,0.7,0.2824,0.5385,0.505,0.0,0.1385,0.505,0.0,0.1385,0.746,0.2441,0.4829,0.5051,-0.0003,0.1397,0.5049,-0.0015,0.1397,0.0929,0.0055,0.0296,0.9376,0.0,0.9277,0.189,0.3073,-0.0838,0.2248,-0.5107,-0.2803,-0.512,0.0,-0.0008,-0.0,0.0001,-0.0001,0.001,0.001,3.0,3.0
0.05,0.7,0.2695,0.5385,0.505,0.0,0.1385,0.505,0.0,0.1385,0.7426,0.2423,0.4815,0.5051,-0.0003,0.1397,0.5049,-0.0015,0.1397,0.0873,0.0052,0.0293,0.9395,0.0,0.912,0.1891,0.3065,-0.0838,0.2249,-0.5109,-0.2792,-0.511,-0.0,-0.0012,0.0001,0.0001,-0.0001,0.0015,0.0014,3.0,3.0
0.05,0.7,0.256,0.5385,0.505,0.0,0.1385,0.505,0.0,0.1385,0.7393,0.2402,0.48,0.5051,-0.0003,0.1396,0.505,-0.0015,0.1397,0.0839,0.005,0.0291,0.9414,0.0,0.8875,0.1891,0.3053,-0.0837,0.2249,-0.511,-0.2778,-0.5097,-0.0,-0.0018,0.0003,0.0,-0.0001,0.0022,0.002,3.0,3.0
0.05,0.7,0.2419,0.5385,0.505,0.0,0.1385,0.505,0.0,0.1385,0.7362,0.2376,0.4784,0.5051,-0.0004,0.1396,0.505,-0.0015,0.1397,0.0833,0.0047,0.0288,0.9432,0.0,0.8457,0.189,0.3035,-0.0835,0.225,-0.5111,-0.2755,-0.5076,-0.0001,-0.0029,0.0006,-0.0,-0.0001,0.0036,0.0033,3.0,3.0
0.05,0.7,0.2271,0.5385,0.505,0.0,0.1385,0.505,0.0,0.1385,0.7333,0.2342,0.4769,0.5051,-0.0005,0.1396,0.5051,-0.0016,0.1396,0.0857,0.0045,0.0285,0.9449,0.0,0.7667,0.189,0.3005,-0.0829,0.2249,-0.5113,-0.272,-0.5043,-0.0002,-0.0054,0.0012,-0.0001,-0.0001,0.0065,0.0061,3.0,3.0
0.05,0.7,0.2119,0.5385,0.505,0.0,0.1385,0.505,0.0,0.1385,0.731,0.229,0.4754,0.5051,-0.0008,0.1396,0.5053,-0.0018,0.1396,0.0902,0.0044,0.028,0.9464,0.0,0.5977,0.1888,0.2951,-0.0817,0.2248,-0.5114,-0.2655,-0.4982,-0.0004,-0.0113,0.0025,-0.0003,-0.0001,0.0133,0.0125,3.0,3.0
0.05,0.7,0.1961,0.5385,0.505,0.0,0.1385,0.505,0.0,0.1385,0.7302,0.2194,0.4738,0.505,-0.0015,0.1396,0.5059,-0.0024,0.1395,0.0947,0.0048,0.0272,0.9476,0.0,0.2358,0.1884,0.2839,-0.0791,0.2246,-0.5115,-0.2522,-0.4857,-0.0009,-0.024,0.0054,-0.0006,-0.0001,0.0282,0.0266,3.0,3.0
0.05,0.7,0.1798,0.5385,0.505,0.0,0.1385,0.505,0.0,0.1385,0.732,0.2002,0.4722,0.5047,-0.003,0.1396,0.507,-0.0035,0.1394,0.0957,0.0079,0.0254,0.9485,0.0,0.0,0.1875,0.2599,-0.0738,0.224,-0.5115,-0.224,-0.4591,-0.001,-0.0268,0.0065,-0.0008,-0.0001,0.0351,0.0319,3.0,3.0
0.05,0.7,0.1631,0.5385,0.505,0.0,0.1385,0.505,0.0,0.1385,0.7341,0.179,0.4704,0.5046,-0.0032,0.1395,0.5072,-0.0037,0.1392,0.0965,0.009,0.0236,0.9493,0.0,0.0,0.1866,0.2331,-0.0672,0.2233,-0.5116,-0.1889,-0.4272,-0.0007,-0.0209,0.0057,-0.0007,-0.0001,0.0299,0.0266,3.0,3.0
0.05,0.7,0.146,0.5385,0.505,0.0,0.1385,0.505,0.0,0.1385,0.7348,0.1625,0.4687,0.5046,-0.0024,0.1394,0.5067,-0.0031,0.1392,0.0987,0.0079,0.0224,0.9501,0.0,0.0,0.1859,0.2122,-0.0615,0.2226,-0.5116,-0.159,-0.4006,-0.0006,-0.0217,0.0058,-0.0005,-0.0001,0.0289,0.0265,3.0,3.0
0.05,0.7,0.1286,0.5385,0.505,0.0,0.1385,0.505,0.0,0.1385,0.7354,0.1454,0.4672,0.5045,-0.0024,0.1394,0.5067,-0.0032,0.1392,0.1006,0.009,0.0213,0.9508,0.0,0.0,0.1852,0.1905,-0.0558,0.222,-0.5117,-0.1302,-0.3741,-0.0006,-0.0224,0.0061,-0.0005,-0.0,0.0297,0.0275,3.0,3.0
0.05,0.7,0.1108,0.5385,0.505,0.0,0.1385,0.505,0.0,0.1385,0.736,0.128,0.4657,0.5044,-0.0024,0.1394,0.5067,-0.0032,0.1391,0.1024,0.01,0.0202,0.9515,0.0,0.0,0.1846,0.1681,-0.0497,0.2215,-0.5117,-0.1004,-0.3466,-0.0006,-0.0229,0.0063,-0.0005,-0.0,0.0304,0.0284,3.0,3.0
0.05,0.7,0.0928,0.5385,0.505,0.0,0.1385,0.505,0.0,0.1385,0.7365,0.1103,0.4644,0.5043,-0.0024,0.1394,0.5067,-0.0033,0.1391,0.104,0.011,0.0193,0.952,0.0,0.0,0.1841,0.1452,-0.0434,0.221,-0.5118,-0.07,-0.3182,-0.0005,-0.0234,0.0066,-0.0004,-0.0,0.0311,0.0292,3.0,3.0
0.05,0.7,0.0745,0.5385,0.505,0.0,0.1385,0.505,0.0,0.1385,0.737,0.0922,0.4633,0.5042,-0.0024,0.1394,0.5067,-0.0033,0.1391,0.1054,0.012,0.0184,0.9525,0.0,0.0,0.1836,0.1217,-0.0368,0.2206,-0.5118,-0.0389,-0.289,-0.0004,-0.0239,0.0068,-0.0004,-0.0,0.0316,0.03,3.0,3.0
0.05,0.7,0.056,0.5385,0.505,0.0,0.1385,0.505,0.0,0.1385,0.7374,0.074,0.4623,0.5041,-0.0024,0.1393,0.5066,-0.0033,0.1391,0.1064,0.0129,0.0176,0.9529,0.0,0.0,0.1831,0.0979,-0.03,0.2202,-0.5119,-0.0073,-0.259,-0.0003,-0.0242,0.007,-0.0003,-0.0,0.032,0.0306,3.0,3.0
0.05,0.7,0.0374,0.5385,0.505,0.0,0.1385,0.505,0.0,0.1385,0.7377,0.0555,0.4615,0.504,-0.0023,0.1393,0.5066,-0.0034,0.1391,0.1072,0.0138,0.0168,0.9531,0.0,0.0,0.1828,0.0736,-0.023,0.2199,-0.5119,0.0246,-0.2284,-0.0003,-0.0245,0.0071,-0.0002,-0.0,0.0322,0.0311,3.0,3.0
0.05,0.7,0.0187,0.5385,0.505,0.0,0.1385,0.505,0.0,0.1385,0.7379,0.0369,0.461,0.5039,-0.0023,0.1393,0.5065,-0.0034,0.139,0.1077,0.0146,0.0161,0.9533,0.0,0.0,0.1825,0.0491,-0.0159,0.2197,-0.5119,0.0569,-0.1973,-0.0002,-0.0247,0.0072,-0.0001,-0.0,0.0324,0.0316,3.0,3.0
0.05,0.7,0.0,0.5385,0.505,0.0,0.1385,0.505,0.0,0.1385,0.7381,0.0182,0.4606,0.5038,-0.0022,0.1393,0.5065,-0.0034,0.139,0.1079,0.0153,0.0155,0.9534,0.0,0.0,0.1824,0.0245,-0.0086,0.2195,-0.5119,0.0893,-0.1657,-0.0001,-0.0248,0.0073,-0.0001,0.0,0.0324,0.0319,3.0,3.0
0.05,0.7,-0.0187,0.5385,0.505,0.0,0.1385,0.505,0.0,0.1385,0.7381,-0.0005,0.4604,0.5037,-0.0022,0.1393,0.5064,-0.0034,0.139,0.1078,0.0161,0.0148,0.9534,0.0,0.0,0.1823,-0.0003,-0.0013,0.2195,-0.5119,0.1216,-0.1338,0.0,-0.0248,0.0073,0.0,0.0,0.0322,0.0321,3.0,3.0
0.05,0.7,-0.0374,0.5385,0.505,0.0,0.1385,0.505,0.0,0.1385,0.7381,-0.0192,0.4605,0.5036,-0.0021,0.1394,0.5063,-0.0034,0.1391,0.1074,0.0168,0.0141,0.9533,0.0,0.0,0.1823,-0.0251,0.006,0.2195,-0.5119,0.1539,-0.1017,0.0001,-0.0247,0.0073,0.0001,0.0,0.032,0.0321,3.0,3.0
0.05,0.7,-0.056,0.5385,0.505,0.0,0.1385,0.505,0.0,0.1385,0.7379,-0.0379,0.4608,0.5035,-0.002,0.1394,0.5062,-0.0034,0.1391,0.1067,0.0175,0.0135,0.9531,0.0,0.0,0.1824,-0.0498,0.0133,0.2196,-0.5119,0.1859,-0.0696,0.0002,-0.0245,0.0072,0.0002,0.0,0.0316,0.0321,3.0,3.0
0.05,0.7,-0.0745,0.5385,0.505,0.0,0.1385,0.505,0.0,0.1385,0.7377,-0.0565,0.4613,0.5034,-0.0019,0.1394,0.5062,-0.0034,0.1391,0.1057,0.0182,0.0127,0.9528,0.0,0.0,0.1826,-0.0743,0.0205,0.2199,-0.5119,0.2175,-0.0375,0.0003,-0.0242,0.0071,0.0003,0.0,0.0311,0.0319,3.0,3.0
0.05,0.7,-0.0928,0.5385,0.505,0.0,0.1385,0.505,0.0,0.1385,0.7373,-0.0749,0.462,0.5034,-0.0018,0.1394,0.5061,-0.0033,0.1391,0.1044,0.019,0.012,0.9525,0.0,0.0,0.1828,-0.0985,0.0275,0.2202,-0.5118,0.2486,-0.0056,0.0004,-0.0239,0.0069,0.0004,0.0,0.0305,0.0316,3.0,3.0
0.05,0.7,-0.1108,0.5385,0.505,0.0,0.1385,0.505,0.0,0.1385,0.7369,-0.0932,0.4629,0.5033,-0.0017,0.1394,0.506,-0.0033,0.1391,0.1029,0.0197,0.0112,0.952,0.0,0.0,0.1832,-0.1224,0.0344,0.2205,-0.5118,0.279,0.026,0.0004,-0.0234,0.0067,0.0004,0.0,0.0298,0.0311,3.0,3.0
0.05,0.7,-0.1286,0.5385,0.505,0.0,0.1385,0.505,0.0,0.1385,0.7365,-0.1112,0.464,0.5032,-0.0015,0.1394,0.5059,-0.0032,0.1391,0.1012,0.0206,0.0103,0.9515,0.0,0.0,0.1836,-0.1458,0.0411,0.221,-0.5117,0.3088,0.0571,0.0005,-0.0229,0.0064,0.0005,0.0,0.0289,0.0306,3.0,3.0
0.05,0.7,-0.146,0.5385,0.505,0.0,0.1385,0.505,0.0,0.1385,0.7359,-0.1289,0.4652,0.5032,-0.0014,0.1395,0.5058,-0.0031,0.1392,0.0992,0.0215,0.0094,0.9508,0.0,0.0,0.1841,-0.1687,0.0475,0.2215,-0.5117,0.3377,0.0877,0.0005,-0.0224,0.0062,0.0005,0.0001,0.0281,0.0299,3.0,3.0
0.05,0.7,-0.1631,0.5385,0.505,0.0,0.1385,0.505,0.0,0.1385,0.7353,-0.1463,0.4666,0.5032,-0.0012,0.1395,0.5057,-0.003,0.1392,0.0971,0.0225,0.0085,0.9501,0.0,0.0,0.1846,-0.1911,0.0537,0.222,-0.5116,0.3658,0.1176,0.0006,-0.0217,0.0059,0.0006,0.0001,0.0271,0.0291,3.0,3.0
0.05,0.7,-0.1798,0.5385,0.505,0.0,0.1385,0.505,0.0,0.1385,0.7347,-0.1633,0.4681,0.5032,-0.0011,0.1395,0.5056,-0.0029,0.1392,0.0949,0.0236,0.0077,0.9493,0.0,0.0,0.1852,-0.2128,0.0595,0.2226,-0.5116,0.3929,0.1467,0.0006,-0.021,0.0056,0.0006,0.0001,0.0261,0.0283,3.0,3.0
0.05,0.7,-0.1961,0.5385,0.505,0.0,0.1385,0.505,0.0,0.1385,0.734,-0.1799,0.4697,0.5032,-0.0009,0.1396,0.5056,-0.0027,0.1393,0.0926,0.0247,0.007,0.9484,0.0,0.0,0.1859,-0.2338,0.0651,0.2232,-0.5115,0.419,0.175,0.0007,-0.0203,0.0052,0.0006,0.0001,0.025,0.0274,3.0,3.0
0.05,0.7,-0.2119,0.5385,0.505,0.0,0.1385,0.505,0.0,0.1385,0.7333,-0.1961,0.4713,0.5032,-0.0008,0.1396,0.5055,-0.0026,0.1393,0.0902,0.0259,0.0066,0.9475,0.0,0.0,0.1865,-0.2541,0.0703,0.2237,-0.5114,0.444,0.2024,0.0007,-0.0195,0.0049,0.0006,0.0001,0.0239,0.0263,3.0,3.0
0.05,0.7,-0.2271,0.5385,0.505,0.0,0.1385,0.505,0.0,0.1385,0.7325,-0.2118,0.473,0.5032,-0.0006,0.1396,0.5054,-0.0024,0.1394,0.0878,0.0272,0.0065,0.9465,0.1122,0.0,0.1872,-0.2736,0.0752,0.2243,-0.5114,0.4678,0.2287,0.0006,-0.0162,0.0041,0.0005,0.0001,0.0202,0.0227,3.0,3.0
0.05,0.7,-0.2419,0.5385,0.505,0.0,0.1385,0.505,0.0,0.1385,0.7323,-0.2251,0.4748,0.5034,-0.0002,0.1397,0.5054,-0.0019,0.1395,0.0859,0.0282,0.0061,0.9454,0.6772,0.0,0.1878,-0.2898,0.0794,0.2249,-0.5113,0.488,0.2514,0.0001,-0.0014,0.001,0.0003,0.0001,0.0044,0.0066,3.0,3.0
0.05,0.7,-0.256,0.5385,0.505,0.0,0.1385,0.505,0.0,0.1385,0.7356,-0.2271,0.4766,0.5047,0.0012,0.1396,0.5051,-0.0001,0.1396,0.089,0.0278,0.0037,0.9437,0.7953,0.0,0.1878,-0.2912,0.0803,0.2252,-0.5112,0.4924,0.258,0.0001,-0.0034,0.0007,-0.0,0.0001,0.0037,0.0039,3.0,3.0
0.05,0.7,-0.2695,0.5385,0.505,0.0,0.1385,0.505,0.0,0.1385,0.7384,-0.2308,0.4781,0.5046,0.001,0.1396,0.5052,-0.0003,0.1395,0.0934,0.0281,0.004,0.9421,0.8789,0.0,0.1879,-0.2946,0.081,0.2251,-0.5111,0.4961,0.2619,0.0,-0.0011,0.0002,-0.0,0.0001,0.0018,0.0022,3.0,3.0
0.05,0.7,-0.2824,0.5385,0.505,0.0,0.1385,0.505,0.0,0.1385,0.7417,-0.2328,0.4797,0.5048,0.0012,0.1396,0.5051,-0.0,0.1396,0.1002,0.0282,0.0041,0.9403,0.9124,0.0,0.1879,-0.2958,0.0813,0.2251,-0.5109,0.4979,0.2642,-0.0,-0.0009,0.0001,-0.0001,0.0001,0.0011,0.0013,3.0,3.0
0.05,0.7,-0.2947,0.5385,0.505,0.0,0.1385,0.505,0.0,0.1385,0.7451,-0.2346,0.4812,0.5048,0.0013,0.1396,0.5051,0.0,0.1396,0.108,0.0285,0.0042,0.9384,0.9311,0.0,0.1879,-0.2967,0.0813,0.2251,-0.5108,0.499,0.2654,-0.0,-0.0006,-0.0001,-0.0001,0.0001,0.0008,0.0009,3.0,3.0
0.05,0.7,-0.3063,0.5385,0.505,0.0,0.1385,0.505,0.0,0.1385,0.7486,-0.2362,0.4826,0.5048,0.0013,0.1396,0.5051,0.0001,0.1396,0.1166,0.0287,0.0045,0.9365,0.9426,0.0,0.1879,-0.2973,0.0813,0.225,-0.5107,0.4997,0.2663,-0.0,-0.0005,-0.0001,-0.0001,0.0001,0.0006,0.0006,3.0,3.0
0.05,0.7,-0.3172,0.5385,0.505,0.0,0.1385,0.505,0.0,0.1385,0.752,-0.2377,0.4841,0.5048,0.0013,0.1396,0.5051,0.0001,0.1396,0.1254,0.029,0.0047,0.9345,0.9502,0.0,0.1879,-0.2978,0.0811,0.2249,-0.5105,0.5003,0.267,-0.0,-0.0004,-0.0002,-0.0001,0.0001,0.0004,0.0005,3.0,3.0
0.05,0.7,-0.3274,0.5385,0.505,0.0,0.1385,0.505,0.0,0.1385,0.7553,-0.2391,0.4854,0.5048,0.0013,0.1396,0.5051,0.0001,0.1396,0.134,0.0293,0.005,0.9325,0.9557,0.0,0.1878,-0.2981,0.0809,0.2247,-0.5104,0.5007,0.2674,-0.0,-0.0003,-0.0002,-0.0001,0.0001,0.0003,0.0004,3.0,3.0
0.05,0.7,-0.3369,0.5385,0.505,0.0,0.1385,0.505,0.0,0.1385,0.7585,-0.2404,0.4867,0.5048,0.0014,0.1397,0.5051,0.0001,0.1396,0.1424,0.0296,0.0052,0.9305,0.9598,0.0,0.1878,-0.2984,0.0807,0.2246,-0.5103,0.501,0.2678,-0.0,-0.0002,-0.0003,-0.0001,0.0001,0.0003,0.0003,3.0,3.0
0.05,0.7,-0.3456,0.5385,0.505,0.0,0.1385,0.505,0.0,0.1385,0.7616,-0.2416,0.488,0.5048,0.0014,0.1397,0.5051,0.0002,0.1396,0.1503,0.0299,0.0055,0.9285,0.9629,0.0,0.1878,-0.2986,0.0804,0.2245,-0.5101,0.5013,0.2681,-0.0,-0.0002,-0.0003,-0.0001,0.0001,0.0002,0.0002,3.0,3.0
0.05,0.7,-0.3537,0.5385,0.505,0.0,0.1385,0.505,0.0,0.1385,0.7645,-0.2427,0.4891,0.5048,0.0014,0.1397,0.5051,0.0002,0.1396,0.1578,0.0302,0.0058,0.9265,0.9654,0.0,0.1877,-0.2988,0.0801,0.2243,-0.51,0.5015,0.2683,-0.0,-0.0002,-0.0003,-0.0001,0.0001,0.0002,0.0002,3.0,3.0
0.05,0.7,-0.361,0.5385,0.505,0.0,0.1385,0.505,0.0,0.1385,0.7673,-0.2438,0.4902,0.5049,0.0014,0.1397,0.5051,0.0002,0.1396,0.1646,0.0305,0.0061,0.9246,0.9673,0.0,0.1877,-0.299,0.0798,0.2242,-0.5099,0.5017,0.2685,-0.0,-0.0001,-0.0003,-0.0001,0.0001,0.0001,0.0002,3.0,3.0
0.05,0.7,-0.3676,0.5385,0.505,0.0,0.1385,0.505,0.0,0.1385,0.7698,-0.2448,0.4912,0.5048,0.0014,0.1397,0.5051,0.0002,0.1397,0.1709,0.0308,0.0064,0.9228,0.9689,0.0,0.1877,-0.2991,0.0795,0.2241,-0.5098,0.5018,0.2687,-0.0,-0.0001,-0.0003,-0.0001,0.0001,0.0001,0.0001,3.0,3.0
0.05,0.7,-0.3735,0.5385,0.505,0.0,0.1385,0.505,0.0,0.1385,0.7722,-0.2456,0.4921,0.5048,0.0015,0.1397,0.5051,0.0002,0.1397,0.1765,0.0311,0.0067,0.921,0.9702,0.0,0.1876,-0.2992,0.0793,0.224,-0.5097,0.502,0.2688,-0.0,-0.0001,-0.0003,-0.0001,0.0001,0.0001,0.0001,3.0,3.0
0.05,0.7,-0.3787,0.5385,0.505,0.0,0.1385,0.505,0.0,0.1385,0.7743,-0.2464,0.4929,0.5048,0.0015,0.1397,0.5051,0.0002,0.1397,0.1815,0.0314,0.007,0.9194,0.9712,0.0,0.1876,-0.2993,0.079,0.2238,-0.5096,0.5021,0.2689,-0.0,-0.0001,-0.0002,-0.0001,0.0001,0.0001,0.0001,3.0,3.0
0.05,0.7,-0.3833,0.5385,0.505,0.0,0.1385,0.505,0.0,0.1385,0.7762,-0.2472,0.4937,0.5048,0.0015,0.1397,0.5052,0.0003,0.1397,0.1858,0.0316,0.0072,0.9179,0.9721,0.0,0.1876,-0.2994,0.0788,0.2237,-0.5095,0.5021,0.269,-0.0,-0.0001,-0.0002,-0.0001,0.0001,0.0001,0.0001,3.0,3.0
0.05,0.7,-0.3872,0.5385,0.505,0.0,0.1385,0.505,0.0,0.1385,0.7779,-0.2478,0.4943,0.5048,0.0015,0.1397,0.5052,0.0003,0.1397,0.1896,0.0318,0.0075,0.9166,0.9727,0.0,0.1876,-0.2995,0.0785,0.2236,-0.5094,0.5022,0.2691,-0.0,-0.0001,-0.0002,-0.0001,0.0001,0.0001,0.0001,3.0,3.0
0.05,0.7,-0.3904,0.5385,0.505,0.0,0.1385,0.505,0.0,0.1385,0.7793,-0.2483,0.4949,0.5048,0.0015,0.1397,0.5052,0.0003,0.1397,0.1927,0.032,0.0076,0.9154,0.9733,0.0,0.1875,-0.2995,0.0784,0.2236,-0.5093,0.5023,0.2691,-0.0,-0.0,-0.0002,-0.0001,0.0001,0.0,0.0,3.0,3.0
0.05,0.7,-0.3932,0.5385,0.505,0.0,0.1385,0.505,0.0,0.1385,0.7805,-0.2488,0.4954,0.5048,0.0015,0.1398,0.5052,0.0003,0.1397,0.1953,0.0322,0.0078,0.9143,0.9738,0.0,0.1875,-0.2996,0.0782,0.2235,-0.5093,0.5023,0.2692,-0.0,-0.0,-0.0001,-0.0001,0.0001,0.0,0.0,3.0,3.0
0.05,0.7,-0.3953,0.5385,0.505,0.0,0.1385,0.505,0.0,0.1385,0.7816,-0.2492,0.4957,0.5048,0.0015,0.1398,0.5052,0.0003,0.1397,0.1974,0.0323,0.008,0.9135,0.9741,0.0,0.1875,-0.2996,0.078,0.2234,-0.5092,0.5023,0.2692,-0.0,-0.0,-0.0001,-0.0,0.0,0.0,0.0,3.0,3.0
0.05,0.7,-0.397,0.5385,0.505,0.0,0.1385,0.505,0.0,0.1385,0.7824,-0.2495,0.4961,0.5048,0.0015,0.1398,0.5052,0.0003,0.1397,0.199,0.0324,0.0081,0.9128,0.9744,0.0,0.1875,-0.2996,0.0779,0.2234,-0.5092,0.5024,0.2693,-0.0,-0.0,-0.0001,-0.0,0.0,0.0,0.0,3.0,3.0
0.05,0.7,-0.3982,0.5385,0.505,0.0,0.1385,0.505,0.0,0.1385,0.783,-0.2497,0.4963,0.5048,0.0015,0.1398,0.5052,0.0003,0.1397,0.2002,0.0325,0.0082,0.9122,0.9746,0.0,0.1875,-0.2997,0.0778,0.2233,-0.5091,0.5024,0.2693,-0.0,-0.0,-0.0001,-0.0,0.0,0.0,0.0,3.0,3.0
0.05,0.7,-0.3991,0.5385,0.505,0.0,0.1385,0.505,0.0,0.1385,0.7835,-0.2499,0.4965,0.5048,0.0015,0.1398,0.5052,0.0003,0.1397,0.201,0.0326,0.0082,0.9118,0.9747,0.0,0.1875,-0.2997,0.0778,0.2233,-0.5091,0.5024,0.2693,-0.0,-0.0,-0.0,-0.0,0.0,0.0,0.0,3.0,3.0
0.05,0.7,-0.3996,0.5385,0.505,0.0,0.1385,0.505,0.0,0.1385,0.7838,-0.25,0.4966,0.5048,0.0015,0.1398,0.5052,0.0003,0.1397,0.2015,0.0326,0.0083,0.9115,0.9748,0.0,0.1875,-0.2997,0.0777,0.2233,-0.5091,0.5024,0.2693,-0.0,-0.0,-0.0,-0.0,0.0,0.0,0.0,3.0,3.0
0.05,0.7,-0.3999,0.5385,0.505,0.0,0.1385,0.505,0.0,0.1385,0.784,-0.2501,0.4967,0.5048,0.0015,0.1398,0.5052,0.0003,0.1397,0.2018,0.0327,0.0083,0.9114,0.9749,0.0,0.1875,-0.2997,0.0777,0.2233,-0.5091,0.5024,0.2693,-0.0,-0.0,-0.0,-0.0,0.0,0.0,0.0,3.0,3.0
0.05,0.7,-0.4,0.5385,0.505,0.0,0.1385,0.505,0.0,0.1385,0.7841,-0.2501,0.4967,0.5048,0.0015,0.1398,0.5052,0.0003,0.1397,0.2019,0.0327,0.0083,0.9113,0.9749,0.0,0.1875,-0.2997,0.0777,0.2233,-0.5091,0.5024,0.2693,-0.0,0.0,-0.0,-0.0,0.0,0.0,0.0,3.0,3.0
0.05,0.7,-0.4,0.5385,0.505,0.0,0.1385,0.505,0.0,0.1385,0.7842,-0.2501,0.4967,0.5048,0.0015,0.1398,0.5052,0.0003,0.1397,0.2019,0.0327,0.0083,0.9112,0.9749,0.0,0.1875,-0.2997,0.0777,0.2233,-0.5091,0.5024,0.2693,0.0,0.0,-0.0,-0.0,0.0,-0.0,-0.0,3.0,3.0
0.05,0.7,-0.4,0.5385,0.505,0.0,0.1385,0.505,0.0,0.1385,0.7842,-0.2501,0.4967,0.5048,0.0015,0.1398,0.5052,0.0003,0.1397,0.2019,0.0327,0.0083,0.9112,0.9749,0.0,0.1875,-0.2997,0.0777,0.2233,-0.5091,0.5024,0.2693,-0.0,-0.0,-0.0,-0.0,0.0,0.0,0.0,3.0,3.0
0.05,0.7,-0.4,0.5384,0.505,0.0,0.1385,0.505,0.0,0.1385,0.7842,-0.2501,0.4967,0.5048,0.0015,0.1398,0.5052,0.0003,0.1397,0.2019,0.0327,0.0083,0.9112,0.9749,0.0,0.1875,-0.2997,0.0777,0.2233,-0.5091,0.5024,0.2693,-0.0,-0.0,-0.0,-0.0,0.0,-0.0,-0.0,3.0,3.0
0.05,0.7,-0.4,0.5381,0.505,0.0,0.1385,0.505,0.0,0.1385,0.7841,-0.2501,0.4967,0.5048,0.0015,0.1398,0.5052,0.0003,0.1397,0.2018,0.0327,0.0084,0.9111,0.9749,0.0,0.1875,-0.2997,0.0776,0.2233,-0.5091,0.5024,0.2693,-0.0,-0.0,-0.0001,-0.0,0.0,0.0,-0.0,3.0,3.0
0.05,0.7,-0.4,0.5376,0.505,0.0,0.1385,0.505,0.0,0.1385,0.784,-0.2501,0.4966,0.5048,0.0015,0.1398,0.5052,0.0003,0.1397,0.2017,0.0328,0.0085,0.9107,0.9749,0.0,0.1875,-0.2997,0.0775,0.2232,-0.5091,0.5024,0.2693,-0.0,-0.0,-0.0002,-0.0001,0.0,0.0,-0.0,3.0,3.0
0.05,0.7,-0.4,0.5367,0.505,0.0,0.1385,0.505,0.0,0.1385,0.7839,-0.2501,0.4965,0.5048,0.0016,0.1398,0.5052,0.0003,0.1397,0.2016,0.033,0.0086,0.9099,0.9749,0.0,0.1875,-0.2997,0.0773,0.2231,-0.509,0.5024,0.2693,-0.0,-0.0,-0.0003,-0.0001,0.0001,0.0,-0.0,3.0,3.0
0.05,0.7,-0.4,0.5355,0.505,0.0,0.1385,0.505,0.0,0.1385,0.7836,-0.2501,0.4962,0.5048,0.0016,0.1398,0.5052,0.0003,0.1397,0.2013,0.0333,0.0089,0.9087,0.9749,0.0,0.1874,-0.2998,0.077,0.223,-0.5089,0.5024,0.2693,-0.0,-0.0,-0.0004,-0.0002,0.0001,0.0,-0.0,3.0,3.0
0.05,0.7,-0.4,0.5338,0.505,0.0,0.1385,0.505,0.0,0.1385,0.7831,-0.2501,0.4958,0.5048,0.0016,0.1398,0.5052,0.0004,0.1397,0.201,0.0337,0.0093,0.907,0.9749,0.0,0.1874,-0.2998,0.0766,0.2229,-0.5088,0.5024,0.2693,-0.0,-0.0001,-0.0006,-0.0002,0.0001,0.0,-0.0,3.0,3.0
0.05,0.7,-0.4,0.5316,0.505,0.0,0.1385,0.505,0.0,0.1385,0.7825,-0.2501,0.4953,0.5048,0.0016,0.1398,0.5052,0.0004,0.1398,0.2006,0.0343,0.0099,0.9044,0.9749,0.0,0.1874,-0.2999,0.076,0.2226,-0.5087,0.5024,0.2693,-0.0001,-0.0001,-0.0008,-0.0003,0.0002,0.0,-0.0,3.0,3.0
0.05,0.7,-0.4,0.5289,0.505,0.0,0.1385,0.505,0.0,0.1385,0.7818,-0.2501,0.4946,0.5048,0.0016,0.1398,0.5052,0.0004,0.1398,0.2002,0.0351,0.0107,0.901,0.9749,0.0,0.1873,-0.2999,0.0752,0.2223,-0.5085,0.5024,0.2693,-0.0001,-0.0001,-0.001,-0.0004,0.0003,0.0,-0.0,3.0,3.0
0.05,0.7,-0.4,0.5256,0.505,0.0,0.1385,0.505,0.0,0.1385,0.7808,-0.2501,0.4938,0.5048,0.0017,0.1398,0.5052,0.0004,0.1398,0.1997,0.036,0.0116,0.8964,0.9749,0.0,0.1872,-0.3,0.0742,0.2219,-0.5083,0.5024,0.2693,-0.0001,-0.0001,-0.0012,-0.0005,0.0003,0.0,-0.0,3.0,3.0
0.05,0.7,-0.4,0.5217,0.505,0.0,0.1385,0.505,0.0,0.1385,0.7797,-0.2501,0.4928,0.5049,0.0017,0.1399,0.5052,0.0005,0.1398,0.1991,0.0371,0.0128,0.8904,0.975,0.0,0.1871,-0.3001,0.0731,0.2215,-0.5079,0.5024,0.2693,-0.0001,-0.0001,-0.0014,-0.0006,0.0004,0.0,-0.0,3.0,3.0
0.05,0.7,-0.4,0.5172,0.505,0.0,0.1385,0.505,0.0,0.1385,0.7784,-0.2501,0.4915,0.5049,0.0017,0.1399,0.5052,0.0005,0.1398,0.1986,0.0385,0.0141,0.8823,0.975,0.0,0.187,-0.3003,0.0717,0.2209,-0.5075,0.5024,0.2693,-0.0002,-0.0001,-0.0016,-0.0007,0.0005,0.0,-0.0,3.0,3.0
0.05,0.7,-0.4,0.512,0.505,0.0,0.1385,0.505,0.0,0.1385,0.7769,-0.2501,0.4901,0.5049,0.0018,0.1399,0.5052,0.0006,0.1399,0.198,0.04,0.0157,0.8715,0.975,0.0,0.1868,-0.3004,0.07,0.2202,-0.507,0.5024,0.2692,-0.0002,-0.0002,-0.0019,-0.0008,0.0007,0.0,-0.0,3.0,3.0
0.05,0.7,-0.4,0.5061,0.505,0.0,0.1385,0.505,0.0,0.1385,0.7752,-0.25,0.4883,0.5049,0.0019,0.14,0.5052,0.0006,0.1399,0.1975,0.0418,0.0175,0.8569,0.9751,0.0,0.1866,-0.3006,0.0682,0.2194,-0.5063,0.5024,0.2692,-0.0003,-0.0002,-0.0021,-0.001,0.0009,0.0,-0.0,3.0,3.0
0.05,0.7,-0.4,0.4995,0.505,0.0,0.1385,0.505,0.0,0.1385,0.7733,-0.25,0.4863,0.5049,0.0019,0.14,0.5053,0.0007,0.14,0.1972,0.0437,0.0195,0.8366,0.9751,0.0,0.1863,-0.3007,0.0661,0.2184,-0.5053,0.5024,0.2692,-0.0004,-0.0002,-0.0023,-0.0012,0.0013,0.0,-0.0,3.0,3.0
0.05,0.7,-0.4,0.4922,0.505,0.0,0.1385,0.505,0.0,0.1385,0.7714,-0.25,0.4839,0.5049,0.002,0.1401,0.5053,0.0008,0.14,0.197,0.0458,0.0217,0.8075,0.9752,0.0,0.1858,-0.3009,0.0637,0.2172,-0.5041,0.5024,0.2691,-0.0006,-0.0002,-0.0025,-0.0015,0.0017,0.0,-0.0001,3.0,3.0
0.05,0.7,-0.4,0.4841,0.505,0.0,0.1385,0.505,0.0,0.1385,0.7694,-0.25,0.481,0.5049,0.0021,0.1401,0.5054,0.0009,0.14,0.197,0.048,0.024,0.7642,0.9752,0.0,0.1852,-0.3011,0.0612,0.2157,-0.5023,0.5025,0.2691,-0.001,-0.0002,-0.0027,-0.0019,0.0025,0.0,-0.0001,3.0,3.0
0.05,0.7,-0.4,0.4754,0.505,0.0,0.1385,0.505,0.0,0.1385,0.7674,-0.2499,0.4775,0.505,0.0022,0.1401,0.5054,0.001,0.14,0.1973,0.0502,0.0264,0.6967,0.9753,0.0,0.1842,-0.3013,0.0585,0.2139,-0.4998,0.5025,0.269,-0.0015,-0.0001,-0.0028,-0.0024,0.0038,0.0,-0.0001,3.0,3.0
0.05,0.7,-0.4,0.4659,0.505,0.0,0.1385,0.505,0.0,0.1385,0.7656,-0.2498,0.4731,0.5051,0.0023,0.1401,0.5056,0.0011,0.14,0.1978,0.0523,0.0286,0.5869,0.9754,0.0,0.1827,-0.3014,0.0557,0.2114,-0.496,0.5025,0.2689,-0.0024,-0.0001,-0.0027,-0.0034,0.006,0.0,-0.0002,3.0,3.0
0.05,0.7,-0.4,0.4557,0.505,0.0,0.1385,0.505,0.0,0.1385,0.7644,-0.2497,0.467,0.5053,0.0023,0.1399,0.5058,0.0011,0.1399,0.1987,0.0539,0.0303,0.4063,0.9754,0.0,0.1803,-0.3015,0.053,0.208,-0.49,0.5025,0.2687,-0.004,0.0001,-0.0024,-0.0049,0.0097,0.0,-0.0003,3.0,3.0
0.05,0.7,-0.4,0.4448,0.505,0.0,0.1385,0.505,0.0,0.1385,0.7641,-0.2494,0.4584,0.5057,0.0023,0.1396,0.5062,0.0011,0.1396,0.1996,0.0544,0.0311,0.1496,0.9755,0.0,0.1763,-0.3014,0.0506,0.2031,-0.4803,0.5025,0.2684,-0.0061,0.0003,-0.0018,-0.0069,0.0148,0.0,-0.0005,3.0,3.0
0.05,0.7,-0.4,0.4332,0.505,0.0,0.1385,0.505,0.0,0.1385,0.765,-0.2488,0.4465,0.5062,0.0022,0.1392,0.5066,0.0011,0.1391,0.2007,0.0533,0.0303,0.0,0.9757,0.0,0.1702,-0.3011,0.0488,0.1962,-0.4655,0.5025,0.2679,-0.0067,0.0005,-0.0016,-0.0075,0.017,0.0,-0.0007,3.0,3.0
0.05,0.7,-0.4,0.4209,0.505,0.0,0.1385,0.505,0.0,0.1385,0.766,-0.248,0.4336,0.5063,0.0021,0.139,0.5067,0.0011,0.1389,0.2019,0.0513,0.0289,0.0,0.9758,0.0,0.1635,-0.3006,0.0472,0.1887,-0.4486,0.5025,0.2672,-0.0063,0.0004,-0.0019,-0.0071,0.0164,0.0,-0.0008,3.0,3.0
0.05,0.7,-0.4,0.408,0.505,0.0,0.1385,0.505,0.0,0.1385,0.7663,-0.2472,0.4212,0.5062,0.002,0.139,0.5066,0.001,0.1389,0.2031,0.0496,0.0278,0.0,0.9759,0.0,0.1572,-0.3001,0.0454,0.1816,-0.4321,0.5025,0.2665,-0.0067,0.0004,-0.0021,-0.0076,0.0171,0.0,-0.0007,3.0,3.0
0.05,0.7,-0.4,0.3945,0.505,0.0,0.1385,0.505,0.0,0.1385,0.7666,-0.2464,0.4083,0.5063,0.0018,0.1388,0.5066,0.0009,0.1387,0.2044,0.0481,0.027,0.0,0.9761,0.0,0.1506,-0.2998,0.0432,0.174,-0.4151,0.5025,0.2657,-0.007,0.0004,-0.0023,-0.008,0.0182,0.0,-0.0007,3.0,3.0
0.05,0.7,-0.4,0.3803,0.505,0.0,0.1385,0.505,0.0,0.1385,0.767,-0.2456,0.3948,0.5064,0.0017,0.1386,0.5067,0.0008,0.1386,0.2058,0.0466,0.0261,0.0,0.9762,0.0,0.1435,-0.2993,0.0409,0.1659,-0.3969,0.5026,0.265,-0.0074,0.0005,-0.0024,-0.0085,0.0192,0.0,-0.0008,3.0,3.0
0.05,0.7,-0.4,0.3656,0.505,0.0,0.1385,0.505,0.0,0.1385,0.7674,-0.2448,0.3807,0.5064,0.0016,0.1385,0.5067,0.0008,0.1384,0.2072,0.0449,0.0252,0.0,0.9764,0.0,0.1361,-0.2989,0.0386,0.1574,-0.3777,0.5026,0.2642,-0.0078,0.0005,-0.0025,-0.0089,0.0203,0.0,-0.0008,3.0,3.0
0.05,0.7,-0.4,0.3504,0.505,0.0,0.1385,0.505,0.0,0.1385,0.7678,-0.2439,0.366,0.5065,0.0014,0.1383,0.5068,0.0007,0.1383,0.2087,0.0431,0.0242,0.0,0.9765,0.0,0.1283,-0.2984,0.036,0.1485,-0.3573,0.5026,0.2634,-0.0082,0.0005,-0.0026,-0.0094,0.0214,0.0,-0.0009,3.0,3.0
0.05,0.7,-0.4,0.3346,0.505,0.0,0.1385,0.505,0.0,0.1385,0.7683,-0.243,0.3507,0.5066,0.0013,0.1381,0.5068,0.0006,0.1381,0.2102,0.0412,0.0231,0.0,0.9767,0.0,0.1201,-0.2979,0.0334,0.1391,-0.3359,0.5026,0.2625,-0.0086,0.0005,-0.0027,-0.0098,0.0225,0.0,-0.0009,3.0,3.0
0.05,0.7,-0.4,0.3183,0.505,0.0,0.1385,0.505,0.0,0.1385,0.7687,-0.242,0.3349,0.5066,0.0012,0.1379,0.5068,0.0006,0.1379,0.2118,0.0391,0.022,0.0,0.9768,0.0,0.1115,-0.2974,0.0307,0.1294,-0.3134,0.5026,0.2616,-0.0089,0.0006,-0.0028,-0.0102,0.0235,0.0,-0.0009,3.0,3.0
0.05,0.7,-0.4,0.3016,0.505,0.0,0.1385,0.505,0.0,0.1385,0.7692,-0.2411,0.3187,0.5067,0.001,0.1377,0.5068,0.0005,0.1377,0.2134,0.0369,0.0209,0.0,0.977,0.0,0.1026,-0.2968,0.0279,0.1192,-0.2899,0.5026,0.2607,-0.0093,0.0006,-0.0029,-0.0105,0.0245,0.0,-0.001,3.0,3.0
0.05,0.7,-0.4,0.2845,0.505,0.0,0.1385,0.505,0.0,0.1385,0.7696,-0.2401,0.302,0.5067,0.0009,0.1375,0.5068,0.0004,0.1375,0.215,0.0345,0.0196,0.0,0.9771,0.0,0.0933,-0.2962,0.0251,0.1086,-0.2654,0.5027,0.2597,-0.0096,0.0006,-0.003,-0.0109,0.0255,0.0,-0.001,3.0,3.0
0.05,0.7,-0.4,0.2671,0.505,0.0,0.1385,0.505,0.0,0.1385,0.7701,-0.2391,0.2849,0.5067,0.0008,0.1373,0.5068,0.0004,0.1373,0.2167,0.032,0.0183,0.0,0.9773,0.0,0.0837,-0.2956,0.0221,0.0977,-0.2399,0.5027,0.2587,-0.0099,0.0006,-0.003,-0.0112,0.0264,0.0,-0.001,3.0,3.0
0.05,0.7,-0.4,0.2493,0.505,0.0,0.1385,0.505,0.0,0.1385,0.7705,-0.2381,0.2675,0.5068,0.0006,0.1371,0.5068,0.0003,0.1371,0.2184,0.0294,0.017,0.0,0.9774,0.0,0.0739,-0.295,0.0191,0.0865,-0.2135,0.5027,0.2577,-0.0101,0.0006,-0.0031,-0.0115,0.0273,0.0,-0.001,3.0,3.0
0.05,0.7,-0.4,0.2313,0.505,0.0,0.1385,0.505,0.0,0.1385,0.771,-0.2371,0.2497,0.5068,0.0005,0.137,0.5068,0.0003,0.1369,0.2201,0.0267,0.0157,0.0,0.9776,0.0,0.0637,-0.2944,0.016,0.075,-0.1862,0.5027,0.2567,-0.0104,0.0006,-0.0031,-0.0118,0.028,0.0,-0.001,3.0,3.0
0.05,0.7,-0.4,0.213,0.505,0.0,0.1385,0.505,0.0,0.1385,0.7715,-0.2361,0.2316,0.5068,0.0004,0.1368,0.5068,0.0002,0.1368,0.2218,0.0238,0.0143,0.0,0.9778,0.0,0.0533,-0.2937,0.0128,0.0632,-0.1582,0.5027,0.2556,-0.0106,0.0007,-0.0032,-0.012,0.0288,0.0,-0.0011,3.0,3.0
0.05,0.7,-0.4,0.1945,0.505,0.0,0.1385,0.505,0.0,0.1385,0.772,-0.2351,0.2134,0.5068,0.0003,0.1366,0.5068,0.0002,0.1366,0.2235,0.0209,0.013,0.0,0.9779,0.0,0.0427,-0.2931,0.0097,0.0512,-0.1294,0.5027,0.2546,-0.0108,0.0007,-0.0032,-0.0122,0.0294,0.0,-0.0011,3.0,3.0
0.05,0.7,-0.4,0.1759,0.505,0.0,0.1385,0.505,0.0,0.1385,0.7724,-0.2341,0.1949,0.5067,0.0002,0.1364,0.5067,0.0002,0.1364,0.2252,0.0179,0.0117,0.0,0.9781,0.0,0.0319,-0.2924,0.0065,0.0389,-0.1001,0.5028,0.2535,-0.0109,0.0007,-0.0032,-0.0124,0.0299,0.0,-0.0011,3.0,3.0
0.05,0.7,-0.4,0.1572,0.505,0.0,0.1385,0.505,0.0,0.1385,0.7729,-0.2331,0.1763,0.5067,0.0002,0.1362,0.5067,0.0001,0.1362,0.2268,0.0148,0.0105,0.0,0.9782,0.0,0.021,-0.2917,0.0032,0.0266,-0.0701,0.5028,0.2524,-0.011,0.0007,-0.0032,-0.0125,0.0303,0.0,-0.0011,3.0,3.0
0.05,0.7,-0.4,0.1385,0.505,0.0,0.1385,0.505,0.0,0.1385,0.7733,-0.2321,0.1576,0.5067,0.0001,0.136,0.5066,0.0001,0.136,0.2285,0.0119,0.0095,0.0,0.9784,0.0,0.01,-0.291,0.0,0.0141,-0.0398,0.5028,0.2514,-0.0111,0.0007,-0.0032,-0.0126,0.0307,0.0,-0.0011,3.0,3.0
0.05,0.7,-0.4,0.1197,0.505,0.0,0.1385,0.505,0.0,0.1385,0.7738,-0.2312,0.1388,0.5066,0.0001,0.1358,0.5066,0.0001,0.1358,0.2301,0.0093,0.0087,0.0,0.9785,0.0,-0.0011,-0.2904,-0.0032,0.0015,-0.0091,0.5028,0.2503,-0.0111,0.0007,-0.0032,-0.0126,0.0309,0.0,-0.0011,3.0,3.0
0.05,0.7,-0.4,0.1011,0.505,0.0,0.1385,0.505,0.0,0.1385,0.7742,-0.2302,0.1201,0.5066,0.0001,0.1357,0.5065,0.0001,0.1357,0.2317,0.0076,0.0082,0.0,0.9786,0.0,-0.0123,-0.2897,-0.0064,-0.0111,0.0218,0.5028,0.2493,-0.0111,0.0007,-0.0032,-0.0126,0.031,0.0,-0.001,3.0,3.0
0.05,0.7,-0.4,0.0825,0.505,0.0,0.1385,0.505,0.0,0.1385,0.7746,-0.2294,0.1014,0.5065,0.0001,0.1355,0.5064,0.0001,0.1355,0.2332,0.0074,0.0082,0.0,0.9788,0.0,-0.0234,-0.289,-0.0096,-0.0236,0.0528,0.5028,0.2482,-0.0111,0.0007,-0.0031,-0.0125,0.031,0.0,-0.001,3.0,3.0
0.05,0.7,-0.4,0.064,0.505,0.0,0.1385,0.505,0.0,0.1385,0.775,-0.2285,0.0828,0.5064,0.0001,0.1354,0.5064,0.0001,0.1354,0.2347,0.0089,0.0086,0.0,0.9789,0.0,-0.0345,-0.2883,-0.0128,-0.0361,0.0837,0.5029,0.2472,-0.011,0.0007,-0.0031,-0.0124,0.0308,0.0,-0.001,3.0,3.0
0.05,0.7,-0.4,0.0457,0.505,0.0,0.1385,0.505,0.0,0.1385,0.7754,-0.2277,0.0643,0.5063,0.0002,0.1353,0.5063,0.0002,0.1353,0.2361,0.0116,0.0093,0.0,0.979,0.0,-0.0454,-0.2876,-0.0159,-0.0485,0.1146,0.5029,0.2462,-0.0109,0.0007,-0.003,-0.0122,0.0306,0.0,-0.001,3.0,3.0
0.05,0.7,-0.4,0.0277,0.505,0.0,0.1385,0.505,0.0,0.1385,0.7758,-0.2269,0.046,0.5063,0.0003,0.1351,0.5062,0.0002,0.1351,0.2375,0.0147,0.0104,0.0,0.9792,0.0,-0.0563,-0.287,-0.0189,-0.0607,0.1451,0.5029,0.2452,-0.0107,0.0006,-0.003,-0.012,0.0302,0.0,-0.0009,3.0,3.0
0.05,0.7,-0.4,0.0099,0.505,0.0,0.1385,0.505,0.0,0.1385,0.7761,-0.2261,0.0279,0.5062,0.0004,0.135,0.5062,0.0002,0.135,0.2388,0.0182,0.0116,0.0,0.9793,0.0,-0.067,-0.2864,-0.0219,-0.0728,0.1754,0.5029,0.2443,-0.0105,0.0006,-0.0029,-0.0118,0.0297,0.0,-0.0009,3.0,3.0
0.05,0.7,-0.4,-0.0076,0.505,0.0,0.1385,0.505,0.0,0.1385,0.7765,-0.2254,0.0102,0.5061,0.0005,0.1349,0.5061,0.0003,0.1349,0.24,0.0217,0.013,0.0,0.9794,0.0,-0.0775,-0.2857,-0.0248,-0.0846,0.2051,0.5029,0.2434,-0.0103,0.0006,-0.0028,-0.0115,0.0291,0.0,-0.0009,3.0,3.0
0.05,0.7,-0.4,-0.0247,0.505,0.0,0.1385,0.505,0.0,0.1385,0.7768,-0.2248,-0.0073,0.506,0.0006,0.1348,0.506,0.0003,0.1349,0.2412,0.0253,0.0144,0.0,0.9795,0.0,-0.0877,-0.2851,-0.0276,-0.0961,0.2342,0.5029,0.2425,-0.01,0.0006,-0.0027,-0.0112,0.0285,0.0,-0.0008,3.0,3.0
0.05,0.7,-0.4,-0.0413,0.505,0.0,0.1385,0.505,0.0,0.1385,0.7771,-0.2241,-0.0244,0.5059,0.0008,0.1348,0.506,0.0004,0.1348,0.2424,0.0288,0.0159,0.0,0.9796,0.0,-0.0977,-0.2845,-0.0303,-0.1073,0.2627,0.5029,0.2416,-0.0097,0.0006,-0.0026,-0.0109,0.0277,0.0,-0.0008,3.0,3.0
0.05,0.7,-0.4,-0.0576,0.505,0.0,0.1385,0.505,0.0,0.1385,0.7775,-0.2236,-0.0404,0.5058,0.0009,0.1352,0.5059,0.0005,0.1352,0.2435,0.0325,0.0169,0.0,0.9797,0.0,-0.1075,-0.284,-0.0329,-0.1173,0.2904,0.5029,0.2408,-0.0098,0.0006,-0.0028,-0.0111,0.0265,0.0,-0.0008,3.0,3.0
0.05,0.7,-0.4,-0.0734,0.505,0.0,0.1385,0.505,0.0,0.1385,0.7797,-0.2236,-0.0486,0.5057,0.0011,0.1397,0.5059,0.0006,0.1398,0.2456,0.0396,0.0183,0.0,0.9798,0.0,-0.1173,-0.2834,-0.0357,-0.1173,0.3169,0.503,0.24,-0.0142,0.0013,-0.005,-0.0162,0.0222,0.0,-0.001,3.0,3.0
0.05,0.7,-0.4,-0.0886,0.505,0.0,0.1385,0.505,0.0,0.1385,0.7819,-0.2228,-0.0603,0.506,0.0014,0.1409,0.5062,0.0008,0.1409,0.2481,0.043,0.0199,0.0,0.98,0.0,-0.1314,-0.282,-0.0407,-0.1173,0.3391,0.503,0.239,-0.0163,0.0014,-0.0051,-0.0185,0.0233,0.0,-0.0014,3.0,3.0
0.05,0.7,-0.4,-0.1034,0.505,0.0,0.1385,0.505,0.0,0.1385,0.7835,-0.2219,-0.0738,0.5061,0.0016,0.1413,0.5063,0.0008,0.1413,0.2504,0.0462,0.0212,0.0,0.9802,0.0,-0.1478,-0.2807,-0.0459,-0.1173,0.3624,0.503,0.2376,-0.0172,0.0016,-0.0049,-0.0193,0.0237,0.0,-0.0015,3.0,3.0
0.05,0.7,-0.4,-0.1175,0.505,0.0,0.1385,0.505,0.0,0.1385,0.7846,-0.2208,-0.0878,0.506,0.0018,0.1413,0.5063,0.0009,0.1413,0.2526,0.0493,0.0223,0.0,0.9804,0.0,-0.1649,-0.2791,-0.0508,-0.1173,0.3862,0.503,0.2361,-0.0172,0.0016,-0.0047,-0.0193,0.0235,0.0,-0.0016,3.0,3.0
0.05,0.7,-0.4,-0.131,0.505,0.0,0.1385,0.505,0.0,0.1385,0.7855,-0.2197,-0.102,0.5059,0.0021,0.1411,0.5063,0.001,0.1411,0.2547,0.0525,0.0235,0.0,0.9806,0.0,-0.1821,-0.2775,-0.0555,-0.1173,0.4097,0.503,0.2345,-0.0169,0.0017,-0.0044,-0.0188,0.0229,0.0,-0.0016,3.0,3.0
0.05,0.7,-0.4,-0.144,0.505,0.0,0.1385,0.505,0.0,0.1385,0.7862,-0.2186,-0.116,0.5058,0.0023,0.1408,0.5062,0.0011,0.1408,0.2568,0.0556,0.0246,0.0,0.9808,0.0,-0.199,-0.2758,-0.0599,-0.1173,0.4326,0.5031,0.2329,-0.0162,0.0017,-0.0041,-0.0181,0.0221,0.0,-0.0016,3.0,3.0
0.05,0.7,-0.4,-0.1562,0.505,0.0,0.1385,0.505,0.0,0.1385,0.7867,-0.2174,-0.1296,0.5057,0.0026,0.1404,0.5061,0.0012,0.1405,0.2587,0.0587,0.0257,0.0,0.9809,0.0,-0.2152,-0.2741,-0.064,-0.1173,0.4547,0.5031,0.2313,-0.0155,0.0016,-0.0039,-0.0172,0.0211,0.0,-0.0015,3.0,3.0
0.05,0.7,-0.4,-0.1678,0.505,0.0,0.1385,0.505,0.0,0.1385,0.7871,-0.2164,-0.1426,0.5055,0.0028,0.14,0.506,0.0013,0.1402,0.2606,0.0617,0.0269,0.0671,0.9811,0.0,-0.2307,-0.2725,-0.0679,-0.1173,0.4758,0.5031,0.2297,-0.014,0.0016,-0.0038,-0.0157,0.0187,0.0,-0.0015,3.0,3.0
0.05,0.7,-0.4,-0.1787,0.505,0.0,0.1385,0.505,0.0,0.1385,0.7875,-0.2153,-0.1544,0.5053,0.0031,0.1396,0.5059,0.0014,0.1397,0.2623,0.064,0.0275,0.542,0.9812,0.0,-0.2447,-0.2709,-0.0716,-0.1173,0.4945,0.5031,0.2283,-0.0076,0.0018,-0.0049,-0.0094,0.0064,0.0,-0.0013,3.0,3.0
0.05,0.7,-0.4,-0.1889,0.505,0.0,0.1385,0.505,0.0,0.1385,0.7889,-0.214,-0.1613,0.505,0.0032,0.1384,0.5057,0.0013,0.1385,0.264,0.0607,0.0239,0.7274,0.9813,0.0,-0.2523,-0.2691,-0.0765,-0.1173,0.5009,0.5031,0.2269,-0.0047,0.0011,-0.0047,-0.0062,0.0039,-0.0,-0.0008,3.0,3.0
0.05,0.7,-0.4,-0.1984,0.505,0.0,0.1385,0.505,0.0,0.1385,0.7912,-0.2135,-0.1661,0.5048,0.003,0.1378,0.5055,0.0011,0.1379,0.2651,0.0573,0.0203,0.8244,0.9812,0.0,-0.257,-0.268,-0.0812,-0.1173,0.5048,0.5031,0.2262,-0.0029,0.0009,-0.0043,-0.0043,0.0021,0.0,-0.0004,3.0,3.0
0.05,0.7,-0.4,-0.2071,0.505,0.0,0.1385,0.505,0.0,0.1385,0.7938,-0.2131,-0.1696,0.5047,0.0028,0.1375,0.5054,0.0009,0.1376,0.2663,0.0538,0.0166,0.8692,0.9813,0.0,-0.26,-0.2671,-0.0855,-0.1173,0.5069,0.5031,0.2258,-0.002,0.0008,-0.004,-0.0032,0.0013,-0.0,-0.0003,3.0,3.0
0.05,0.7,-0.4,-0.2152,0.505,0.0,0.1385,0.505,0.0,0.1385,0.7966,-0.2128,-0.1724,0.5047,0.0027,0.1374,0.5054,0.0007,0.1375,0.2676,0.0504,0.0131,0.894,0.9811,0.0,-0.262,-0.2663,-0.0895,-0.1173,0.5081,0.5031,0.2255,-0.0015,0.0007,-0.0036,-0.0026,0.0009,0.0,-0.0001,3.0,3.0
0.05,0.7,-0.4,-0.2225,0.505,0.0,0.1385,0.505,0.0,0.1385,0.7993,-0.2127,-0.1747,0.5047,0.0025,0.1373,0.5053,0.0005,0.1375,0.2688,0.0472,0.0099,0.9094,0.9813,0.0,-0.2635,-0.2656,-0.0932,-0.1173,0.509,0.5031,0.2253,-0.0012,0.0007,-0.0033,-0.0022,0.0006,-0.0,-0.0002,3.0,3.0
0.05,0.7,-0.4,-0.2291,0.505,0.0,0.1385,0.505,0.0,0.1385,0.8018,-0.2126,-0.1768,0.5047,0.0024,0.1373,0.5053,0.0004,0.1374,0.2701,0.0443,0.0071,0.9197,0.981,0.0,-0.2647,-0.2649,-0.0964,-0.1173,0.5096,0.5031,0.2252,-0.001,0.0005,-0.003,-0.0019,0.0005,0.0,-0.0001,3.0,3.0
0.05,0.7,-0.4,-0.235,0.505,0.0,0.1385,0.505,0.0,0.1385,0.8042,-0.2125,-0.1785,0.5047,0.0022,0.1373,0.5053,0.0002,0.1374,0.2713,0.0416,0.0048,0.9271,0.9814,0.0,-0.2657,-0.2645,-0.0994,-0.1173,0.5101,0.5031,0.2251,-0.0008,0.0005,-0.0026,-0.0016,0.0004,-0.0001,-0.0001,3.0,3.0
0.05,0.7,-0.4,-0.2402,0.505,0.0,0.1385,0.505,0.0,0.1385,0.8064,-0.2124,-0.1801,0.5048,0.0021,0.1373,0.5053,0.0001,0.1374,0.2726,0.0392,0.0033,0.9325,0.9809,0.0,-0.2665,-0.2639,-0.102,-0.1173,0.5104,0.5031,0.225,-0.0007,0.0003,-0.0023,-0.0014,0.0003,0.0001,-0.0,3.0,3.0
0.05,0.7,-0.4,-0.2448,0.505,0.0,0.1385,0.505,0.0,0.1385,0.8083,-0.2125,-0.1815,0.5048,0.002,0.1374,0.5052,-0.0,0.1374,0.2736,0.0371,0.0033,0.9366,0.9815,0.0,-0.2672,-0.2636,-0.1044,-0.1173,0.5107,0.5031,0.225,-0.0006,0.0005,-0.002,-0.0012,0.0002,-0.0001,-0.0001,3.0,3.0
0.05,0.7,-0.4,-0.2487,0.505,0.0,0.1385,0.505,0.0,0.1385,0.8101,-0.2124,-0.1827,0.5048,0.0019,0.1374,0.5052,-0.0001,0.1374,0.2747,0.0353,0.0044,0.9398,0.9807,0.0,-0.2678,-0.2631,-0.1064,-0.1173,0.5109,0.5031,0.2249,-0.0005,0.0002,-0.0018,-0.001,0.0002,0.0001,0.0001,3.0,3.0
0.05,0.7,-0.4,-0.252,0.505,0.0,0.1385,0.505,0.0,0.1385,0.8115,-0.2124,-0.1837,0.5048,0.0018,0.1374,0.5052,-0.0002,0.1374,0.2754,0.0337,0.0057,0.9423,0.9817,0.0,-0.2684,-0.2629,-0.1081,-0.1173,0.5111,0.5032,0.2249,-0.0004,0.0004,-0.0014,-0.0009,0.0001,-0.0001,-0.0002,3.0,3.0
0.05,0.7,-0.4,-0.2547,0.505,0.0,0.1385,0.505,0.0,0.1385,0.8128,-0.2123,-0.1846,0.5048,0.0017,0.1374,0.5052,-0.0003,0.1374,0.2763,0.0324,0.0069,0.9441,0.9804,0.0,-0.2688,-0.2625,-0.1096,-0.1173,0.5112,0.503,0.2248,-0.0004,-0.0,-0.0013,-0.0007,0.0001,0.0002,0.0001,3.0,3.0
0.05,0.7,-0.4,-0.2568,0.505,0.0,0.1385,0.505,0.0,0.1385,0.8138,-0.2125,-0.1853,0.5048,0.0016,0.1374,0.5052,-0.0004,0.1374,0.2767,0.0313,0.0079,0.9456,0.982,0.0,-0.2692,-0.2625,-0.1108,-0.1173,0.5113,0.5032,0.2249,-0.0003,0.0004,-0.0009,-0.0006,0.0001,-0.0002,-0.0002,3.0,3.0
0.05,0.7,-0.4,-0.2585,0.505,0.0,0.1385,0.505,0.0,0.1385,0.8147,-0.2122,-0.1859,0.5049,0.0016,0.1373,0.5052,-0.0003,0.1374,0.2774,0.0304,0.0088,0.9467,0.98,0.0,-0.2695,-0.2621,-0.1117,-0.1173,0.5114,0.503,0.2247,-0.0003,-0.0002,-0.0008,-0.0005,0.0001,0.0003,0.0002,3.0,3.0
0.05,0.7,-0.4,-0.2597,0.505,0.0,0.1385,0.505,0.0,0.1385,0.8153,-0.2125,-0.1864,0.5048,0.0015,0.1373,0.5052,-0.0005,0.1374,0.2774,0.0297,0.0095,0.9475,0.9825,0.0,-0.2697,-0.2623,-0.1125,-0.1173,0.5114,0.5033,0.2249,-0.0002,0.0005,-0.0005,-0.0004,0.0,-0.0004,-0.0003,3.0,3.0
0.05,0.7,-0.4,-0.2606,0.505,0.0,0.1385,0.505,0.0,0.1385,0.8159,-0.2121,-0.1868,0.5049,0.0016,0.1373,0.5051,-0.0004,0.1374,0.278,0.0291,0.0101,0.9481,0.9793,0.0,-0.2699,-0.2618,-0.113,-0.1173,0.5115,0.5029,0.2246,-0.0002,-0.0005,-0.0005,-0.0003,0.0,0.0005,0.0004,3.0,3.0
0.05,0.7,-0.4,-0.2611,0.505,0.0,0.1385,0.505,0.0,0.1385,0.8161,-0.2126,-0.187,0.5048,0.0015,0.1373,0.5052,-0.0005,0.1373,0.2776,0.0289,0.0103,0.9485,0.9834,0.0,-0.27,-0.2622,-0.1135,-0.1173,0.5115,0.5034,0.225,-0.0001,0.0007,-0.0001,-0.0002,0.0,-0.0006,-0.0005,3.0,3.0
0.05,0.7,-0.4,-0.2614,0.505,0.0,0.1385,0.505,0.0,0.1385,0.8164,-0.212,-0.1872,0.5049,0.0016,0.1373,0.5051,-0.0004,0.1373,0.2784,0.0285,0.0107,0.9487,0.9782,0.0,-0.2701,-0.2615,-0.1136,-0.1173,0.5115,0.5028,0.2244,-0.0001,-0.0009,-0.0004,-0.0001,0.0,0.0008,0.0007,3.0,3.0
0.05,0.7,-0.4,-0.2615,0.505,0.0,0.1385,0.505,0.0,0.1385,0.8163,-0.2127,-0.1873,0.5048,0.0014,0.1373,0.5052,-0.0006,0.1373,0.2775,0.0285,0.0107,0.9488,0.9847,0.0,-0.2702,-0.2624,-0.114,-0.1173,0.5115,0.5036,0.2251,0.0,0.0011,0.0002,-0.0001,0.0,-0.001,-0.0008,3.0,3.0
0.05,0.7,-0.4,-0.2615,0.505,0.0,0.1385,0.505,0.0,0.1385,0.8166,-0.2118,-0.1873,0.5049,0.0016,0.1373,0.5051,-0.0004,0.1373,0.2786,0.0283,0.0109,0.9488,0.9765,0.0,-0.2702,-0.2613,-0.1137,-0.1173,0.5115,0.5026,0.2243,-0.0001,-0.0014,-0.0004,-0.0,0.0,0.0012,0.0011,3.0,3.0
0.05,0.7,-0.4,-0.2615,0.505,0.0,0.1385,0.505,0.0,0.1385,0.8163,-0.213,-0.1873,0.5047,0.0013,0.1372,0.5052,-0.0007,0.1373,0.2772,0.0285,0.0107,0.9488,0.9867,0.0,-0.2703,-0.2627,-0.1141,-0.1173,0.5115,0.5038,0.2253,0.0001,0.0018,0.0004,-0.0,-0.0,-0.0015,-0.0013,3.0,3.0
0.05,0.7,-0.3999,-0.2615,0.505,0.0,0.1385,0.505,0.0,0.1385,0.8167,-0.2116,-0.1873,0.505,0.0017,0.1373,0.5051,-0.0003,0.1373,0.2788,0.0282,0.011,0.9488,0.9739,0.0,-0.2702,-0.2609,-0.1137,-0.1173,0.5115,0.5023,0.2241,-0.0001,-0.0022,-0.0005,-0.0,0.0,0.0019,0.0016,3.0,3.0
0.05,0.7,-0.3996,-0.2615,0.505,0.0,0.1385,0.505,0.0,0.1385,0.8162,-0.2134,-0.1873,0.5047,0.0013,0.1372,0.5052,-0.0008,0.1373,0.2764,0.0286,0.0107,0.9489,0.9896,0.0,-0.2703,-0.2632,-0.1142,-0.1173,0.5116,0.5043,0.2257,0.0001,0.0027,0.0006,-0.0,-0.0,-0.0023,-0.0019,3.0,3.0
0.05,0.7,-0.3991,-0.2615,0.505,0.0,0.1385,0.505,0.0,0.1385,0.8166,-0.2111,-0.1873,0.505,0.0017,0.1373,0.5051,-0.0002,0.1373,0.2784,0.0281,0.0111,0.9489,0.9704,0.0,-0.2702,-0.2605,-0.1136,-0.1173,0.5115,0.502,0.2238,-0.0002,-0.0033,-0.0008,-0.0,0.0,0.0028,0.0024,3.0,3.0
0.05,0.7,-0.3982,-0.2615,0.505,0.0,0.1385,0.505,0.0,0.1385,0.8157,-0.2138,-0.1872,0.5046,0.0012,0.1372,0.5052,-0.0009,0.1373,0.2745,0.0287,0.0107,0.949,0.9928,0.0,-0.2704,-0.2638,-0.1144,-0.1173,0.5116,0.5048,0.2262,0.0002,0.0038,0.0008,-0.0,0.0,-0.0032,-0.0026,3.0,3.0
0.05,0.7,-0.397,-0.2615,0.505,0.0,0.1385,0.505,0.0,0.1385,0.8161,-0.2106,-0.1871,0.5051,0.0019,0.1373,0.505,-0.0,0.1373,0.2769,0.028,0.0113,0.9491,0.967,0.0,-0.2702,-0.26,-0.1136,-0.1173,0.5116,0.5017,0.2236,-0.0002,-0.0044,-0.0011,-0.0,0.0,0.0037,0.0031,3.0,3.0
0.05,0.7,-0.3953,-0.2615,0.505,0.0,0.1385,0.505,0.0,0.1385,0.8147,-0.214,-0.1868,0.5045,0.0011,0.1372,0.5053,-0.0011,0.1373,0.2712,0.0287,0.0108,0.9494,0.9953,0.0,-0.2704,-0.2644,-0.1147,-0.1173,0.5116,0.5054,0.2267,0.0002,0.0047,0.001,-0.0,0.0,-0.0038,-0.0031,3.0,3.0
0.05,0.7,-0.3932,-0.2615,0.505,0.0,0.1385,0.505,0.0,0.1385,0.815,-0.21,-0.1866,0.5052,0.0019,0.1373,0.505,0.0001,0.1373,0.2735,0.0278,0.0115,0.9495,0.9653,0.0,-0.2702,-0.2597,-0.1137,-0.1173,0.5116,0.5015,0.2235,-0.0003,-0.0048,-0.0012,-0.0001,0.0,0.004,0.0032,3.0,3.0
0.05,0.7,-0.3904,-0.2615,0.505,0.0,0.1385,0.505,0.0,0.1385,0.8131,-0.2137,-0.1862,0.5045,0.001,0.1372,0.5053,-0.0011,0.1373,0.2664,0.0285,0.0109,0.95,0.9959,0.0,-0.2705,-0.2646,-0.1149,-0.1173,0.5116,0.5055,0.2268,0.0002,0.005,0.001,-0.0001,0.0,-0.004,-0.0032,3.0,3.0
0.05,0.7,-0.3872,-0.2615,0.505,0.0,0.1385,0.505,0.0,0.1385,0.813,-0.2094,-0.1859,0.5052,0.002,0.1373,0.505,0.0001,0.1373,0.2679,0.0276,0.0117,0.9503,0.965,0.0,-0.2703,-0.2596,-0.1139,-0.1173,0.5117,0.5015,0.2235,-0.0003,-0.0048,-0.0012,-0.0001,0.0,0.0039,0.003,3.0,3.0
0.05,0.7,-0.3833,-0.2615,0.505,0.0,0.1385,0.505,0.0,0.1385,0.8107,-0.2128,-0.1853,0.5045,0.001,0.1372,0.5053,-0.0011,0.1373,0.2598,0.0283,0.0112,0.9509,0.9952,0.0,-0.2706,-0.2643,-0.1152,-0.1173,0.5117,0.5053,0.2266,0.0002,0.0048,0.0009,-0.0001,0.0,-0.0039,-0.0031,3.0,3.0
0.05,0.7,-0.3787,-0.2615,0.505,0.0,0.1385,0.505,0.0,0.1385,0.8101,-0.2085,-0.1847,0.5052,0.0019,0.1373,0.505,0.0001,0.1373,0.2599,0.0273,0.012,0.9513,0.9646,0.0,-0.2704,-0.2595,-0.1142,-0.1173,0.5117,0.5014,0.2235,-0.0003,-0.0045,-0.0012,-0.0001,0.0001,0.0036,0.0028,3.0,3.0
0.05,0.7,-0.3735,-0.2615,0.505,0.0,0.1385,0.505,0.0,0.1385,0.8074,-0.2116,-0.184,0.5045,0.001,0.1373,0.5053,-0.0011,0.1374,0.2509,0.0279,0.0115,0.9521,0.9939,0.0,-0.2707,-0.264,-0.1155,-0.1173,0.5118,0.505,0.2263,0.0002,0.0045,0.0008,-0.0001,0.0,-0.0036,-0.0029,3.0,3.0
0.05,0.7,-0.3676,-0.2615,0.505,0.0,0.1385,0.505,0.0,0.1385,0.8062,-0.2074,-0.1833,0.5052,0.0019,0.1374,0.505,0.0,0.1373,0.2495,0.027,0.0123,0.9527,0.9643,0.0,-0.2705,-0.2595,-0.1147,-0.1173,0.5118,0.5014,0.2234,-0.0003,-0.004,-0.0011,-0.0001,0.0001,0.0032,0.0025,3.0,3.0
0.05,0.7,-0.361,-0.2615,0.505,0.0,0.1385,0.505,0.0,0.1385,0.8031,-0.21,-0.1823,0.5046,0.001,0.1373,0.5052,-0.0011,0.1374,0.2396,0.0275,0.0119,0.9535,0.9918,0.0,-0.2708,-0.2635,-0.1158,-0.1173,0.5119,0.5046,0.2259,0.0001,0.0041,0.0007,-0.0002,0.0001,-0.0032,-0.0026,3.0,3.0
0.05,0.7,-0.3537,-0.2615,0.505,0.0,0.1385,0.505,0.0,0.1385,0.8014,-0.206,-0.1814,0.5052,0.0018,0.1374,0.505,-0.0001,0.1373,0.2364,0.0266,0.0127,0.9543,0.964,0.0,-0.2707,-0.2594,-0.1151,-0.1173,0.512,0.5014,0.2233,-0.0003,-0.0034,-0.001,-0.0001,0.0001,0.0027,0.002,3.0,3.0
0.05,0.7,-0.3456,-0.2615,0.505,0.0,0.1385,0.505,0.0,0.1385,0.7979,-0.208,-0.1803,0.5046,0.0011,0.1373,0.5052,-0.001,0.1374,0.226,0.027,0.0124,0.9552,0.9885,0.0,-0.2709,-0.2629,-0.1161,-0.1173,0.512,0.5041,0.2253,0.0001,0.0034,0.0005,-0.0002,0.0001,-0.0027,-0.0022,3.0,3.0
0.05,0.7,-0.3369,-0.2615,0.505,0.0,0.1385,0.505,0.0,0.1385,0.7956,-0.2044,-0.1792,0.5051,0.0017,0.1374,0.505,-0.0002,0.1374,0.221,0.0262,0.013,0.9561,0.9638,0.0,-0.2708,-0.2595,-0.1156,-0.1173,0.5121,0.5014,0.2231,-0.0002,-0.0026,-0.0008,-0.0001,0.0001,0.002,0.0014,3.0,3.0
0.05,0.7,-0.3274,-0.2615,0.505,0.0,0.1385,0.505,0.0,0.1385,0.7919,-0.2056,-0.1779,0.5047,0.0011,0.1373,0.5052,-0.001,0.1374,0.2104,0.0265,0.0128,0.9571,0.9833,0.0,-0.2711,-0.2621,-0.1164,-0.1173,0.5122,0.5034,0.2246,0.0,0.0026,0.0004,-0.0002,0.0001,-0.002,-0.0016,3.0,3.0
0.05,0.7,-0.3172,-0.2615,0.505,0.0,0.1385,0.505,0.0,0.1385,0.789,-0.2026,-0.1766,0.5051,0.0016,0.1374,0.5051,-0.0003,0.1374,0.2037,0.0259,0.0134,0.9581,0.9636,0.0,-0.271,-0.2595,-0.116,-0.1173,0.5123,0.5014,0.223,-0.0002,-0.0017,-0.0005,-0.0001,0.0001,0.0012,0.0007,3.0,3.0
0.05,0.7,-0.3063,-0.2615,0.505,0.0,0.1385,0.505,0.0,0.1385,0.7852,-0.203,-0.1752,0.5047,0.0012,0.1373,0.5052,-0.0008,0.1374,0.1932,0.0261,0.0132,0.9591,0.9759,0.0,-0.2712,-0.2612,-0.1165,-0.1173,0.5124,0.5025,0.2237,0.0,0.0016,0.0002,-0.0001,0.0001,-0.0013,-0.001,3.0,3.0
0.05,0.7,-0.2947,-0.2615,0.505,0.0,0.1385,0.505,0.0,0.1385,0.7818,-0.2007,-0.1738,0.505,0.0015,0.1374,0.5051,-0.0004,0.1374,0.1852,0.0257,0.0135,0.9601,0.9622,0.0,-0.2712,-0.2595,-0.1163,-0.1173,0.5124,0.5012,0.2227,-0.0001,-0.0007,-0.0001,-0.0001,0.0001,0.0003,0.0001,3.0,3.0
0.05,0.7,-0.2824,-0.2615,0.505,0.0,0.1385,0.505,0.0,0.1385,0.7779,-0.2002,-0.1723,0.5048,0.0013,0.1373,0.5051,-0.0007,0.1374,0.1756,0.0258,0.0135,0.9611,0.9661,0.0,-0.2713,-0.2602,-0.1164,-0.1173,0.5125,0.5016,0.2228,-0.0,0.0009,0.0002,-0.0001,0.0001,-0.0008,-0.0006,3.0,3.0
0.05,0.7,-0.2695,-0.2615,0.505,0.0,0.1385,0.505,0.0,0.1385,0.7742,-0.1985,-0.1707,0.5049,0.0014,0.1373,0.5051,-0.0005,0.1374,0.1675,0.0258,0.0135,0.9621,0.9571,0.0,-0.2713,-0.2593,-0.1162,-0.1173,0.5126,0.5008,0.2221,-0.0,0.0001,0.0002,-0.0,0.0001,-0.0003,-0.0005,3.0,3.0
0.05,0.7,-0.256,-0.2615,0.505,0.0,0.1385,0.505,0.0,0.1385,0.7703,-0.1974,-0.1691,0.5049,0.0014,0.1373,0.5051,-0.0006,0.1373,0.1596,0.0259,0.0134,0.9631,0.9531,0.0,-0.2714,-0.2592,-0.116,-0.1173,0.5127,0.5005,0.2217,0.0,0.0006,0.0004,0.0,0.0001,-0.0007,-0.0007,3.0,3.0
0.05,0.7,-0.2419,-0.2615,0.505,0.0,0.1385,0.505,0.0,0.1385,0.7665,-0.1959,-0.1675,0.5049,0.0014,0.1373,0.5051,-0.0006,0.1373,0.1532,0.0261,0.0133,0.9641,0.9436,0.0,-0.2714,-0.2586,-0.1156,-0.1172,0.5128,0.4998,0.221,0.0,0.0006,0.0006,0.0001,0.0001,-0.0008,-0.001,3.0,3.0
0.05,0.7,-0.2271,-0.2615,0.505,0.0,0.1385,0.505,0.0,0.1385,0.7627,-0.1944,-0.1659,0.5049,0.0014,0.1373,0.5051,-0.0005,0.1373,0.1484,0.0263,0.013,0.965,0.9308,0.0,-0.2713,-0.258,-0.115,-0.1171,0.5129,0.499,0.22,0.0,0.001,0.0008,0.0001,0.0001,-0.0012,-0.0014,3.0,3.0
0.05,0.7,-0.2119,-0.2615,0.505,0.0,0.1385,0.505,0.0,0.1385,0.7591,-0.1928,-0.1643,0.5049,0.0015,0.1373,0.5051,-0.0005,0.1373,0.1459,0.0267,0.0127,0.9658,0.9102,0.0,-0.2713,-0.2571,-0.1142,-0.117,0.5129,0.4977,0.2187,0.0,0.0015,0.0011,0.0002,0.0001,-0.0019,-0.0021,3.0,3.0
0.05,0.7,-0.1961,-0.2615,0.505,0.0,0.1385,0.505,0.0,0.1385,0.7556,-0.1907,-0.1626,0.505,0.0016,0.1373,0.5051,-0.0004,0.1373,0.1459,0.0271,0.0123,0.9667,0.874,0.0,-0.2713,-0.2556,-0.1131,-0.1168,0.513,0.4958,0.2166,0.0001,0.0026,0.0016,0.0002,0.0001,-0.0032,-0.0035,3.0,3.0
0.05,0.7,-0.1798,-0.2615,0.505,0.0,0.1385,0.505,0.0,0.1385,0.7525,-0.188,-0.161,0.5051,0.0017,0.1373,0.5051,-0.0002,0.1373,0.1487,0.0276,0.012,0.9674,0.8013,0.0,-0.2712,-0.253,-0.1115,-0.1166,0.5131,0.4926,0.2131,0.0002,0.0052,0.0026,0.0003,0.0001,-0.0062,-0.0066,3.0,3.0
0.05,0.7,-0.1631,-0.2615,0.505,0.0,0.1385,0.505,0.0,0.1385,0.7501,-0.1834,-0.1594,0.5053,0.002,0.1373,0.505,0.0001,0.1373,0.1535,0.0278,0.0119,0.968,0.6304,0.0,-0.2709,-0.2479,-0.1089,-0.1163,0.5131,0.4864,0.2065,0.0006,0.0121,0.0049,0.0006,0.0,-0.0141,-0.015,3.0,3.0
0.05,0.7,-0.146,-0.2615,0.505,0.0,0.1385,0.505,0.0,0.1385,0.749,-0.1738,-0.1578,0.5058,0.0026,0.1374,0.5048,0.001,0.1373,0.1584,0.0275,0.013,0.9685,0.213,0.0,-0.2703,-0.2357,-0.104,-0.1157,0.5132,0.4723,0.1915,0.0015,0.0303,0.0107,0.001,0.0,-0.0349,-0.0368,3.0,3.0
0.05,0.7,-0.1286,-0.2615,0.505,0.0,0.1385,0.505,0.0,0.1385,0.7511,-0.151,-0.1561,0.5071,0.0044,0.1378,0.5041,0.0032,0.1373,0.159,0.0258,0.0186,0.9687,0.0,0.0,-0.2688,-0.2055,-0.0932,-0.1147,0.5132,0.4374,0.1547,0.0014,0.0308,0.0125,0.0012,0.0,-0.0402,-0.0445,3.0,3.0
0.05,0.7,-0.1108,-0.2615,0.505,0.0,0.1385,0.505,0.0,0.1385,0.753,-0.1281,-0.1543,0.5072,0.0044,0.1378,0.5039,0.0031,0.1374,0.1597,0.0243,0.0204,0.9688,0.0,0.0,-0.2674,-0.1747,-0.0807,-0.1135,0.5132,0.3973,0.1102,0.0008,0.0237,0.0108,0.0009,0.0,-0.0332,-0.0371,3.0,3.0
0.05,0.7,-0.0928,-0.2615,0.505,0.0,0.1385,0.505,0.0,0.1385,0.7535,-0.1105,-0.1529,0.5066,0.0037,0.1377,0.5041,0.0021,0.1374,0.1614,0.0235,0.0198,0.969,0.0,0.0,-0.2665,-0.151,-0.0699,-0.1127,0.5132,0.3641,0.0731,0.0008,0.0245,0.0107,0.0007,0.0,-0.0324,-0.0351,3.0,3.0
0.05,0.7,-0.0745,-0.2615,0.505,0.0,0.1385,0.505,0.0,0.1385,0.7541,-0.0924,-0.1516,0.5066,0.0038,0.1377,0.504,0.0022,0.1373,0.1628,0.023,0.0208,0.9692,0.0,0.0,-0.2657,-0.1265,-0.0592,-0.112,0.5133,0.3317,0.0381,0.0007,0.0249,0.011,0.0006,0.0,-0.0334,-0.0357,3.0,3.0
0.05,0.7,-0.056,-0.2615,0.505,0.0,0.1385,0.505,0.0,0.1385,0.7545,-0.0741,-0.1505,0.5066,0.0038,0.1377,0.5039,0.0021,0.1373,0.164,0.0225,0.0216,0.9693,0.0,0.0,-0.265,-0.1017,-0.0482,-0.1114,0.5133,0.2983,0.0024,0.0006,0.0252,0.0113,0.0005,0.0,-0.0342,-0.0361,3.0,3.0
0.05,0.7,-0.0374,-0.2615,0.505,0.0,0.1385,0.505,0.0,0.1385,0.7548,-0.0556,-0.1497,0.5066,0.0039,0.1377,0.5038,0.0021,0.1373,0.1649,0.0222,0.0222,0.9694,0.0,0.0,-0.2645,-0.0764,-0.037,-0.1109,0.5133,0.2641,-0.0337,0.0004,0.0255,0.0115,0.0003,0.0,-0.0348,-0.0364,3.0,3.0
0.05,0.7,-0.0187,-0.2615,0.505,0.0,0.1385,0.505,0.0,0.1385,0.7551,-0.0369,-0.1491,0.5066,0.004,0.1377,0.5037,0.0021,0.1373,0.1654,0.0219,0.0228,0.9695,0.0,0.0,-0.2641,-0.0509,-0.0255,-0.1105,0.5133,0.2293,-0.0701,0.0003,0.0257,0.0116,0.0002,0.0,-0.0354,-0.0365,3.0,3.0
0.05,0.7,-0.0,-0.2615,0.505,0.0,0.1385,0.505,0.0,0.1385,0.7553,-0.0182,-0.1487,0.5065,0.004,0.1377,0.5036,0.002,0.1373,0.1655,0.0216,0.0232,0.9695,0.0,0.0,-0.2638,-0.0252,-0.0139,-0.1103,0.5133,0.194,-0.1066,0.0001,0.0258,0.0117,0.0001,-0.0,-0.0358,-0.0364,3.0,3.0
0.05,0.7,0.0187,-0.2615,0.505,0.0,0.1385,0.505,0.0,0.1385,0.7553,0.0007,-0.1485,0.5065,0.004,0.1377,0.5035,0.002,0.1372,0.1653,0.0213,0.0236,0.9694,0.0,0.0,-0.2637,0.0006,-0.0022,-0.1103,0.5133,0.1582,-0.143,-0.0,0.0258,0.0117,-0.0001,-0.0,-0.036,-0.0362,3.0,3.0
0.05,0.7,0.0374,-0.2615,0.505,0.0,0.1385,0.505,0.0,0.1385,0.7553,0.0195,-0.1487,0.5064,0.004,0.1376,0.5035,0.0019,0.1372,0.1647,0.021,0.0239,0.9694,0.0,0.0,-0.2637,0.0264,0.0095,-0.1104,0.5133,0.1222,-0.1793,-0.0002,0.0257,0.0116,-0.0002,-0.0,-0.0361,-0.0359,3.0,3.0
0.05,0.7,0.056,-0.2615,0.505,0.0,0.1385,0.505,0.0,0.1385,0.7551,0.0382,-0.149,0.5064,0.004,0.1376,0.5034,0.0018,0.1372,0.1638,0.0207,0.0243,0.9693,0.0,0.0,-0.2639,0.0521,0.0212,-0.1106,0.5133,0.086,-0.2152,-0.0003,0.0255,0.0115,-0.0004,-0.0,-0.0361,-0.0354,3.0,3.0
0.05,0.7,0.0745,-0.2615,0.505,0.0,0.1385,0.505,0.0,0.1385,0.7549,0.0569,-0.1496,0.5063,0.004,0.1376,0.5033,0.0017,0.1372,0.1625,0.0202,0.0246,0.9691,0.0,0.0,-0.2642,0.0776,0.0327,-0.111,0.5133,0.0499,-0.2506,-0.0005,0.0252,0.0113,-0.0005,-0.0,-0.0359,-0.0348,3.0,3.0
0.05,0.7,0.0928,-0.2615,0.505,0.0,0.1385,0.505,0.0,0.1385,0.7546,0.0754,-0.1504,0.5063,0.004,0.1376,0.5033,0.0016,0.1371,0.161,0.0197,0.025,0.969,0.0,0.0,-0.2647,0.1028,0.044,-0.1115,0.5132,0.014,-0.2854,-0.0006,0.0249,0.0111,-0.0006,-0.0,-0.0356,-0.034,3.0,3.0
0.05,0.7,0.1108,-0.2615,0.505,0.0,0.1385,0.505,0.0,0.1385,0.7541,0.0937,-0.1515,0.5062,0.0039,0.1375,0.5032,0.0015,0.1371,0.1592,0.0191,0.0254,0.9687,0.0,0.0,-0.2653,0.1277,0.0551,-0.1122,0.5132,-0.0216,-0.3194,-0.0007,0.0244,0.0108,-0.0007,-0.0,-0.0351,-0.0332,3.0,3.0
0.05,0.7,0.1286,-0.2615,0.505,0.0,0.1385,0.505,0.0,0.1385,0.7536,0.1118,-0.1527,0.5061,0.0039,0.1375,0.5032,0.0013,0.1371,0.1571,0.0183,0.0259,0.9685,0.0,0.0,-0.266,0.1521,0.0658,-0.1129,0.5132,-0.0567,-0.3526,-0.0008,0.0239,0.0104,-0.0008,-0.0,-0.0345,-0.0322,3.0,3.0
0.05,0.7,0.146,-0.2615,0.505,0.0,0.1385,0.505,0.0,0.1385,0.7531,0.1295,-0.1541,0.506,0.0038,0.1375,0.5032,0.0012,0.1371,0.1548,0.0174,0.0265,0.9682,0.0,0.0,-0.2668,0.176,0.0762,-0.1138,0.5132,-0.0912,-0.3847,-0.0009,0.0233,0.01,-0.0009,-0.0,-0.0338,-0.0311,3.0,3.0
0.05,0.7,0.1631,-0.2615,0.505,0.0,0.1385,0.505,0.0,0.1385,0.7525,0.147,-0.1557,0.506,0.0036,0.1374,0.5032,0.001,0.1371,0.1524,0.0164,0.0273,0.9679,0.0,0.0,-0.2677,0.1993,0.0862,-0.1147,0.5131,-0.125,-0.4159,-0.001,0.0226,0.0096,-0.001,-0.0,-0.0329,-0.03,3.0,3.0
0.05,0.7,0.1798,-0.2615,0.505,0.0,0.1385,0.505,0.0,0.1385,0.7518,0.164,-0.1574,0.5059,0.0035,0.1374,0.5032,0.0009,0.137,0.1498,0.0153,0.0281,0.9676,0.0,0.0,-0.2687,0.2219,0.0958,-0.1156,0.5131,-0.1579,-0.4459,-0.001,0.0219,0.0091,-0.001,-0.0,-0.032,-0.0288,3.0,3.0
0.05,0.7,0.1961,-0.2615,0.505,0.0,0.1385,0.505,0.0,0.1385,0.7511,0.1806,-0.1591,0.5058,0.0034,0.1374,0.5032,0.0007,0.137,0.1471,0.014,0.0291,0.9673,0.0,0.0299,-0.2697,0.2438,0.1048,-0.1167,0.5131,-0.1899,-0.4747,-0.0011,0.0203,0.0084,-0.001,-0.0,-0.0301,-0.0267,3.0,3.0
0.05,0.7,0.2119,-0.2615,0.505,0.0,0.1385,0.505,0.0,0.1385,0.7506,0.1963,-0.1607,0.5057,0.0031,0.1375,0.5032,0.0005,0.1372,0.1448,0.0124,0.0302,0.9669,0.0,0.6894,-0.2708,0.2641,0.1132,-0.1173,0.513,-0.22,-0.5014,-0.0003,-0.0,0.0024,-0.0009,-0.0001,-0.0082,-0.0049,3.0,3.0
0.05,0.7,0.2271,-0.2615,0.505,0.0,0.1385,0.505,0.0,0.1385,0.7541,0.197,-0.1623,0.5052,0.0005,0.1376,0.5048,-0.0015,0.1375,0.1469,0.0108,0.0284,0.966,0.0,0.8164,-0.271,0.2641,0.1156,-0.1173,0.513,-0.2282,-0.5063,-0.0006,0.0035,0.0018,-0.0007,-0.0001,-0.0038,-0.0038,3.0,3.0
0.05,0.7,0.2419,-0.2615,0.505,0.0,0.1385,0.505,0.0,0.1385,0.7571,0.2006,-0.1641,0.5053,0.001,0.1375,0.5046,-0.0011,0.1374,0.1496,0.0111,0.0282,0.9653,0.0,0.8956,-0.2716,0.2676,0.1174,-0.1173,0.5129,-0.232,-0.5101,-0.0003,0.0007,0.001,-0.0005,-0.0001,-0.0023,-0.0017,3.0,3.0
0.05,0.7,0.256,-0.2615,0.505,0.0,0.1385,0.505,0.0,0.1385,0.7607,0.2021,-0.1658,0.5052,0.0006,0.1374,0.5048,-0.0014,0.1374,0.1549,0.0115,0.0276,0.9644,0.0,0.9248,-0.2719,0.2683,0.1185,-0.1173,0.5128,-0.2343,-0.5118,-0.0002,0.0008,0.0007,-0.0003,-0.0001,-0.0012,-0.0011,3.0,3.0
0.05,0.7,0.2695,-0.2615,0.505,0.0,0.1385,0.505,0.0,0.1385,0.7644,0.2037,-0.1675,0.5052,0.0007,0.1374,0.5048,-0.0014,0.1374,0.1615,0.0119,0.0273,0.9635,0.0,0.9412,-0.2721,0.2691,0.1192,-0.1173,0.5127,-0.2355,-0.5129,-0.0001,0.0005,0.0005,-0.0002,-0.0001,-0.0009,-0.0007,3.0,3.0
0.05,0.7,0.2824,-0.2615,0.505,0.0,0.1385,0.505,0.0,0.1385,0.7682,0.2051,-0.1692,0.5052,0.0006,0.1374,0.5048,-0.0014,0.1373,0.1692,0.0121,0.0271,0.9626,0.0,0.951,-0.2722,0.2696,0.1196,-0.1173,0.5127,-0.2364,-0.5136,-0.0001,0.0004,0.0003,-0.0001,-0.0001,-0.0006,-0.0005,3.0,3.0
0.05,0.7,0.2947,-0.2615,0.505,0.0,0.1385,0.505,0.0,0.1385,0.772,0.2065,-0.1708,0.5051,0.0006,0.1374,0.5048,-0.0014,0.1373,0.1774,0.0122,0.0269,0.9616,0.0,0.9577,-0.2722,0.2699,0.1199,-0.1173,0.5126,-0.237,-0.5141,-0.0,0.0003,0.0002,-0.0,-0.0001,-0.0005,-0.0004,3.0,3.0
0.05,0.7,0.3063,-0.2615,0.505,0.0,0.1385,0.505,0.0,0.1385,0.7757,0.2078,-0.1724,0.5051,0.0006,0.1373,0.5048,-0.0014,0.1373,0.1859,0.0122,0.0269,0.9607,0.0,0.9624,-0.2722,0.2702,0.1201,-0.1173,0.5125,-0.2375,-0.5145,0.0,0.0003,0.0,0.0,-0.0001,-0.0004,-0.0003,3.0,3.0
0.05,0.7,0.3172,-0.2615,0.505,0.0,0.1385,0.505,0.0,0.1385,0.7795,0.2091,-0.1739,0.5051,0.0006,0.1373,0.5048,-0.0014,0.1373,0.1945,0.0122,0.027,0.9597,0.0,0.966,-0.2722,0.2705,0.1201,-0.1172,0.5124,-0.2378,-0.5149,0.0,0.0002,-0.0,0.0001,-0.0001,-0.0003,-0.0003,3.0,3.0
0.05,0.7,0.3274,-0.2615,0.505,0.0,0.1385,0.505,0.0,0.1385,0.7831,0.2103,-0.1753,0.5051,0.0006,0.1373,0.5048,-0.0014,0.1373,0.2029,0.012,0.0271,0.9587,0.0,0.9687,-0.2722,0.2707,0.1201,-0.1172,0.5123,-0.2381,-0.5151,0.0,0.0002,-0.0001,0.0001,-0.0001,-0.0002,-0.0002,3.0,3.0
0.05,0.7,0.3369,-0.2615,0.505,0.0,0.1385,0.505,0.0,0.1385,0.7866,0.2114,-0.1767,0.5051,0.0006,0.1373,0.5048,-0.0014,0.1373,0.2109,0.0119,0.0272,0.9577,0.0,0.9708,-0.2722,0.2709,0.12,-0.1171,0.5122,-0.2384,-0.5153,0.0,0.0002,-0.0001,0.0001,-0.0001,-0.0002,-0.0002,3.0,3.0
0.05,0.7,0.3456,-0.2615,0.505,0.0,0.1385,0.505,0.0,0.1385,0.7899,0.2125,-0.178,0.5051,0.0006,0.1373,0.5048,-0.0014,0.1373,0.2185,0.0117,0.0274,0.9568,0.0,0.9725,-0.2722,0.271,0.1199,-0.117,0.5122,-0.2386,-0.5155,0.0,0.0001,-0.0002,0.0001,-0.0001,-0.0002,-0.0001,3.0,3.0
0.05,0.7,0.3537,-0.2615,0.505,0.0,0.1385,0.505,0.0,0.1385,0.7931,0.2136,-0.1793,0.5051,0.0006,0.1373,0.5048,-0.0014,0.1373,0.2257,0.0115,0.0276,0.9558,0.0,0.9739,-0.2722,0.2712,0.1197,-0.117,0.5121,-0.2388,-0.5156,0.0,0.0001,-0.0002,0.0001,-0.0001,-0.0001,-0.0001,3.0,3.0
0.05,0.7,0.361,-0.2615,0.505,0.0,0.1385,0.505,0.0,0.1385,0.796,0.2145,-0.1804,0.5051,0.0005,0.1373,0.5048,-0.0014,0.1373,0.2322,0.0113,0.0278,0.955,0.0,0.9751,-0.2722,0.2713,0.1195,-0.1169,0.512,-0.2389,-0.5158,0.0,0.0001,-0.0002,0.0001,-0.0001,-0.0001,-0.0001,3.0,3.0
0.05,0.7,0.3676,-0.2615,0.505,0.0,0.1385,0.505,0.0,0.1385,0.7988,0.2154,-0.1815,0.5051,0.0005,0.1373,0.5048,-0.0015,0.1373,0.2382,0.0111,0.028,0.9541,0.0,0.976,-0.2722,0.2714,0.1193,-0.1168,0.512,-0.239,-0.5159,0.0,0.0001,-0.0002,0.0001,-0.0001,-0.0001,-0.0001,3.0,3.0
0.05,0.7,0.3735,-0.2615,0.505,0.0,0.1385,0.505,0.0,0.1385,0.8013,0.2163,-0.1824,0.5051,0.0005,0.1373,0.5048,-0.0015,0.1373,0.2436,0.0108,0.0283,0.9533,0.0,0.9768,-0.2721,0.2715,0.1191,-0.1167,0.5119,-0.2391,-0.5159,0.0,0.0001,-0.0002,0.0001,-0.0001,-0.0001,-0.0001,3.0,3.0
